;FLAVOR:Marlin
;TIME:2662
;Filament used: 2.52829m
;Layer height: 0.28
;MINX:53.898
;MINY:58.777
;MINZ:0.28
;MAXX:166.091
;MAXY:161.242
;MAXZ:7.28
;Generated with Cura_SteamEngine 5.2.0
M82 ;absolute extrusion mode
; Ender 3 Custom Start G-code
G92 E0 ; Reset Extruder
G28 ; Home all axes
M104 S175 ; Start heating up the nozzle most of the way
M190 S60 ; Start heating the bed, wait until target temperature reached
M109 S200 ; Finish heating the nozzle
G1 Z2.0 F3000 ; Move Z Axis up little to prevent scratching of Heat Bed
G1 X0.1 Y20 Z0.3 F5000.0 ; Move to start position
G1 X0.1 Y200.0 Z0.3 F1500.0 E15 ; Draw the first line
G1 X0.4 Y200.0 Z0.3 F5000.0 ; Move to side a little
G1 X0.4 Y20 Z0.3 F1500.0 E30 ; Draw the second line
G92 E0 ; Reset Extruder
G1 Z2.0 F3000 ; Move Z Axis up little to prevent scratching of Heat Bed
G1 X5 Y20 Z0.3 F5000.0 ; Move over to prevent blob squish
G92 E0
G92 E0
G1 F1500 E-6.5
;LAYER_COUNT:26
;LAYER:0
M107
G0 F6000 X57.78 Y62.672 Z0.28
;TYPE:SKIRT
G1 F1500 E0
G1 F1200 X58.519 Y62.096 E0.04363
G1 X59.305 Y61.584 E0.08731
G1 X60.132 Y61.141 E0.13099
G1 X60.994 Y60.771 E0.17467
G1 X61.884 Y60.475 E0.21835
G1 X62.796 Y60.256 E0.26202
G1 X63.723 Y60.115 E0.30568
G1 X64.599 Y60.055 E0.34657
G1 X65.228 Y60.042 E0.37586
G1 X132.175 Y60.042 E3.4932
G1 X134.783 Y60.005 E3.61465
G1 X137.304 Y59.898 E3.73214
G1 X139.799 Y59.721 E3.84861
G1 X142.294 Y59.474 E3.96536
G1 X144.82 Y59.151 E4.08394
G1 X146.452 Y58.904 E4.16079
G1 X147.384 Y58.804 E4.20444
G1 X147.954 Y58.782 E4.231
G1 X148.344 Y58.777 E4.24916
G1 X152.251 Y58.8 E4.43109
G1 X153.719 Y58.781 E4.49946
G1 X154.656 Y58.809 E4.54311
G1 X156.03 Y58.996 E4.60767
G1 X156.467 Y59.084 E4.62843
G1 X157.377 Y59.309 E4.67208
G1 X158.265 Y59.61 E4.71574
G1 X159.125 Y59.985 E4.75943
G1 X160.305 Y60.655 E4.82261
G1 X160.584 Y60.837 E4.83812
G1 X161.347 Y61.382 E4.88179
G1 X162.061 Y61.991 E4.92548
G1 X162.707 Y62.643 E4.96822
G1 X163.013 Y62.979 E4.98938
G1 X163.614 Y63.699 E5.03305
G1 X164.152 Y64.467 E5.07672
G1 X164.814 Y65.662 E5.14033
G1 X164.95 Y65.948 E5.15508
G1 X165.316 Y66.812 E5.19877
G1 X165.608 Y67.703 E5.24243
G1 X165.86 Y68.828 E5.29611
G1 X165.936 Y69.275 E5.31722
G1 X166.054 Y70.206 E5.36092
G1 X166.091 Y71.281 E5.41101
G1 X166.052 Y73.904 E5.53316
G1 X166.091 Y76.663 E5.66164
G1 X166.064 Y77.601 E5.70534
G1 X165.935 Y78.671 E5.75552
G1 X165.868 Y79.063 E5.77404
G1 X165.67 Y79.98 E5.81772
G1 X165.396 Y80.877 E5.8614
G1 X165.07 Y81.693 E5.90231
G1 X164.709 Y82.484 E5.9428
G1 X164.047 Y83.83 E6.01265
G1 X162.982 Y86.104 E6.12957
G1 X161.967 Y88.442 E6.24825
G1 X161.025 Y90.795 E6.36627
G1 X160.163 Y93.133 E6.4823
G1 X159.355 Y95.533 E6.60022
G1 X158.619 Y97.943 E6.71756
G1 X157.96 Y100.337 E6.83318
G1 X157.361 Y102.787 E6.95062
G1 X156.821 Y105.305 E7.07054
G1 X156.371 Y107.731 E7.18543
G1 X155.981 Y110.221 E7.30279
G1 X155.664 Y112.711 E7.41967
G1 X155.416 Y115.226 E7.53734
G1 X155.237 Y117.759 E7.65558
G1 X155.134 Y120.234 E7.77093
G1 X155.098 Y122.807 E7.89075
G1 X155.097 Y149.657 E9.141
G1 X155.087 Y150.384 E9.17486
G1 X155.034 Y151.321 E9.21856
G1 X154.902 Y152.249 E9.2622
G1 X154.691 Y153.163 E9.30588
G1 X154.402 Y154.055 E9.34954
G1 X154.039 Y154.92 E9.39322
G1 X153.604 Y155.751 E9.4369
G1 X153.099 Y156.541 E9.48056
G1 X152.529 Y157.286 E9.52424
G1 X151.898 Y157.98 E9.56791
G1 X151.209 Y158.617 E9.61161
G1 X150.469 Y159.193 E9.65527
G1 X149.683 Y159.704 E9.69893
G1 X148.856 Y160.146 E9.74259
G1 X147.994 Y160.516 E9.78627
G1 X147.104 Y160.811 E9.82993
G1 X146.192 Y161.03 E9.8736
G1 X145.265 Y161.17 E9.91726
G1 X144.397 Y161.229 E9.95777
G1 X143.768 Y161.242 E9.98706
G1 X65.463 Y161.241 E13.63327
G1 X64.765 Y161.232 E13.66578
G1 X63.829 Y161.18 E13.70943
G1 X62.9 Y161.048 E13.75312
G1 X61.986 Y160.838 E13.79679
G1 X61.093 Y160.551 E13.84047
G1 X60.228 Y160.188 E13.88415
G1 X59.397 Y159.754 E13.9278
G1 X58.606 Y159.25 E13.97147
G1 X57.861 Y158.68 E14.01515
G1 X57.167 Y158.049 E14.05883
G1 X56.53 Y157.362 E14.10245
G1 X55.953 Y156.622 E14.14615
G1 X55.441 Y155.836 E14.18983
G1 X54.998 Y155.009 E14.23351
G1 X54.627 Y154.148 E14.27717
G1 X54.331 Y153.258 E14.32084
G1 X54.112 Y152.346 E14.36452
G1 X53.971 Y151.419 E14.40818
G1 X53.911 Y150.53 E14.44967
G1 X53.898 Y149.9 E14.47901
G1 X53.899 Y71.596 E18.12517
G1 X53.908 Y70.907 E18.15726
G1 X53.96 Y69.971 E18.20091
G1 X54.092 Y69.042 E18.2446
G1 X54.302 Y68.128 E18.28827
G1 X54.59 Y67.236 E18.33192
G1 X54.952 Y66.371 E18.37558
G1 X55.387 Y65.54 E18.41926
G1 X55.891 Y64.749 E18.46293
G1 X56.461 Y64.004 E18.50661
G1 X57.092 Y63.31 E18.55028
G1 X57.78 Y62.672 E18.59397
G0 F6000 X58.169 Y62.869
G1 F1200 X58.904 Y62.315 E18.63683
G1 X59.685 Y61.827 E18.67971
G1 X60.505 Y61.408 E18.72259
G1 X61.358 Y61.063 E18.76544
G1 X62.238 Y60.792 E18.80831
G1 X63.138 Y60.6 E18.85116
G1 X64.052 Y60.486 E18.89405
G1 X64.61 Y60.455 E18.92008
G1 X65.228 Y60.442 E18.94886
G1 X132.181 Y60.442 E22.06647
G1 X134.806 Y60.405 E22.18872
G1 X137.314 Y60.298 E22.3056
G1 X139.834 Y60.12 E22.42324
G1 X142.348 Y59.871 E22.54087
G1 X144.886 Y59.546 E22.66002
G1 X146.512 Y59.3 E22.73659
G1 X147.427 Y59.202 E22.77944
G1 X147.959 Y59.182 E22.80423
G1 X148.349 Y59.177 E22.82239
G1 X152.254 Y59.2 E23.00423
G1 X153.724 Y59.181 E23.07269
G1 X154.644 Y59.209 E23.11554
G1 X155.951 Y59.389 E23.17698
G1 X156.388 Y59.477 E23.19774
G1 X157.281 Y59.697 E23.24056
G1 X158.153 Y59.995 E23.28347
G1 X158.995 Y60.367 E23.32633
G1 X160.086 Y60.99 E23.38483
G1 X160.365 Y61.172 E23.40035
G1 X161.114 Y61.708 E23.44323
G1 X161.813 Y62.307 E23.4861
G1 X162.411 Y62.913 E23.52574
G1 X162.717 Y63.249 E23.5469
G1 X163.307 Y63.956 E23.58978
G1 X163.833 Y64.711 E23.63263
G1 X164.453 Y65.834 E23.69236
G1 X164.589 Y66.12 E23.7071
G1 X164.948 Y66.968 E23.74998
G1 X165.232 Y67.843 E23.79282
G1 X165.466 Y68.895 E23.843
G1 X165.542 Y69.342 E23.86412
G1 X165.657 Y70.256 E23.90701
G1 X165.691 Y71.275 E23.95449
G1 X165.652 Y73.904 E24.07692
G1 X165.691 Y76.669 E24.20568
G1 X165.664 Y77.589 E24.24854
G1 X165.54 Y78.604 E24.29615
G1 X165.473 Y78.996 E24.31467
G1 X165.279 Y79.896 E24.35754
G1 X165.007 Y80.775 E24.40038
G1 X164.705 Y81.53 E24.43825
G1 X164.35 Y82.307 E24.47803
G1 X163.694 Y83.642 E24.54729
G1 X162.617 Y85.94 E24.66546
G1 X161.592 Y88.301 E24.78531
G1 X160.649 Y90.657 E24.90348
G1 X159.791 Y92.984 E25.01897
G1 X158.98 Y95.393 E25.13733
G1 X158.237 Y97.825 E25.25574
G1 X157.564 Y100.274 E25.374
G1 X156.967 Y102.713 E25.49092
G1 X156.437 Y105.184 E25.6086
G1 X155.976 Y107.668 E25.72624
G1 X155.583 Y110.179 E25.84459
G1 X155.268 Y112.657 E25.9609
G1 X155.018 Y115.191 E26.07947
G1 X154.84 Y117.716 E26.19733
G1 X154.734 Y120.247 E26.31529
G1 X154.698 Y122.802 E26.43427
G1 X154.697 Y149.652 E27.68452
G1 X154.687 Y150.379 E27.71838
G1 X154.634 Y151.298 E27.76124
G1 X154.502 Y152.209 E27.8041
G1 X154.291 Y153.105 E27.84697
G1 X154.004 Y153.98 E27.88985
G1 X153.641 Y154.826 E27.93271
G1 X153.207 Y155.638 E27.97558
G1 X152.703 Y156.409 E28.01848
G1 X152.135 Y157.133 E28.06133
G1 X151.506 Y157.805 E28.10419
G1 X150.821 Y158.42 E28.14705
G1 X150.085 Y158.973 E28.18992
G1 X149.304 Y159.461 E28.2328
G1 X148.484 Y159.879 E28.27566
G1 X147.63 Y160.224 E28.31855
G1 X146.75 Y160.493 E28.36139
G1 X145.849 Y160.686 E28.4043
G1 X144.936 Y160.799 E28.44714
G1 X144.386 Y160.829 E28.47279
G1 X143.768 Y160.842 E28.50157
G1 X65.468 Y160.841 E32.14754
G1 X64.77 Y160.832 E32.18005
G1 X63.851 Y160.78 E32.22291
G1 X62.94 Y160.649 E32.26577
G1 X62.044 Y160.439 E32.30862
G1 X61.169 Y160.152 E32.3515
G1 X60.322 Y159.79 E32.39439
G1 X59.51 Y159.356 E32.43726
G1 X58.739 Y158.854 E32.4801
G1 X58.014 Y158.286 E32.52299
G1 X57.341 Y157.657 E32.56588
G1 X56.726 Y156.973 E32.60871
G1 X56.172 Y156.238 E32.65157
G1 X55.684 Y155.457 E32.69445
G1 X55.265 Y154.637 E32.73733
G1 X54.919 Y153.784 E32.78019
G1 X54.649 Y152.904 E32.82305
G1 X54.456 Y152.003 E32.86596
G1 X54.342 Y151.09 E32.9088
G1 X54.311 Y150.519 E32.93543
G1 X54.298 Y149.9 E32.96426
G1 X54.299 Y71.602 E36.61014
G1 X54.308 Y70.913 E36.64223
G1 X54.36 Y69.993 E36.68514
G1 X54.491 Y69.082 E36.72799
G1 X54.702 Y68.186 E36.77086
G1 X54.989 Y67.311 E36.81373
G1 X55.351 Y66.465 E36.85658
G1 X55.785 Y65.653 E36.89945
G1 X56.287 Y64.881 E36.94233
G1 X56.855 Y64.157 E36.98518
G1 X57.484 Y63.484 E37.02808
G1 X58.169 Y62.869 E37.07094
G0 F6000 X58.557 Y63.069
G1 F1200 X59.288 Y62.539 E37.11299
G1 X60.062 Y62.075 E37.15501
G1 X60.875 Y61.682 E37.19705
G1 X61.72 Y61.362 E37.23913
G1 X62.59 Y61.118 E37.2812
G1 X63.477 Y60.952 E37.32322
G1 X64.621 Y60.855 E37.37668
G1 X65.228 Y60.842 E37.40495
G1 X132.187 Y60.842 E40.52285
G1 X134.793 Y60.805 E40.6442
G1 X137.358 Y60.696 E40.76375
G1 X139.865 Y60.518 E40.88078
G1 X142.406 Y60.267 E40.99967
G1 X144.903 Y59.947 E41.1169
G1 X146.571 Y59.695 E41.19545
G1 X147.47 Y59.6 E41.23754
G1 X147.964 Y59.582 E41.26056
G1 X148.354 Y59.577 E41.27872
G1 X152.257 Y59.6 E41.46046
G1 X153.729 Y59.581 E41.52901
G1 X154.631 Y59.609 E41.57103
G1 X155.872 Y59.781 E41.62937
G1 X156.309 Y59.869 E41.65013
G1 X157.185 Y60.086 E41.69215
G1 X158.039 Y60.38 E41.73421
G1 X158.864 Y60.748 E41.77627
G1 X159.868 Y61.325 E41.83019
G1 X160.147 Y61.507 E41.8457
G1 X160.881 Y62.033 E41.88775
G1 X161.565 Y62.623 E41.92981
G1 X162.115 Y63.182 E41.96633
G1 X162.421 Y63.518 E41.98749
G1 X162.999 Y64.212 E42.02955
G1 X163.514 Y64.954 E42.0716
G1 X164.092 Y66.006 E42.1275
G1 X164.228 Y66.292 E42.14224
G1 X164.579 Y67.124 E42.18429
G1 X164.855 Y67.983 E42.2263
G1 X165.072 Y68.962 E42.273
G1 X165.148 Y69.409 E42.29411
G1 X165.26 Y70.305 E42.33615
G1 X165.291 Y71.269 E42.38107
G1 X165.252 Y73.904 E42.50378
G1 X165.291 Y76.675 E42.63282
G1 X165.264 Y77.577 E42.67484
G1 X165.146 Y78.536 E42.71983
G1 X165.079 Y78.928 E42.73835
G1 X164.888 Y79.811 E42.78041
G1 X164.619 Y80.673 E42.82246
G1 X164.339 Y81.367 E42.85731
G1 X163.991 Y82.131 E42.8964
G1 X163.34 Y83.454 E42.96506
G1 X162.24 Y85.804 E43.08588
G1 X161.23 Y88.129 E43.20391
G1 X160.279 Y90.506 E43.32313
G1 X159.401 Y92.886 E43.44125
G1 X158.6 Y95.264 E43.55809
G1 X157.854 Y97.707 E43.67704
G1 X157.184 Y100.145 E43.79477
G1 X156.574 Y102.639 E43.91432
G1 X156.046 Y105.099 E44.03148
G1 X155.582 Y107.599 E44.14988
G1 X155.185 Y110.139 E44.26959
G1 X154.871 Y112.604 E44.38529
G1 X154.619 Y115.16 E44.50489
G1 X154.439 Y117.705 E44.62369
G1 X154.334 Y120.226 E44.74118
G1 X154.298 Y122.796 E44.86086
G1 X154.297 Y149.646 E46.11111
G1 X154.287 Y150.373 E46.14497
G1 X154.235 Y151.275 E46.18704
G1 X154.103 Y152.168 E46.22907
G1 X153.892 Y153.047 E46.27116
G1 X153.605 Y153.903 E46.3132
G1 X153.243 Y154.73 E46.35524
G1 X152.809 Y155.522 E46.39729
G1 X152.307 Y156.273 E46.43936
G1 X151.741 Y156.976 E46.48138
G1 X151.114 Y157.627 E46.52347
G1 X150.433 Y158.219 E46.56548
G1 X149.702 Y158.749 E46.60753
G1 X148.926 Y159.212 E46.64961
G1 X148.113 Y159.605 E46.69165
G1 X147.268 Y159.925 E46.73373
G1 X146.399 Y160.168 E46.77574
G1 X145.511 Y160.333 E46.8178
G1 X144.375 Y160.429 E46.87089
G1 X143.768 Y160.442 E46.89916
G1 X65.473 Y160.441 E50.5449
G1 X64.775 Y160.432 E50.5774
G1 X63.874 Y160.381 E50.61943
G1 X62.98 Y160.249 E50.6615
G1 X62.102 Y160.04 E50.70353
G1 X61.245 Y159.753 E50.74561
G1 X60.418 Y159.392 E50.78763
G1 X59.625 Y158.959 E50.8297
G1 X58.874 Y158.458 E50.87174
G1 X58.17 Y157.892 E50.9138
G1 X57.519 Y157.266 E50.95586
G1 X56.926 Y156.585 E50.9979
G1 X56.396 Y155.854 E51.03995
G1 X55.932 Y155.079 E51.08201
G1 X55.538 Y154.266 E51.12408
G1 X55.218 Y153.422 E51.16611
G1 X54.974 Y152.552 E51.20818
G1 X54.808 Y151.664 E51.25025
G1 X54.711 Y150.509 E51.30422
G1 X54.698 Y149.9 E51.33258
G1 X54.699 Y71.607 E54.97823
G1 X54.708 Y70.918 E55.01032
G1 X54.76 Y70.016 E55.05239
G1 X54.891 Y69.123 E55.09441
G1 X55.101 Y68.244 E55.1365
G1 X55.387 Y67.388 E55.17852
G1 X55.749 Y66.56 E55.2206
G1 X56.182 Y65.768 E55.26263
G1 X56.683 Y65.017 E55.30467
G1 X57.249 Y64.313 E55.34673
G1 X57.875 Y63.662 E55.38878
G1 X58.557 Y63.069 E55.43087
G1 F1500 E48.93087
;MESH:cover.stl
G0 F6000 X144.751 Y70.389
G0 X146.264 Y70.914
G0 X147.828 Y71.718
;TYPE:WALL-INNER
G1 F1500 E55.43087
G1 F1200 X148.12 Y71.842 E55.44564
G1 X148.426 Y71.834 E55.45989
G1 X148.768 Y71.662 E55.47772
G1 X148.916 Y71.452 E55.48968
G1 X148.987 Y71.131 E55.50499
G1 X148.999 Y70.985 E55.51181
G1 X148.917 Y70.76 E55.52296
G1 X148.715 Y70.521 E55.53753
G1 X148.558 Y70.417 E55.5463
G1 X148.214 Y70.364 E55.56251
G1 X147.985 Y70.416 E55.57344
G1 X147.782 Y70.534 E55.58438
G1 X147.601 Y70.749 E55.59746
G1 X147.53 Y70.952 E55.60748
G1 X147.527 Y71.25 E55.62135
G1 X147.594 Y71.452 E55.63126
G1 X147.828 Y71.718 E55.64776
G0 F6000 X148.134 Y72.268
;TYPE:WALL-OUTER
G1 F1200 X148.52 Y72.226 E55.66584
G1 X148.786 Y72.127 E55.67906
G1 X149.05 Y71.955 E55.69373
G1 X149.272 Y71.642 E55.7116
G1 X149.369 Y71.386 E55.72434
G1 X149.386 Y71.162 E55.7348
G1 X149.405 Y70.929 E55.74569
G1 X149.248 Y70.502 E55.76687
G1 X148.974 Y70.213 E55.78542
G1 X148.717 Y70.042 E55.79979
G1 X148.364 Y69.964 E55.81662
G1 X148.17 Y69.963 E55.82566
G1 X147.837 Y70.04 E55.84157
G1 X147.536 Y70.214 E55.85776
G1 X147.241 Y70.569 E55.87926
G1 X147.13 Y70.882 E55.89472
G1 X147.127 Y71.312 E55.91474
G1 X147.23 Y71.626 E55.93013
G1 X147.354 Y71.817 E55.94073
G1 X147.584 Y72.039 E55.95562
G1 X147.77 Y72.149 E55.96568
G1 X148.134 Y72.268 E55.98351
G0 F6000 X148.02 Y71.284
;TYPE:SKIN
G1 F855.6 X148.129 Y71.377 E55.99287
G1 X148.31 Y71.403 E56.00481
G1 X148.454 Y71.331 E56.01533
G1 X148.542 Y71.179 E56.0268
G1 X148.55 Y71.074 E56.03367
G1 X148.531 Y70.987 E56.03949
G1 X148.366 Y70.831 E56.05432
G1 X148.243 Y70.81 E56.06247
G1 X148.066 Y70.879 E56.07487
G1 X147.969 Y71.026 E56.08638
G1 X147.969 Y71.17 E56.09578
G1 X148.02 Y71.284 E56.10394
G1 F1500 E49.60394
G0 F6000 X147.778 Y71.531
G0 X148.283 Y71.688
G0 X149.154 Y71.334
G0 X150.234 Y71.418
G0 X151.758 Y71.325
G0 X153.391 Y71.76
;TYPE:WALL-INNER
G1 F1500 E56.10394
G1 F1200 X153.624 Y71.842 E56.11544
G1 X153.923 Y71.833 E56.12937
G1 X154.265 Y71.661 E56.14719
G1 X154.408 Y71.458 E56.15875
G1 X154.491 Y71.187 E56.17195
G1 X154.497 Y71.134 E56.17443
G1 X154.453 Y70.862 E56.18726
G1 X154.382 Y70.713 E56.19495
G1 X154.209 Y70.518 E56.20709
G1 X154.056 Y70.417 E56.21563
G1 X153.762 Y70.352 E56.22965
G1 X153.455 Y70.415 E56.24424
G1 X153.3 Y70.515 E56.25283
G1 X153.13 Y70.699 E56.26449
G1 X153.023 Y70.913 E56.27563
G1 X153.008 Y71.123 E56.28544
G1 X153.045 Y71.334 E56.29541
G1 X153.155 Y71.55 E56.3067
G1 X153.391 Y71.76 E56.32141
G0 F6000 X153.627 Y72.268
;TYPE:WALL-OUTER
G1 F1200 X154.016 Y72.225 E56.33963
G1 X154.283 Y72.127 E56.35288
G1 X154.547 Y71.955 E56.36755
G1 X154.767 Y71.644 E56.38529
G1 X154.88 Y71.324 E56.40109
G1 X154.889 Y71.227 E56.40563
G1 X154.9 Y71.122 E56.41054
G1 X154.839 Y70.742 E56.42846
G1 X154.719 Y70.49 E56.44146
G1 X154.473 Y70.213 E56.45871
G1 X154.214 Y70.043 E56.47314
G1 X153.861 Y69.964 E56.48998
G1 X153.665 Y69.963 E56.49911
G1 X153.301 Y70.038 E56.51641
G1 X153.04 Y70.207 E56.53089
G1 X152.798 Y70.47 E56.54753
G1 X152.63 Y70.805 E56.56498
G1 X152.605 Y71.143 E56.58076
G1 X152.661 Y71.462 E56.59585
G1 X152.825 Y71.783 E56.61263
G1 X153.033 Y72.002 E56.62669
G1 X153.21 Y72.12 E56.6366
G1 X153.627 Y72.268 E56.6572
G0 F6000 X153.674 Y71.747
G0 X154.245 Y71.516
G0 X153.963 Y71.323
;TYPE:SKIN
G1 F852.6 X154.04 Y71.072 E56.67441
G1 X153.908 Y70.849 E56.69139
G1 X153.784 Y70.811 E56.69989
G1 X153.64 Y70.832 E56.70943
G1 X153.467 Y71.017 E56.72603
G1 X153.477 Y71.206 E56.73844
G1 X153.611 Y71.37 E56.75232
G1 X153.817 Y71.397 E56.76593
G1 X153.963 Y71.323 E56.77666
G1 F1500 E50.27666
G0 F6000 X154.245 Y71.516
G0 X153.741 Y72.036
G0 X153.863 Y73.113
G0 X153.786 Y74.806
G0 X153.769 Y77.554
;TYPE:WALL-INNER
G1 F1500 E56.77666
G1 F1200 X154.056 Y77.488 E56.79037
G1 X154.263 Y77.363 E56.80163
G1 X154.449 Y77.069 E56.81783
G1 X154.493 Y76.815 E56.82984
G1 X154.469 Y76.659 E56.83719
G1 X154.453 Y76.563 E56.84172
G1 X154.319 Y76.324 E56.85448
G1 X153.999 Y76.1 E56.87266
G1 X153.844 Y76.07 E56.88002
G1 X153.567 Y76.088 E56.89294
G1 X153.354 Y76.167 E56.90352
G1 X153.216 Y76.29 E56.91213
G1 X153.073 Y76.505 E56.92415
