;FLAVOR:Marlin
;TIME:1427
;Filament used: 0.89395m
;Layer height: 0.28
;MINX:87.201
;MINY:87.201
;MINZ:0.28
;MAXX:132.796
;MAXY:132.799
;MAXZ:30.111
;Generated with Cura_SteamEngine 5.2.0
M82 ;absolute extrusion mode
; Ender 3 Custom Start G-code
G92 E0 ; Reset Extruder
G28 ; Home all axes
M104 S175 ; Start heating up the nozzle most of the way
M190 S60 ; Start heating the bed, wait until target temperature reached
M109 S200 ; Finish heating the nozzle
G1 Z2.0 F3000 ; Move Z Axis up little to prevent scratching of Heat Bed
G1 X0.1 Y20 Z0.3 F5000.0 ; Move to start position
G1 X0.1 Y200.0 Z0.3 F1500.0 E15 ; Draw the first line
G1 X0.4 Y200.0 Z0.3 F5000.0 ; Move to side a little
G1 X0.4 Y20 Z0.3 F1500.0 E30 ; Draw the second line
G92 E0 ; Reset Extruder
G1 Z2.0 F3000 ; Move Z Axis up little to prevent scratching of Heat Bed
G1 X5 Y20 Z0.3 F5000.0 ; Move over to prevent blob squish
G92 E0
G92 E0
G1 F1500 E-6.5
;LAYER_COUNT:107
;LAYER:0
M107
G0 F6000 X93.783 Y93.974 Z0.28
;TYPE:SKIRT
G1 F1500 E0
G1 F1200 X94.522 Y93.26 E0.04785
G1 X95.035 Y92.799 E0.07996
G1 X95.316 Y92.559 E0.09717
G1 X95.85 Y92.123 E0.12927
G1 X96.134 Y91.902 E0.14603
G1 X96.689 Y91.49 E0.17821
G1 X96.98 Y91.284 E0.19482
G1 X97.795 Y90.741 E0.24042
G1 X98.296 Y90.434 E0.26778
G1 X98.892 Y90.089 E0.29984
G1 X99.226 Y89.907 E0.31756
G1 X99.841 Y89.59 E0.34977
G1 X100.159 Y89.435 E0.36625
G1 X101.102 Y89.01 E0.41441
G1 X101.741 Y88.75 E0.44653
G1 X102.076 Y88.623 E0.46321
G1 X102.728 Y88.392 E0.49542
G1 X103.081 Y88.276 E0.51273
G1 X103.741 Y88.077 E0.54482
G1 X104.093 Y87.98 E0.56183
G1 X105.093 Y87.736 E0.60976
G1 X105.77 Y87.597 E0.64194
G1 X106.132 Y87.532 E0.65906
G1 X106.815 Y87.425 E0.69125
G1 X107.173 Y87.377 E0.70807
G1 X107.858 Y87.302 E0.74016
G1 X108.902 Y87.228 E0.7889
G1 X109.262 Y87.213 E0.80567
G1 X109.951 Y87.201 E0.83776
G1 X110.313 Y87.203 E0.85462
G1 X111.003 Y87.223 E0.88676
G1 X111.619 Y87.258 E0.91549
G1 X112.564 Y87.346 E0.95968
G1 X112.93 Y87.39 E0.97685
G1 X113.612 Y87.489 E1.00894
G1 X113.969 Y87.549 E1.0258
G1 X114.648 Y87.68 E1.058
G1 X115.205 Y87.801 E1.08454
G1 X115.514 Y87.877 E1.09935
G1 X116.436 Y88.127 E1.14384
G1 X117.011 Y88.306 E1.17188
G1 X117.665 Y88.528 E1.20404
G1 X118.01 Y88.654 E1.22114
G1 X118.654 Y88.907 E1.25336
G1 X118.984 Y89.045 E1.27001
G1 X119.613 Y89.326 E1.30209
G1 X119.946 Y89.485 E1.31928
G1 X120.562 Y89.796 E1.35141
G1 X121.089 Y90.079 E1.37926
G1 X121.934 Y90.576 E1.42491
G1 X122.218 Y90.753 E1.44049
G1 X122.795 Y91.131 E1.47261
G1 X123.097 Y91.34 E1.48971
G1 X123.878 Y91.911 E1.53476
G1 X124.349 Y92.284 E1.56274
G1 X125.097 Y92.915 E1.60831
G1 X125.541 Y93.32 E1.63629
G1 X126.293 Y94.052 E1.68516
G1 X126.959 Y94.761 E1.73045
G1 X127.353 Y95.213 E1.75837
G1 X127.793 Y95.745 E1.79052
G1 X128.021 Y96.034 E1.80766
G1 X128.436 Y96.587 E1.83985
G1 X128.788 Y97.084 E1.86821
G1 X129.308 Y97.876 E1.91233
G1 X129.509 Y98.201 E1.93012
G1 X129.857 Y98.798 E1.9623
G1 X130.028 Y99.107 E1.97875
G1 X130.348 Y99.718 E2.01086
G1 X130.795 Y100.656 E2.05925
G1 X130.941 Y100.986 E2.07605
G1 X131.204 Y101.623 E2.10814
G1 X131.334 Y101.962 E2.12504
G1 X131.568 Y102.613 E2.15726
G1 X131.684 Y102.961 E2.17434
G1 X131.887 Y103.622 E2.20653
G1 X131.981 Y103.954 E2.2226
G1 X132.154 Y104.621 E2.25469
G1 X132.237 Y104.973 E2.27153
G1 X132.379 Y105.648 E2.30365
G1 X132.445 Y106.001 E2.32037
G1 X132.556 Y106.683 E2.35254
G1 X132.606 Y107.044 E2.36951
G1 X132.685 Y107.73 E2.40167
G1 X132.738 Y108.333 E2.42985
G1 X132.788 Y109.293 E2.47462
G1 X132.796 Y109.655 E2.49148
G1 X132.796 Y110.346 E2.52365
G1 X132.788 Y110.708 E2.54051
G1 X132.756 Y111.397 E2.57263
G1 X132.685 Y112.274 E2.6136
G1 X132.606 Y112.959 E2.64571
G1 X132.556 Y113.318 E2.66259
G1 X132.445 Y114 E2.69476
G1 X132.38 Y114.348 E2.71125
G1 X132.238 Y115.025 E2.74346
G1 X132.154 Y115.382 E2.76053
G1 X131.981 Y116.049 E2.79262
G1 X131.885 Y116.387 E2.80898
G1 X131.682 Y117.046 E2.84109
G1 X131.568 Y117.388 E2.85788
G1 X131.208 Y118.368 E2.90649
G1 X130.946 Y119.005 E2.93856
G1 X130.79 Y119.358 E2.95653
G1 X130.496 Y119.983 E2.98869
G1 X130.024 Y120.898 E3.03664
G1 X129.851 Y121.212 E3.05333
G1 X129.502 Y121.809 E3.08553
G1 X129.311 Y122.117 E3.1024
G1 X128.773 Y122.937 E3.14807
G1 X128.439 Y123.406 E3.17488
G1 X128.026 Y123.958 E3.20698
G1 X127.791 Y124.257 E3.22469
G1 X127.164 Y125.007 E3.27021
G1 X126.777 Y125.436 E3.29711
G1 X126.302 Y125.938 E3.3293
G1 X126.032 Y126.21 E3.34714
G1 X125.533 Y126.688 E3.37932
G1 X125.106 Y127.077 E3.40621
G1 X124.347 Y127.718 E3.45247
G1 X123.879 Y128.088 E3.48025
G1 X123.094 Y128.663 E3.52556
G1 X122.805 Y128.863 E3.54193
G1 X122.227 Y129.243 E3.57414
G1 X121.915 Y129.437 E3.59125
G1 X121.097 Y129.917 E3.63541
G1 X120.794 Y130.083 E3.6515
G1 X119.934 Y130.52 E3.69641
G1 X119.6 Y130.679 E3.71364
G1 X118.659 Y131.09 E3.76145
G1 X118.017 Y131.343 E3.79359
G1 X117.661 Y131.473 E3.81123
G1 X117.006 Y131.695 E3.84344
G1 X116.434 Y131.873 E3.87133
G1 X115.502 Y132.125 E3.91629
G1 X115.145 Y132.211 E3.93339
G1 X114.471 Y132.356 E3.96549
G1 X113.607 Y132.512 E4.00637
G1 X112.923 Y132.611 E4.03855
G1 X112.563 Y132.654 E4.05543
G1 X111.615 Y132.742 E4.09977
G1 X111 Y132.777 E4.12845
G1 X110.311 Y132.797 E4.16055
G1 X109.949 Y132.799 E4.1774
G1 X109.26 Y132.787 E4.20949
G1 X108.9 Y132.772 E4.22627
G1 X107.856 Y132.698 E4.275
G1 X107.171 Y132.623 E4.30709
G1 X106.813 Y132.575 E4.32391
G1 X106.13 Y132.468 E4.3561
G1 X105.779 Y132.405 E4.37271
G1 X105.102 Y132.267 E4.40488
G1 X104.75 Y132.186 E4.4217
G1 X104.081 Y132.017 E4.45383
G1 X103.729 Y131.92 E4.47083
G1 X103.069 Y131.72 E4.50294
G1 X102.736 Y131.611 E4.51926
G1 X102.084 Y131.381 E4.55145
G1 X101.113 Y130.996 E4.60009
G1 X100.77 Y130.848 E4.61748
G1 X99.83 Y130.406 E4.66585
G1 X99.215 Y130.088 E4.69809
G1 X98.882 Y129.905 E4.71578
G1 X98.286 Y129.559 E4.74787
G1 X97.793 Y129.257 E4.77479
G1 X96.978 Y128.714 E4.8204
G1 X96.676 Y128.5 E4.83763
G1 X95.861 Y127.884 E4.8852
G1 X95.325 Y127.448 E4.91737
G1 X95.039 Y127.204 E4.93488
G1 X94.525 Y126.743 E4.96703
G1 X93.776 Y126.018 E5.01557
G1 X93.525 Y125.76 E5.03233
G1 X93.055 Y125.254 E5.06449
G1 X92.81 Y124.978 E5.08167
G1 X92.365 Y124.451 E5.11379
G1 X91.991 Y123.984 E5.14165
G1 X91.409 Y123.198 E5.18719
G1 X91.208 Y122.91 E5.20354
G1 X90.825 Y122.334 E5.23575
G1 X90.634 Y122.031 E5.25243
G1 X90.279 Y121.44 E5.28453
G1 X90.101 Y121.128 E5.30126
G1 X89.774 Y120.522 E5.33332
G1 X89.606 Y120.193 E5.35052
G1 X89.307 Y119.57 E5.3827
G1 X89.162 Y119.249 E5.3991
G1 X88.891 Y118.612 E5.43134
G1 X88.76 Y118.284 E5.44778
G1 X88.519 Y117.638 E5.47989
G1 X88.4 Y117.294 E5.49684
G1 X88.189 Y116.636 E5.52901
G1 X88.09 Y116.302 E5.54523
G1 X87.909 Y115.637 E5.57733
G1 X87.819 Y115.275 E5.5947
G1 X87.67 Y114.602 E5.62679
G1 X87.602 Y114.259 E5.64307
G1 X87.483 Y113.578 E5.67527
G1 X87.429 Y113.218 E5.69222
G1 X87.342 Y112.533 E5.72437
G1 X87.25 Y111.495 E5.77289
G1 X87.229 Y111.134 E5.78973
G1 X87.205 Y110.446 E5.82179
G1 X87.201 Y110.084 E5.83864
G1 X87.209 Y109.391 E5.87091
G1 X87.221 Y109.028 E5.88783
G1 X87.281 Y108.073 E5.93238
G1 X87.342 Y107.465 E5.96084
G1 X87.429 Y106.78 E5.99299
G1 X87.522 Y106.177 E6.0214
G1 X87.764 Y104.954 E6.07945
G1 X87.909 Y104.361 E6.10788
G1 X88.09 Y103.696 E6.13997
G1 X88.189 Y103.362 E6.15619
G1 X88.515 Y102.37 E6.20481
G1 X88.755 Y101.724 E6.2369
G1 X88.894 Y101.377 E6.25431
G1 X89.313 Y100.414 E6.30321
G1 X89.613 Y99.792 E6.33536
G1 X90.102 Y98.87 E6.38396
G1 X90.289 Y98.543 E6.4015
G1 X90.645 Y97.953 E6.43359
G1 X91.205 Y97.096 E6.48126
G1 X91.416 Y96.792 E6.49849
G1 X91.824 Y96.236 E6.5306
G1 X92.042 Y95.954 E6.5472
G1 X92.66 Y95.196 E6.59274
G1 X93.047 Y94.756 E6.62002
G1 X93.516 Y94.249 E6.65218
G1 X93.783 Y93.974 E6.67003
G0 F6000 X94.063 Y94.26
G1 F1200 X94.557 Y93.776 E6.70223
G1 X95.303 Y93.097 E6.74921
G1 X95.569 Y92.869 E6.76552
G1 X96.372 Y92.223 E6.81351
G1 X96.927 Y91.811 E6.84569
G1 X97.204 Y91.616 E6.86147
G1 X98.006 Y91.081 E6.90636
G1 X98.299 Y90.899 E6.92242
G1 X99.093 Y90.436 E6.96522
G1 X99.41 Y90.262 E6.98206
G1 X100.326 Y89.798 E7.02987
G1 X100.953 Y89.51 E7.062
G1 X101.892 Y89.121 E7.10933
G1 X102.21 Y89 E7.12517
G1 X102.862 Y88.769 E7.15738
G1 X103.197 Y88.659 E7.1738
G1 X103.857 Y88.46 E7.20589
G1 X104.191 Y88.368 E7.22203
G1 X105.174 Y88.128 E7.26914
G1 X105.851 Y87.989 E7.30133
G1 X106.194 Y87.927 E7.31756
G1 X106.877 Y87.82 E7.34975
G1 X107.217 Y87.775 E7.36572
G1 X107.902 Y87.7 E7.3978
G1 X108.237 Y87.671 E7.41346
G1 X108.928 Y87.627 E7.4457
G1 X109.269 Y87.613 E7.46159
G1 X109.958 Y87.601 E7.49368
G1 X110.301 Y87.603 E7.50965
G1 X111.251 Y87.635 E7.55391
G1 X111.836 Y87.677 E7.58122
G1 X112.525 Y87.744 E7.61346
G1 X112.872 Y87.786 E7.62973
G1 X113.554 Y87.885 E7.66182
G1 X113.893 Y87.942 E7.67783
G1 X114.572 Y88.073 E7.71003
G1 X115.118 Y88.192 E7.73605
G1 X115.411 Y88.264 E7.7501
G1 X116.32 Y88.51 E7.79395
G1 X116.883 Y88.685 E7.8214
G1 X117.537 Y88.907 E7.85356
G1 X117.864 Y89.026 E7.86977
G1 X118.508 Y89.279 E7.90198
G1 X119.449 Y89.692 E7.94984
G1 X119.766 Y89.842 E7.96617
G1 X120.382 Y90.153 E7.9983
G1 X120.897 Y90.43 E8.02553
G1 X121.729 Y90.919 E8.07046
G1 X122.576 Y91.466 E8.11741
G1 X122.863 Y91.663 E8.13362
G1 X123.422 Y92.068 E8.16577
G1 X123.905 Y92.44 E8.19415
G1 X124.83 Y93.212 E8.25026
G1 X125.264 Y93.608 E8.27761
G1 X125.762 Y94.086 E8.30976
G1 X126.003 Y94.328 E8.32566
G1 X126.479 Y94.829 E8.35784
G1 X126.887 Y95.284 E8.38629
G1 X127.484 Y96 E8.4297
G1 X127.701 Y96.274 E8.44598
G1 X128.116 Y96.827 E8.47817
G1 X128.46 Y97.313 E8.5059
G1 X128.973 Y98.094 E8.54941
G1 X129.163 Y98.402 E8.56626
G1 X129.511 Y98.999 E8.59844
G1 X129.993 Y99.904 E8.64618
G1 X130.14 Y100.2 E8.66157
G1 X130.433 Y100.826 E8.69375
G1 X130.571 Y101.139 E8.70968
G1 X130.834 Y101.776 E8.74177
G1 X130.958 Y102.097 E8.7578
G1 X131.192 Y102.748 E8.79001
G1 X131.302 Y103.079 E8.80625
G1 X131.594 Y104.054 E8.85364
G1 X131.767 Y104.721 E8.88573
G1 X131.845 Y105.056 E8.90175
G1 X132.05 Y106.065 E8.94969
G1 X132.161 Y106.747 E8.98186
G1 X132.208 Y107.089 E8.99794
G1 X132.312 Y108.022 E9.04165
G1 X132.356 Y108.623 E9.06971
G1 X132.388 Y109.312 E9.10183
G1 X132.396 Y109.655 E9.1178
G1 X132.396 Y110.346 E9.14998
G1 X132.388 Y110.689 E9.16596
G1 X132.356 Y111.378 E9.19807
G1 X132.312 Y111.979 E9.22613
G1 X132.208 Y112.913 E9.26989
G1 X132.161 Y113.254 E9.28592
G1 X132.05 Y113.936 E9.3181
G1 X131.846 Y114.943 E9.36594
G1 X131.767 Y115.282 E9.38215
G1 X131.594 Y115.949 E9.41423
G1 X131.3 Y116.928 E9.46183
G1 X131.192 Y117.253 E9.47778
G1 X130.838 Y118.216 E9.52555
G1 X130.576 Y118.853 E9.55762
G1 X130.428 Y119.188 E9.57468
G1 X130.134 Y119.813 E9.60684
G1 X129.67 Y120.712 E9.65395
G1 X129.505 Y121.01 E9.66981
G1 X129.156 Y121.607 E9.70201
G1 X128.976 Y121.9 E9.71802
G1 X128.446 Y122.707 E9.76298
G1 X128.119 Y123.166 E9.78922
G1 X127.706 Y123.718 E9.82132
G1 X127.482 Y124.002 E9.83816
G1 X126.865 Y124.741 E9.88299
G1 X126.486 Y125.161 E9.90934
G1 X126.011 Y125.663 E9.94152
G1 X125.755 Y125.921 E9.95844
G1 X125.256 Y126.399 E9.99062
G1 X124.838 Y126.78 E10.01695
G1 X124.09 Y127.411 E10.06252
G1 X123.633 Y127.773 E10.08967
G1 X122.86 Y128.339 E10.13428
G1 X122.007 Y128.908 E10.18202
G1 X121.711 Y129.093 E10.19828
G1 X120.905 Y129.566 E10.24179
G1 X120.602 Y129.732 E10.25788
G1 X119.754 Y130.163 E10.30217
G1 X119.437 Y130.313 E10.3185
G1 X118.512 Y130.718 E10.36552
G1 X117.87 Y130.971 E10.39766
G1 X117.532 Y131.094 E10.4144
G1 X116.648 Y131.39 E10.45781
G1 X116.067 Y131.561 E10.48601
G1 X115.399 Y131.738 E10.51819
G1 X115.06 Y131.819 E10.53442
G1 X114.158 Y132.01 E10.57735
G1 X113.55 Y132.116 E10.60609
G1 X112.866 Y132.215 E10.63827
G1 X112.524 Y132.256 E10.65431
G1 X111.837 Y132.323 E10.68645
G1 X111.245 Y132.365 E10.71409
G1 X110.3 Y132.397 E10.75812
G1 X109.956 Y132.399 E10.77414
G1 X109.267 Y132.387 E10.80622
G1 X108.926 Y132.373 E10.82212
G1 X108.235 Y132.329 E10.85436
G1 X107.9 Y132.3 E10.87001
G1 X107.215 Y132.225 E10.9021
G1 X106.875 Y132.18 E10.91807
G1 X106.192 Y132.073 E10.95026
G1 X105.859 Y132.013 E10.96602
G1 X105.182 Y131.875 E10.99819
G1 X104.848 Y131.799 E11.01414
G1 X104.179 Y131.63 E11.04627
G1 X103.845 Y131.537 E11.06241
G1 X102.869 Y131.234 E11.11
G1 X102.217 Y131.004 E11.14219
G1 X101.903 Y130.885 E11.15783
G1 X101.263 Y130.626 E11.18998
G1 X100.937 Y130.485 E11.20652
G1 X100.311 Y130.196 E11.23862
G1 X99.399 Y129.732 E11.28627
G1 X99.083 Y129.559 E11.30305
G1 X98.487 Y129.213 E11.33514
G1 X98.004 Y128.917 E11.36151
G1 X97.202 Y128.382 E11.4064
G1 X96.915 Y128.179 E11.42277
G1 X96.113 Y127.574 E11.46955
G1 X95.577 Y127.138 E11.50172
G1 X95.306 Y126.906 E11.51834
G1 X94.792 Y126.445 E11.55049
G1 X94.549 Y126.217 E11.566
G1 X94.056 Y125.733 E11.59817
G1 X93.818 Y125.488 E11.61408
G1 X93.348 Y124.982 E11.64623
G1 X93.116 Y124.72 E11.66253
G1 X92.671 Y124.193 E11.69465
G1 X92.305 Y123.736 E11.72191
G1 X91.732 Y122.962 E11.76675
G1 X91.158 Y122.112 E11.81451
G1 X90.976 Y121.825 E11.83034
G1 X90.621 Y121.234 E11.86244
G1 X90.126 Y120.332 E11.91035
G1 X89.967 Y120.02 E11.92665
G1 X89.668 Y119.397 E11.95883
G1 X89.53 Y119.092 E11.97442
G1 X89.135 Y118.145 E12.0222
G1 X88.78 Y117.172 E12.07043
G1 X88.569 Y116.514 E12.1026
G1 X88.295 Y115.532 E12.15008
G1 X88.21 Y115.189 E12.16653
G1 X87.996 Y114.19 E12.2141
G1 X87.877 Y113.509 E12.24629
G1 X87.826 Y113.167 E12.26239
G1 X87.704 Y112.15 E12.31009
G1 X87.648 Y111.462 E12.34223
G1 X87.628 Y111.12 E12.35818
G1 X87.604 Y110.432 E12.39024
G1 X87.6 Y110.089 E12.40621
G1 X87.608 Y109.396 E12.43848
G1 X87.62 Y109.051 E12.45456
G1 X87.66 Y108.363 E12.48665
G1 X87.712 Y107.765 E12.5146
G1 X87.826 Y106.831 E12.55841
G1 X87.917 Y106.241 E12.58621
G1 X88.096 Y105.311 E12.63031
G1 X88.233 Y104.711 E12.65897
G1 X88.476 Y103.801 E12.70283
G1 X88.569 Y103.484 E12.71821
G1 X88.78 Y102.826 E12.75038
G1 X89.13 Y101.863 E12.7981
G1 X89.261 Y101.534 E12.81458
G1 X89.533 Y100.897 E12.84684
G1 X89.974 Y99.966 E12.89481
G1 X90.126 Y99.668 E12.91038
G1 X90.454 Y99.06 E12.94255
G1 X90.631 Y98.75 E12.95917
G1 X91.156 Y97.893 E13.00597
G1 X91.538 Y97.317 E13.03815
G1 X91.739 Y97.029 E13.05451
G1 X92.147 Y96.473 E13.08662
G1 X92.353 Y96.205 E13.10236
G1 X92.962 Y95.458 E13.14724
G1 X93.341 Y95.028 E13.17393
G1 X93.81 Y94.521 E13.20609
G1 X94.063 Y94.26 E13.22301
G0 F6000 X94.343 Y94.546
G1 F1200 X95.057 Y93.855 E13.26928
G1 X95.57 Y93.394 E13.3014
G1 X96.356 Y92.743 E13.34892
G1 X96.611 Y92.544 E13.36398
G1 X97.427 Y91.947 E13.41106
G1 X98.217 Y91.421 E13.45525
G1 X98.697 Y91.127 E13.48146
G1 X99.293 Y90.782 E13.51353
G1 X99.593 Y90.618 E13.52945
G1 X100.493 Y90.162 E13.57643
G1 X101.404 Y89.751 E13.62297
G1 X102.043 Y89.491 E13.65509
G1 X102.995 Y89.146 E13.70224
G1 X103.312 Y89.042 E13.71778
G1 X103.972 Y88.843 E13.74988
G1 X104.288 Y88.756 E13.76514
G1 X105.254 Y88.52 E13.81144
G1 X105.931 Y88.381 E13.84362
G1 X106.256 Y88.322 E13.859
G1 X106.939 Y88.215 E13.8912
G1 X107.26 Y88.173 E13.90627
G1 X108.262 Y88.07 E13.95317
G1 X108.953 Y88.026 E13.98541
G1 X109.276 Y88.013 E14.00047
G1 X109.965 Y88.001 E14.03255
G1 X110.29 Y88.003 E14.04769
G1 X111.225 Y88.034 E14.09125
G1 X111.798 Y88.075 E14.118
G1 X112.487 Y88.142 E14.15023
G1 X112.815 Y88.182 E14.16562
G1 X113.497 Y88.281 E14.19771
G1 X113.817 Y88.335 E14.21282
G1 X114.695 Y88.507 E14.25448
G1 X115.308 Y88.65 E14.28379
G1 X116.204 Y88.893 E14.32702
G1 X116.754 Y89.063 E14.35382
G1 X117.408 Y89.285 E14.38598
G1 X118.362 Y89.652 E14.43358
G1 X119.286 Y90.057 E14.48056
G1 X119.586 Y90.199 E14.49601
G1 X120.202 Y90.51 E14.52814
G1 X120.706 Y90.781 E14.55479
G1 X121.525 Y91.263 E14.59904
G1 X122.357 Y91.801 E14.64518
G1 X122.628 Y91.987 E14.66048
G1 X123.187 Y92.392 E14.69262
G1 X123.659 Y92.755 E14.72035
G1 X124.366 Y93.34 E14.76308
G1 X124.987 Y93.897 E14.80192
G1 X125.713 Y94.603 E14.84908
G1 X126.189 Y95.104 E14.88126
G1 X126.587 Y95.549 E14.90906
G1 X127.176 Y96.255 E14.95187
G1 X127.381 Y96.514 E14.96725
G1 X127.796 Y97.067 E14.99944
G1 X128.132 Y97.542 E15.02654
G1 X128.638 Y98.312 E15.06944
G1 X128.818 Y98.604 E15.08541
G1 X129.166 Y99.201 E15.11759
G1 X129.639 Y100.089 E15.16444
G1 X130.071 Y100.996 E15.21122
