;FLAVOR:Marlin
;TIME:2048
;Filament used: 2.33986m
;Layer height: 0.28
;MINX:87.2
;MINY:87.2
;MINZ:0.28
;MAXX:132.8
;MAXY:132.8
;MAXZ:29.96
;Generated with Cura_SteamEngine 5.2.0
M82 ;absolute extrusion mode
; Ender 3 Custom Start G-code
G92 E0 ; Reset Extruder
G28 ; Home all axes
M104 S175 ; Start heating up the nozzle most of the way
M190 S60 ; Start heating the bed, wait until target temperature reached
M109 S200 ; Finish heating the nozzle
G1 Z2.0 F3000 ; Move Z Axis up little to prevent scratching of Heat Bed
G1 X0.1 Y20 Z0.3 F5000.0 ; Move to start position
G1 X0.1 Y200.0 Z0.3 F1500.0 E15 ; Draw the first line
G1 X0.4 Y200.0 Z0.3 F5000.0 ; Move to side a little
G1 X0.4 Y20 Z0.3 F1500.0 E30 ; Draw the second line
G92 E0 ; Reset Extruder
G1 Z2.0 F3000 ; Move Z Axis up little to prevent scratching of Heat Bed
G1 X5 Y20 Z0.3 F5000.0 ; Move over to prevent blob squish
G92 E0
G92 E0
G1 F1500 E-6.5
;LAYER_COUNT:107
;LAYER:0
M107
G0 F6000 X92.759 Y95.131 Z0.28
;TYPE:SKIRT
G1 F1500 E0
G1 F1200 X95.131 Y92.759 E0.1562
G1 X95.717 Y92.229 E0.19299
G1 X96.495 Y91.67 E0.2376
G1 X99.341 Y89.881 E0.39413
G1 X100.03 Y89.495 E0.4309
G1 X100.917 Y89.122 E0.47571
G1 X104.088 Y88.013 E0.63213
G1 X104.846 Y87.791 E0.66891
G1 X105.79 Y87.625 E0.71354
G1 X109.127 Y87.249 E0.86991
G1 X109.915 Y87.2 E0.90668
G1 X110.873 Y87.249 E0.95134
G1 X114.21 Y87.625 E1.10771
G1 X114.99 Y87.753 E1.14452
G1 X115.912 Y88.013 E1.18912
G1 X119.083 Y89.122 E1.34555
G1 X119.814 Y89.42 E1.38231
G1 X120.659 Y89.881 E1.42713
G1 X123.505 Y91.67 E1.58366
G1 X124.152 Y92.124 E1.62046
G1 X124.869 Y92.759 E1.66506
G1 X127.241 Y95.131 E1.82126
G1 X127.771 Y95.717 E1.85805
G1 X128.33 Y96.495 E1.90266
G1 X130.119 Y99.341 E2.05919
G1 X130.505 Y100.03 E2.09596
G1 X130.877 Y100.916 E2.14071
G1 X131.987 Y104.089 E2.29723
G1 X132.21 Y104.847 E2.33403
G1 X132.376 Y105.793 E2.37875
G1 X132.751 Y109.126 E2.53493
G1 X132.8 Y109.914 E2.57169
G1 X132.751 Y110.869 E2.61622
G1 X132.376 Y114.206 E2.77258
G1 X132.248 Y114.985 E2.80934
G1 X131.987 Y115.911 E2.85414
G1 X130.877 Y119.084 E3.01067
G1 X130.579 Y119.815 E3.04742
G1 X130.119 Y120.659 E3.09218
G1 X128.33 Y123.505 E3.24871
G1 X127.876 Y124.152 E3.28552
G1 X127.241 Y124.869 E3.33011
G1 X124.869 Y127.241 E3.48631
G1 X124.283 Y127.771 E3.52311
G1 X123.505 Y128.33 E3.56771
G1 X120.659 Y130.119 E3.72424
G1 X119.97 Y130.505 E3.76102
G1 X119.083 Y130.878 E3.80582
G1 X115.912 Y131.987 E3.96225
G1 X115.154 Y132.209 E3.99903
G1 X114.21 Y132.375 E4.04366
G1 X110.873 Y132.751 E4.20003
G1 X110.085 Y132.8 E4.23679
G1 X109.127 Y132.751 E4.28146
G1 X105.79 Y132.375 E4.43782
G1 X105.01 Y132.247 E4.47463
G1 X104.088 Y131.987 E4.51924
G1 X100.917 Y130.878 E4.67566
G1 X100.186 Y130.58 E4.71242
G1 X99.341 Y130.119 E4.75724
G1 X96.495 Y128.33 E4.91377
G1 X95.848 Y127.876 E4.95057
G1 X95.131 Y127.241 E4.99517
G1 X92.759 Y124.869 E5.15137
G1 X92.229 Y124.283 E5.18816
G1 X91.67 Y123.505 E5.23277
G1 X89.881 Y120.659 E5.3893
G1 X89.495 Y119.97 E5.42607
G1 X89.123 Y119.084 E5.47082
G1 X88.013 Y115.911 E5.62735
G1 X87.79 Y115.153 E5.66414
G1 X87.624 Y114.207 E5.70886
G1 X87.249 Y110.874 E5.86504
G1 X87.2 Y110.086 E5.9018
G1 X87.249 Y109.131 E5.94633
G1 X87.624 Y105.794 E6.10269
G1 X87.752 Y105.015 E6.13945
G1 X88.013 Y104.089 E6.18425
G1 X89.123 Y100.916 E6.34078
G1 X89.421 Y100.185 E6.37754
G1 X89.881 Y99.341 E6.4223
G1 X91.67 Y96.495 E6.57883
G1 X92.124 Y95.848 E6.61563
G1 X92.759 Y95.131 E6.66023
G0 F6000 X93.041 Y95.413
G1 F1200 X95.413 Y93.041 E6.81643
G1 X95.985 Y92.527 E6.85224
G1 X96.708 Y92.009 E6.89365
G1 X99.554 Y90.22 E7.05018
G1 X100.225 Y89.845 E7.08597
G1 X101.049 Y89.5 E7.12757
G1 X104.22 Y88.391 E7.28399
G1 X104.958 Y88.175 E7.3198
G1 X105.834 Y88.023 E7.3612
G1 X109.171 Y87.647 E7.51757
G1 X109.939 Y87.6 E7.5534
G1 X110.829 Y87.647 E7.59489
G1 X114.166 Y88.023 E7.75126
G1 X114.924 Y88.148 E7.78704
G1 X115.78 Y88.391 E7.82847
G1 X118.951 Y89.5 E7.98489
G1 X119.663 Y89.791 E8.02071
G1 X120.446 Y90.22 E8.06228
G1 X123.292 Y92.009 E8.21881
G1 X123.921 Y92.452 E8.25464
G1 X124.587 Y93.041 E8.29604
G1 X126.959 Y95.413 E8.45224
G1 X127.473 Y95.985 E8.48804
G1 X127.991 Y96.708 E8.52946
G1 X129.78 Y99.554 E8.68599
G1 X130.155 Y100.225 E8.72178
G1 X130.5 Y101.048 E8.76333
G1 X131.61 Y104.221 E8.91986
G1 X131.826 Y104.96 E8.95571
G1 X131.979 Y105.838 E8.99721
G1 X132.354 Y109.171 E9.15339
G1 X132.4 Y109.938 E9.18917
G1 X132.354 Y110.824 E9.23048
G1 X131.979 Y114.161 E9.38684
G1 X131.853 Y114.92 E9.42267
G1 X131.61 Y115.779 E9.46424
G1 X130.5 Y118.952 E9.62077
G1 X130.209 Y119.663 E9.65654
G1 X129.78 Y120.446 E9.69811
G1 X127.991 Y123.292 E9.85464
G1 X127.548 Y123.921 E9.89047
G1 X126.959 Y124.587 E9.93187
G1 X124.587 Y126.959 E10.08807
G1 X124.015 Y127.473 E10.12387
G1 X123.292 Y127.991 E10.16529
G1 X120.446 Y129.78 E10.32182
G1 X119.775 Y130.155 E10.35761
G1 X118.951 Y130.5 E10.39921
G1 X115.78 Y131.609 E10.55563
G1 X115.042 Y131.825 E10.59144
G1 X114.166 Y131.977 E10.63284
G1 X110.829 Y132.353 E10.78921
G1 X110.061 Y132.4 E10.82503
G1 X109.171 Y132.353 E10.86653
G1 X105.834 Y131.977 E11.0229
G1 X105.076 Y131.852 E11.05867
G1 X104.22 Y131.609 E11.10011
G1 X101.049 Y130.5 E11.25653
G1 X100.337 Y130.209 E11.29235
G1 X99.554 Y129.78 E11.33392
G1 X96.708 Y127.991 E11.49045
G1 X96.079 Y127.548 E11.52627
G1 X95.413 Y126.959 E11.56767
G1 X93.041 Y124.587 E11.72387
G1 X92.527 Y124.015 E11.75968
G1 X92.009 Y123.292 E11.8011
G1 X90.22 Y120.446 E11.95763
G1 X89.845 Y119.775 E11.99342
G1 X89.5 Y118.952 E12.03497
G1 X88.39 Y115.779 E12.1915
G1 X88.174 Y115.04 E12.22735
G1 X88.021 Y114.162 E12.26885
G1 X87.646 Y110.829 E12.42503
G1 X87.6 Y110.062 E12.46081
G1 X87.646 Y109.176 E12.50212
G1 X88.021 Y105.839 E12.65848
G1 X88.147 Y105.08 E12.69431
G1 X88.39 Y104.221 E12.73588
G1 X89.5 Y101.048 E12.8924
G1 X89.791 Y100.337 E12.92818
G1 X90.22 Y99.554 E12.96975
G1 X92.009 Y96.708 E13.12628
G1 X92.452 Y96.079 E13.1621
G1 X93.041 Y95.413 E13.2035
G0 F6000 X93.324 Y95.696
G1 F1200 X95.696 Y93.324 E13.3597
G1 X96.253 Y92.824 E13.39456
G1 X96.921 Y92.348 E13.43275
G1 X99.767 Y90.559 E13.58928
G1 X100.42 Y90.195 E13.62409
G1 X101.181 Y89.877 E13.6625
G1 X104.352 Y88.768 E13.81892
G1 X105.07 Y88.56 E13.85373
G1 X105.879 Y88.42 E13.89196
G1 X109.216 Y88.044 E14.04833
G1 X109.963 Y88 E14.08317
G1 X110.784 Y88.044 E14.12145
G1 X114.121 Y88.42 E14.27782
G1 X114.859 Y88.543 E14.31266
G1 X115.648 Y88.768 E14.35087
G1 X118.819 Y89.877 E14.50729
G1 X119.511 Y90.162 E14.54214
G1 X120.233 Y90.559 E14.5805
G1 X123.079 Y92.348 E14.73703
G1 X123.69 Y92.779 E14.77185
G1 X124.304 Y93.324 E14.81008
G1 X126.676 Y95.696 E14.96628
G1 X127.176 Y96.253 E15.00113
G1 X127.652 Y96.921 E15.03933
G1 X129.441 Y99.767 E15.19586
G1 X129.805 Y100.42 E15.23067
G1 X130.122 Y101.181 E15.26905
G1 X131.232 Y104.354 E15.42558
G1 X131.441 Y105.072 E15.4604
G1 X131.581 Y105.882 E15.49868
G1 X131.956 Y109.215 E15.65486
G1 X132 Y109.962 E15.6897
G1 X131.956 Y110.78 E15.72785
G1 X131.581 Y114.117 E15.88421
G1 X131.458 Y114.855 E15.91905
G1 X131.232 Y115.646 E15.95735
G1 X130.122 Y118.819 E16.11388
G1 X129.838 Y119.511 E16.14871
G1 X129.441 Y120.233 E16.18708
G1 X127.652 Y123.079 E16.34361
G1 X127.221 Y123.69 E16.37842
G1 X126.676 Y124.304 E16.41665
G1 X124.304 Y126.676 E16.57285
G1 X123.747 Y127.176 E16.60771
G1 X123.079 Y127.652 E16.6459
G1 X120.233 Y129.441 E16.80243
G1 X119.58 Y129.805 E16.83724
G1 X118.819 Y130.123 E16.87565
G1 X115.648 Y131.232 E17.03207
G1 X114.93 Y131.44 E17.06688
G1 X114.121 Y131.58 E17.10511
G1 X110.784 Y131.956 E17.26148
G1 X110.037 Y132 E17.29632
G1 X109.216 Y131.956 E17.3346
G1 X105.879 Y131.58 E17.49097
G1 X105.141 Y131.457 E17.52581
G1 X104.352 Y131.232 E17.56401
G1 X101.181 Y130.123 E17.72044
G1 X100.489 Y129.838 E17.75529
G1 X99.767 Y129.441 E17.79365
G1 X96.921 Y127.652 E17.95018
G1 X96.31 Y127.221 E17.985
G1 X95.696 Y126.676 E18.02323
G1 X93.324 Y124.304 E18.17943
G1 X92.824 Y123.747 E18.21428
G1 X92.348 Y123.079 E18.25248
G1 X90.559 Y120.233 E18.409
G1 X90.195 Y119.58 E18.44382
G1 X89.878 Y118.819 E18.4822
G1 X88.768 Y115.646 E18.63873
G1 X88.559 Y114.928 E18.67355
G1 X88.419 Y114.118 E18.71183
G1 X88.044 Y110.785 E18.86801
G1 X88 Y110.038 E18.90285
G1 X88.044 Y109.22 E18.94099
G1 X88.419 Y105.883 E19.09736
G1 X88.542 Y105.145 E19.13219
G1 X88.768 Y104.354 E19.1705
G1 X89.878 Y101.181 E19.32703
G1 X90.162 Y100.489 E19.36186
G1 X90.559 Y99.767 E19.40023
G1 X92.348 Y96.921 E19.55676
G1 X92.779 Y96.31 E19.59157
G1 X93.324 Y95.696 E19.6298
G0 F6000 X93.607 Y95.979
G1 F1200 X95.979 Y93.607 E19.786
G1 X96.52 Y93.123 E19.8198
G1 X97.134 Y92.686 E19.85489
G1 X99.98 Y90.897 E20.01142
G1 X100.615 Y90.545 E20.04523
G1 X101.313 Y90.255 E20.08043
G1 X104.484 Y89.146 E20.23685
G1 X105.182 Y88.944 E20.27069
G1 X105.924 Y88.818 E20.30573
G1 X109.261 Y88.442 E20.4621
G1 X109.986 Y88.4 E20.49592
G1 X110.739 Y88.442 E20.53103
G1 X114.076 Y88.818 E20.6874
G1 X114.792 Y88.938 E20.72121
G1 X115.516 Y89.146 E20.75628
G1 X118.687 Y90.255 E20.91271
G1 X119.358 Y90.532 E20.94651
G1 X120.02 Y90.897 E20.98171
G1 X122.866 Y92.686 E21.13824
G1 X123.459 Y93.106 E21.17208
G1 X124.021 Y93.607 E21.20713
G1 X126.393 Y95.979 E21.36333
G1 X126.877 Y96.52 E21.39713
G1 X127.314 Y97.134 E21.43223
G1 X129.103 Y99.98 E21.58876
G1 X129.455 Y100.615 E21.62256
G1 X129.745 Y101.313 E21.65776
G1 X130.855 Y104.486 E21.81429
G1 X131.057 Y105.183 E21.84808
G1 X131.184 Y105.927 E21.88322
G1 X131.559 Y109.26 E22.0394
G1 X131.6 Y109.985 E22.07321
G1 X131.559 Y110.735 E22.10819
G1 X131.184 Y114.072 E22.26455
G1 X131.063 Y114.788 E22.29836
G1 X130.855 Y115.514 E22.33353
G1 X129.745 Y118.687 E22.49006
G1 X129.468 Y119.359 E22.5239
G1 X129.103 Y120.02 E22.55906
G1 X127.314 Y122.866 E22.71559
G1 X126.894 Y123.459 E22.74943
G1 X126.393 Y124.021 E22.78449
G1 X124.021 Y126.393 E22.94069
G1 X123.48 Y126.877 E22.97449
G1 X122.866 Y127.314 E23.00958
G1 X120.02 Y129.103 E23.16611
G1 X119.385 Y129.455 E23.19992
G1 X118.687 Y129.745 E23.23511
G1 X115.516 Y130.854 E23.39154
G1 X114.818 Y131.056 E23.42537
G1 X114.076 Y131.182 E23.46042
G1 X110.739 Y131.558 E23.61679
G1 X110.014 Y131.6 E23.6506
G1 X109.261 Y131.558 E23.68572
G1 X105.924 Y131.182 E23.84209
G1 X105.208 Y131.062 E23.87589
G1 X104.484 Y130.854 E23.91097
G1 X101.313 Y129.745 E24.06739
G1 X100.642 Y129.468 E24.10119
G1 X99.98 Y129.103 E24.1364
G1 X97.134 Y127.314 E24.29292
G1 X96.541 Y126.894 E24.32676
G1 X95.979 Y126.393 E24.36182
G1 X93.607 Y124.021 E24.51802
G1 X93.123 Y123.48 E24.55182
G1 X92.686 Y122.866 E24.58691
G1 X90.897 Y120.02 E24.74344
G1 X90.545 Y119.385 E24.77725
G1 X90.255 Y118.687 E24.81244
G1 X89.145 Y115.514 E24.96897
G1 X88.943 Y114.817 E25.00276
G1 X88.816 Y114.073 E25.03791
G1 X88.441 Y110.74 E25.19409
G1 X88.4 Y110.015 E25.2279
G1 X88.441 Y109.265 E25.26287
G1 X88.816 Y105.928 E25.41924
G1 X88.937 Y105.212 E25.45305
G1 X89.145 Y104.486 E25.48822
G1 X90.255 Y101.313 E25.64474
G1 X90.532 Y100.641 E25.67859
G1 X90.897 Y99.98 E25.71375
G1 X92.686 Y97.134 E25.87028
G1 X93.106 Y96.541 E25.90411
G1 X93.607 Y95.979 E25.93917
G0 F6000 X93.89 Y96.262
G1 F1200 X96.262 Y93.89 E26.09537
G1 X96.787 Y93.421 E26.12815
G1 X97.346 Y93.025 E26.16005
G1 X100.192 Y91.236 E26.31658
G1 X100.809 Y90.896 E26.34938
G1 X101.445 Y90.633 E26.38143
G1 X104.616 Y89.524 E26.53786
G1 X105.293 Y89.329 E26.57066
G1 X105.969 Y89.215 E26.60258
G1 X109.306 Y88.839 E26.75895
G1 X110.009 Y88.8 E26.79174
G1 X110.694 Y88.839 E26.82368
G1 X114.031 Y89.215 E26.98005
G1 X114.725 Y89.333 E27.01283
G1 X115.384 Y89.524 E27.04478
G1 X118.555 Y90.633 E27.20121
G1 X119.205 Y90.902 E27.23396
G1 X119.808 Y91.236 E27.26606
G1 X122.654 Y93.025 E27.42259
G1 X123.227 Y93.433 E27.45534
G1 X123.738 Y93.89 E27.48726
G1 X126.11 Y96.262 E27.64346
G1 X126.579 Y96.787 E27.67624
G1 X126.975 Y97.346 E27.70814
G1 X128.764 Y100.192 E27.86467
G1 X129.104 Y100.809 E27.89748
G1 X129.367 Y101.445 E27.92952
G1 X130.477 Y104.618 E28.08605
G1 X130.672 Y105.294 E28.11881
G1 X130.786 Y105.972 E28.15083
G1 X131.161 Y109.305 E28.307
G1 X131.2 Y110.008 E28.33979
G1 X131.161 Y110.69 E28.3716
G1 X130.786 Y114.027 E28.52796
G1 X130.668 Y114.721 E28.56074
G1 X130.477 Y115.382 E28.59278
G1 X129.367 Y118.555 E28.74931
G1 X129.097 Y119.206 E28.78212
G1 X128.764 Y119.808 E28.81416
G1 X126.975 Y122.654 E28.97069
G1 X126.567 Y123.227 E29.00344
G1 X126.11 Y123.738 E29.03536
G1 X123.738 Y126.11 E29.19156
G1 X123.213 Y126.579 E29.22434
G1 X122.654 Y126.975 E29.25624
G1 X119.808 Y128.764 E29.41277
G1 X119.191 Y129.104 E29.44557
G1 X118.555 Y129.367 E29.47762
G1 X115.384 Y130.476 E29.63405
G1 X114.707 Y130.671 E29.66685
G1 X114.031 Y130.785 E29.69877
G1 X110.694 Y131.161 E29.85514
G1 X109.991 Y131.2 E29.88793
G1 X109.306 Y131.161 E29.91987
G1 X105.969 Y130.785 E30.07624
G1 X105.275 Y130.667 E30.10902
G1 X104.616 Y130.476 E30.14097
G1 X101.445 Y129.367 E30.29739
G1 X100.795 Y129.098 E30.33015
G1 X100.192 Y128.764 E30.36225
G1 X97.346 Y126.975 E30.51878
G1 X96.773 Y126.567 E30.55153
G1 X96.262 Y126.11 E30.58345
G1 X93.89 Y123.738 E30.73965
G1 X93.421 Y123.213 E30.77243
G1 X93.025 Y122.654 E30.80433
G1 X91.236 Y119.808 E30.96086
G1 X90.896 Y119.191 E30.99367
G1 X90.633 Y118.555 E31.02571
G1 X89.523 Y115.382 E31.18224
G1 X89.328 Y114.706 E31.215
G1 X89.214 Y114.028 E31.24702
G1 X88.839 Y110.695 E31.40319
G1 X88.8 Y109.992 E31.43598
G1 X88.839 Y109.31 E31.46779
G1 X89.214 Y105.973 E31.62415
G1 X89.332 Y105.279 E31.65693
G1 X89.523 Y104.618 E31.68897
G1 X90.633 Y101.445 E31.84549
G1 X90.903 Y100.794 E31.87831
G1 X91.236 Y100.192 E31.91035
G1 X93.025 Y97.346 E32.06688
G1 X93.433 Y96.773 E32.09963
G1 X93.89 Y96.262 E32.13155
G0 F6000 X94.173 Y96.545
G1 F1200 X96.545 Y94.173 E32.28775
G1 X97.054 Y93.72 E32.31948
G1 X97.559 Y93.364 E32.34825
G1 X100.405 Y91.575 E32.50478
G1 X101.002 Y91.247 E32.5365
G1 X101.577 Y91.01 E32.56546
G1 X104.748 Y89.901 E32.72188
G1 X105.403 Y89.715 E32.75359
G1 X106.014 Y89.612 E32.78244
G1 X109.351 Y89.236 E32.93881
G1 X110.03 Y89.2 E32.97047
G1 X110.649 Y89.236 E32.99934
G1 X113.986 Y89.612 E33.15571
G1 X114.657 Y89.728 E33.18742
G1 X115.252 Y89.901 E33.21627
G1 X118.423 Y91.01 E33.37269
G1 X119.051 Y91.272 E33.40438
G1 X119.595 Y91.575 E33.43338
G1 X122.441 Y93.364 E33.5899
G1 X122.995 Y93.759 E33.62159
G1 X123.455 Y94.173 E33.6504
G1 X125.827 Y96.545 E33.8066
G1 X126.28 Y97.054 E33.83833
G1 X126.636 Y97.559 E33.8671
G1 X128.425 Y100.405 E34.02363
G1 X128.753 Y101.002 E34.05535
G1 X128.99 Y101.577 E34.08431
G1 X130.1 Y104.75 E34.24084
G1 X130.286 Y105.405 E34.27254
G1 X130.389 Y106.017 E34.30144
G1 X130.764 Y109.35 E34.45762
G1 X130.8 Y110.029 E34.48928
G1 X130.764 Y110.646 E34.51806
G1 X130.389 Y113.983 E34.67442
G1 X130.273 Y114.654 E34.70613
G1 X130.1 Y115.25 E34.73503
G1 X128.99 Y118.423 E34.89156
G1 X128.728 Y119.052 E34.92328
G1 X128.425 Y119.595 E34.95224
G1 X126.636 Y122.441 E35.10877
G1 X126.241 Y122.995 E35.14045
G1 X125.827 Y123.455 E35.16927
G1 X123.455 Y125.827 E35.32547
G1 X122.946 Y126.28 E35.3572
G1 X122.441 Y126.636 E35.38597
G1 X119.595 Y128.425 E35.5425
G1 X118.998 Y128.753 E35.57421
G1 X118.423 Y128.99 E35.60317
G1 X115.252 Y130.099 E35.7596
G1 X114.597 Y130.285 E35.7913
G1 X113.986 Y130.388 E35.82016
G1 X110.649 Y130.764 E35.97652
G1 X109.97 Y130.8 E36.00818
G1 X109.351 Y130.764 E36.03706
G1 X106.014 Y130.388 E36.19342
G1 X105.343 Y130.272 E36.22513
G1 X104.748 Y130.099 E36.25399
G1 X101.577 Y128.99 E36.41041
G1 X100.949 Y128.728 E36.4421
G1 X100.405 Y128.425 E36.47109
G1 X97.559 Y126.636 E36.62762
G1 X97.005 Y126.241 E36.6593
G1 X96.545 Y125.827 E36.68812
G1 X94.173 Y123.455 E36.84432
G1 X93.72 Y122.946 E36.87605
G1 X93.364 Y122.441 E36.90482
G1 X91.575 Y119.595 E37.06135
G1 X91.247 Y118.998 E37.09307
G1 X91.01 Y118.423 E37.12203
G1 X89.9 Y115.25 E37.27855
G1 X89.714 Y114.595 E37.31026
G1 X89.611 Y113.983 E37.33916
G1 X89.236 Y110.65 E37.49533
G1 X89.2 Y109.971 E37.527
G1 X89.236 Y109.354 E37.55577
G1 X89.611 Y106.017 E37.71214
G1 X89.727 Y105.346 E37.74385
G1 X89.9 Y104.75 E37.77274
G1 X91.01 Y101.577 E37.92927
G1 X91.272 Y100.948 E37.961
G1 X91.575 Y100.405 E37.98995
