;FLAVOR:Marlin
;TIME:2877
;Filament used: 2.73393m
;Layer height: 0.28
;MINX:86.586
;MINY:84
;MINZ:0.28
;MAXX:133.413
;MAXY:136
;MAXZ:29.96
;Generated with Cura_SteamEngine 5.2.0
M82 ;absolute extrusion mode
; Ender 3 Custom Start G-code
G92 E0 ; Reset Extruder
G28 ; Home all axes
M104 S175 ; Start heating up the nozzle most of the way
M190 S60 ; Start heating the bed, wait until target temperature reached
M109 S200 ; Finish heating the nozzle
G1 Z2.0 F3000 ; Move Z Axis up little to prevent scratching of Heat Bed
G1 X0.1 Y20 Z0.3 F5000.0 ; Move to start position
G1 X0.1 Y200.0 Z0.3 F1500.0 E15 ; Draw the first line
G1 X0.4 Y200.0 Z0.3 F5000.0 ; Move to side a little
G1 X0.4 Y20 Z0.3 F1500.0 E30 ; Draw the second line
G92 E0 ; Reset Extruder
G1 Z2.0 F3000 ; Move Z Axis up little to prevent scratching of Heat Bed
G1 X5 Y20 Z0.3 F5000.0 ; Move over to prevent blob squish
G92 E0
G92 E0
G1 F1500 E-6.5
;LAYER_COUNT:107
;LAYER:0
M107
G0 F6000 X89.798 Y87.253 Z0.28
;TYPE:SKIRT
G1 F1500 E0
G1 F1200 X90.487 Y86.616 E0.04369
G1 X91.228 Y86.041 E0.08737
G1 X92.015 Y85.531 E0.13103
G1 X92.843 Y85.09 E0.17472
G1 X93.705 Y84.721 E0.21838
G1 X94.596 Y84.427 E0.26207
G1 X95.508 Y84.21 E0.30572
G1 X96.436 Y84.071 E0.34941
G1 X97.257 Y84.015 E0.38773
G1 X97.92 Y84 E0.41861
G1 X121.864 Y84.001 E1.53354
G1 X122.562 Y84.011 E1.56605
G1 X123.498 Y84.065 E1.60971
G1 X124.426 Y84.197 E1.65335
G1 X125.34 Y84.409 E1.69704
G1 X126.232 Y84.698 E1.7407
G1 X127.097 Y85.061 E1.78438
G1 X127.927 Y85.497 E1.82804
G1 X128.718 Y86.002 E1.87174
G1 X129.462 Y86.573 E1.91541
G1 X130.155 Y87.205 E1.95908
G1 X130.792 Y87.893 E2.00274
G1 X131.367 Y88.634 E2.04642
G1 X131.878 Y89.42 E2.09007
G1 X132.32 Y90.248 E2.13377
G1 X132.689 Y91.11 E2.17744
G1 X132.984 Y92 E2.22109
G1 X133.202 Y92.912 E2.26476
G1 X133.342 Y93.84 E2.30846
G1 X133.4 Y94.7 E2.34859
G1 X133.413 Y95.329 E2.37789
G1 X133.411 Y124.41 E3.73202
G1 X133.402 Y125.128 E3.76546
G1 X133.35 Y126.064 E3.80911
G1 X133.219 Y126.993 E3.8528
G1 X133.009 Y127.907 E3.89646
G1 X132.722 Y128.8 E3.94014
G1 X132.36 Y129.665 E3.9838
G1 X131.926 Y130.496 E4.02746
G1 X131.422 Y131.287 E4.07113
G1 X130.853 Y132.033 E4.11482
G1 X130.222 Y132.727 E4.1585
G1 X129.535 Y133.365 E4.20215
G1 X128.795 Y133.942 E4.24585
G1 X128.01 Y134.454 E4.28949
G1 X127.183 Y134.897 E4.33317
G1 X126.322 Y135.268 E4.37683
G1 X125.432 Y135.565 E4.42052
G1 X124.52 Y135.784 E4.46419
G1 X123.593 Y135.925 E4.50785
G1 X122.742 Y135.985 E4.54758
G1 X122.079 Y136 E4.57846
G1 X98.151 Y135.999 E5.69264
G1 X97.453 Y135.99 E5.72515
G1 X96.517 Y135.938 E5.7688
G1 X95.588 Y135.806 E5.81249
G1 X94.674 Y135.596 E5.85616
G1 X93.781 Y135.309 E5.89984
G1 X92.916 Y134.946 E5.94352
G1 X92.085 Y134.512 E5.98717
G1 X91.294 Y134.008 E6.03085
G1 X90.549 Y133.438 E6.07453
G1 X89.855 Y132.807 E6.1182
G1 X89.218 Y132.12 E6.16183
G1 X88.641 Y131.38 E6.20552
G1 X88.129 Y130.594 E6.2492
G1 X87.686 Y129.767 E6.29289
G1 X87.315 Y128.906 E6.33654
G1 X87.019 Y128.016 E6.38022
G1 X86.8 Y127.104 E6.42389
G1 X86.659 Y126.177 E6.46755
G1 X86.598 Y125.267 E6.51002
G1 X86.586 Y124.633 E6.53955
G1 X86.588 Y95.503 E7.89596
G1 X86.598 Y94.843 E7.9267
G1 X86.652 Y93.907 E7.97035
G1 X86.786 Y92.979 E8.01401
G1 X86.998 Y92.065 E8.0577
G1 X87.288 Y91.173 E8.10138
G1 X87.652 Y90.309 E8.14503
G1 X88.089 Y89.479 E8.18871
G1 X88.594 Y88.689 E8.23237
G1 X89.166 Y87.945 E8.27607
G1 X89.798 Y87.253 E8.31971
G0 F6000 X90.19 Y87.428
G1 F1200 X90.876 Y86.813 E8.36261
G1 X91.612 Y86.261 E8.40545
G1 X92.394 Y85.775 E8.44832
G1 X93.215 Y85.358 E8.4912
G1 X94.069 Y85.014 E8.53407
G1 X94.95 Y84.746 E8.57695
G1 X95.85 Y84.555 E8.61979
G1 X96.764 Y84.443 E8.66267
G1 X97.269 Y84.415 E8.68622
G1 X97.92 Y84.4 E8.71654
G1 X121.706 Y84.4 E9.82412
G1 X122.556 Y84.411 E9.8637
G1 X123.475 Y84.464 E9.90656
G1 X124.386 Y84.597 E9.94943
G1 X125.282 Y84.808 E9.99229
G1 X126.156 Y85.096 E10.03514
G1 X127.003 Y85.459 E10.07805
G1 X127.814 Y85.894 E10.12091
G1 X128.584 Y86.398 E10.16376
G1 X129.308 Y86.967 E10.20664
G1 X129.98 Y87.597 E10.24953
G1 X130.595 Y88.282 E10.29239
G1 X131.148 Y89.018 E10.33526
G1 X131.635 Y89.799 E10.37812
G1 X132.052 Y90.62 E10.421
G1 X132.397 Y91.474 E10.46388
G1 X132.666 Y92.354 E10.50673
G1 X132.858 Y93.255 E10.54963
G1 X132.971 Y94.168 E10.59247
G1 X133 Y94.711 E10.61779
G1 X133.013 Y95.329 E10.64657
G1 X133.011 Y124.405 E12.00047
G1 X133.002 Y125.123 E12.03391
G1 X132.951 Y126.042 E12.07676
G1 X132.82 Y126.953 E12.11962
G1 X132.61 Y127.85 E12.16252
G1 X132.323 Y128.725 E12.2054
G1 X131.962 Y129.571 E12.24823
G1 X131.528 Y130.384 E12.29114
G1 X131.026 Y131.155 E12.33398
G1 X130.458 Y131.88 E12.37687
G1 X129.83 Y132.553 E12.41973
G1 X129.146 Y133.169 E12.46259
G1 X128.411 Y133.723 E12.50545
G1 X127.63 Y134.212 E12.54835
G1 X126.81 Y134.63 E12.59121
G1 X125.957 Y134.976 E12.63407
G1 X125.077 Y135.247 E12.67695
G1 X124.177 Y135.44 E12.71981
G1 X123.264 Y135.555 E12.76266
G1 X122.73 Y135.585 E12.78756
G1 X122.079 Y135.6 E12.81789
G1 X98.156 Y135.599 E13.93184
G1 X97.458 Y135.59 E13.96434
G1 X96.539 Y135.538 E14.00721
G1 X95.628 Y135.407 E14.05006
G1 X94.732 Y135.197 E14.09291
G1 X93.857 Y134.91 E14.13579
G1 X93.01 Y134.548 E14.17868
G1 X92.198 Y134.114 E14.22156
G1 X91.427 Y133.612 E14.2644
G1 X90.702 Y133.044 E14.30728
G1 X90.029 Y132.415 E14.35018
G1 X89.414 Y131.731 E14.39301
G1 X88.86 Y130.996 E14.43587
G1 X88.372 Y130.215 E14.47875
G1 X87.953 Y129.395 E14.52163
G1 X87.607 Y128.542 E14.56449
G1 X87.337 Y127.662 E14.60735
G1 X87.144 Y126.761 E14.65026
G1 X87.03 Y125.848 E14.6931
G1 X86.998 Y125.257 E14.72066
G1 X86.986 Y124.633 E14.74972
G1 X86.988 Y95.509 E16.10586
G1 X86.998 Y94.849 E16.13659
G1 X87.052 Y93.93 E16.17946
G1 X87.186 Y93.019 E16.22233
G1 X87.398 Y92.124 E16.26516
G1 X87.687 Y91.249 E16.30807
G1 X88.05 Y90.404 E16.3509
G1 X88.486 Y89.593 E16.39377
G1 X88.99 Y88.822 E16.43666
G1 X89.56 Y88.099 E16.47953
G1 X90.19 Y87.428 E16.52239
G0 F6000 X90.581 Y87.606
G1 F1200 X91.263 Y87.015 E16.56441
G1 X91.995 Y86.486 E16.60646
G1 X92.771 Y86.024 E16.64852
G1 X93.585 Y85.632 E16.69059
G1 X94.43 Y85.314 E16.73263
G1 X95.3 Y85.072 E16.77468
G1 X96.188 Y84.908 E16.81672
G1 X97.281 Y84.815 E16.8678
G1 X97.92 Y84.8 E16.89757
G1 X121.706 Y84.8 E18.00514
G1 X122.55 Y84.811 E18.04445
G1 X123.452 Y84.864 E18.08652
G1 X124.345 Y84.996 E18.12855
G1 X125.223 Y85.207 E18.1706
G1 X126.079 Y85.495 E18.21265
G1 X126.906 Y85.857 E18.25469
G1 X127.698 Y86.292 E18.29677
G1 X128.449 Y86.794 E18.33883
G1 X129.152 Y87.361 E18.38088
G1 X129.802 Y87.988 E18.42294
G1 X130.394 Y88.67 E18.46499
G1 X130.924 Y89.401 E18.50703
G1 X131.386 Y90.177 E18.54909
G1 X131.779 Y90.99 E18.59113
G1 X132.097 Y91.835 E18.63317
G1 X132.34 Y92.705 E18.67524
G1 X132.505 Y93.593 E18.71729
G1 X132.6 Y94.722 E18.77005
G1 X132.613 Y95.329 E18.79832
G1 X132.611 Y124.4 E20.15199
G1 X132.602 Y125.118 E20.18542
G1 X132.551 Y126.019 E20.22744
G1 X132.42 Y126.913 E20.26952
G1 X132.211 Y127.792 E20.31159
G1 X131.924 Y128.648 E20.35363
G1 X131.564 Y129.476 E20.39567
G1 X131.131 Y130.269 E20.43774
G1 X130.63 Y131.02 E20.47978
G1 X130.064 Y131.724 E20.52184
G1 X129.438 Y132.375 E20.56389
G1 X128.758 Y132.969 E20.60594
G1 X128.027 Y133.499 E20.64798
G1 X127.252 Y133.964 E20.69007
G1 X126.44 Y134.357 E20.73207
G1 X125.595 Y134.678 E20.77416
G1 X124.726 Y134.922 E20.81619
G1 X123.838 Y135.089 E20.85826
G1 X122.718 Y135.185 E20.91061
G1 X122.079 Y135.2 E20.94037
G1 X98.161 Y135.199 E22.05409
G1 X97.463 Y135.19 E22.0866
G1 X96.562 Y135.139 E22.12862
G1 X95.668 Y135.007 E22.1707
G1 X94.79 Y134.798 E22.21272
G1 X93.933 Y134.511 E22.25481
G1 X93.106 Y134.15 E22.29683
G1 X92.313 Y133.717 E22.3389
G1 X91.562 Y133.216 E22.38093
G1 X90.858 Y132.65 E22.423
G1 X90.207 Y132.024 E22.46505
G1 X89.614 Y131.343 E22.5071
G1 X89.084 Y130.612 E22.54914
G1 X88.62 Y129.837 E22.5912
G1 X88.226 Y129.024 E22.63327
G1 X87.906 Y128.18 E22.6753
G1 X87.662 Y127.31 E22.71737
G1 X87.496 Y126.422 E22.75944
G1 X87.398 Y125.247 E22.81434
G1 X87.386 Y124.633 E22.84294
G1 X87.388 Y95.515 E24.19879
G1 X87.398 Y94.855 E24.22953
G1 X87.452 Y93.954 E24.27156
G1 X87.585 Y93.061 E24.3136
G1 X87.797 Y92.183 E24.35566
G1 X88.085 Y91.327 E24.39771
G1 X88.448 Y90.5 E24.43977
G1 X88.883 Y89.709 E24.4818
G1 X89.386 Y88.959 E24.52385
G1 X89.954 Y88.256 E24.56594
G1 X90.581 Y87.606 E24.60799
G1 F1500 E18.10799
G0 F6000 X100.187 Y97.6
G1 F1500 E24.60799
G1 F1200 X100.379 Y97.6 E24.61693
G1 X100.378 Y122.4 E25.77172
G1 X100.186 Y122.4 E25.78066
G1 X100.187 Y97.6 E26.93545
G0 F6000 X99.787 Y97.2
G1 F1200 X100.779 Y97.2 E26.98165
G1 X100.778 Y122.8 E28.17369
G1 X99.786 Y122.8 E28.21988
G1 X99.787 Y97.2 E29.41192
G0 F6000 X99.387 Y96.8
G1 F1200 X101.179 Y96.8 E29.49537
G1 X101.178 Y123.2 E30.72466
G1 X99.386 Y123.2 E30.8081
G1 X99.387 Y96.8 E32.0374
G0 F6000 X98.987 Y96.4
G1 F1200 X101.579 Y96.4 E32.15809
G1 X101.578 Y123.6 E33.42464
G1 X98.986 Y123.6 E33.54533
G1 X98.987 Y96.4 E34.81188
G0 F6000 X98.587 Y96
G1 F1200 X101.979 Y96 E34.96983
G1 X101.978 Y124 E36.27362
G1 X98.586 Y124 E36.43157
G1 X98.587 Y96 E37.73537
G0 F6000 X98.187 Y95.6
G1 F1200 X102.379 Y95.6 E37.93056
G1 X102.378 Y124.4 E39.27161
G1 X98.186 Y124.4 E39.46681
G1 X98.187 Y95.6 E40.80786
G0 F6000 X97.787 Y95.2
G1 F1200 X102.779 Y95.2 E41.04031
G1 X102.778 Y124.8 E42.41861
G1 X97.786 Y124.8 E42.65105
G1 X97.787 Y95.2 E44.02935
G1 F1500 E37.52935
G0 F6000 X102.326 Y94.347
G0 X117.671 Y94.347
G0 X117.683 Y95.2
G0 X117.218 Y95.2
G1 F1500 E44.02935
G1 F1200 X122.213 Y95.2 E44.26194
G1 X122.212 Y124.8 E45.64024
G1 X117.218 Y124.8 E45.87278
G1 X117.218 Y95.2 E47.25108
G0 F6000 X117.618 Y95.6
G1 F1200 X121.813 Y95.6 E47.44642
G1 X121.812 Y124.4 E48.78747
G1 X117.618 Y124.4 E48.98276
G1 X117.618 Y95.6 E50.32381
G0 F6000 X118.018 Y96
G1 F1200 X121.413 Y96 E50.48189
G1 X121.412 Y124 E51.78569
G1 X118.018 Y124 E51.94373
G1 X118.018 Y96 E53.24753
G0 F6000 X118.418 Y96.4
G1 F1200 X121.013 Y96.4 E53.36836
G1 X121.012 Y123.6 E54.63491
G1 X118.418 Y123.6 E54.75569
G1 X118.418 Y96.4 E56.02224
G0 F6000 X118.818 Y96.8
G1 F1200 X120.613 Y96.8 E56.10582
G1 X120.612 Y123.2 E57.33512
G1 X118.818 Y123.2 E57.41865
G1 X118.818 Y96.8 E58.64795
G0 F6000 X119.218 Y97.2
G1 F1200 X120.213 Y97.2 E58.69428
G1 X120.212 Y122.8 E59.88632
G1 X119.218 Y122.8 E59.93261
G1 X119.218 Y97.2 E61.12465
G0 F6000 X119.618 Y97.6
G1 F1200 X119.813 Y97.6 E61.13373
G1 X119.812 Y122.4 E62.28852
G1 X119.618 Y122.4 E62.29756
G1 X119.618 Y97.6 E63.45235
G1 F1500 E56.95235
G0 F6000 X117.683 Y95.2
G0 X116.818 Y95.2
;TYPE:SUPPORT-INTERFACE
G1 F1500 E63.45235
G1 F1200 X116.818 Y124.8 E64.83065
G1 X113.723 Y124.8 E64.97476
G1 X113.723 Y95.2 E66.35306
G1 X116.818 Y95.2 E66.49718
G1 F1500 E59.99718
G0 F6000 X116.818 Y94.335
G0 X107.304 Y94.347
G0 X107.144 Y95.2
G0 X106.279 Y95.2
G1 F1500 E66.49718
G1 F1200 X106.278 Y124.8 E67.87548
G1 X103.178 Y124.8 E68.01983
G1 X103.179 Y95.2 E69.39813
G1 X106.279 Y95.2 E69.54248
G0 F6000 X106.078 Y95.896
G1 F1200 X105.582 Y95.4 E69.57514
G0 F6000 X104.853 Y95.399
G1 F1200 X103.378 Y96.874 E69.67227
G0 F6000 X103.377 Y96.589
G1 F1200 X106.078 Y99.29 E69.85014
G0 F6000 X106.078 Y100.962
G1 F1200 X103.378 Y103.662 E70.02794
G0 F6000 X103.377 Y103.377
G1 F1200 X106.078 Y106.078 E70.2058
G0 F6000 X106.078 Y107.751
G1 F1200 X103.378 Y110.45 E70.38357
G0 F6000 X103.377 Y110.165
G1 F1200 X106.078 Y112.866 E70.56143
G0 F6000 X106.077 Y114.539
G1 F1200 X103.378 Y117.239 E70.7392
G0 F6000 X103.377 Y116.954
G1 F1200 X106.078 Y119.654 E70.91703
G0 F6000 X106.077 Y121.328
G1 F1200 X103.378 Y124.027 E71.09477
G0 F6000 X103.377 Y123.742
G1 F1200 X104.234 Y124.599 E71.1512
G0 F6000 X106.078 Y123.048
G1 F1200 X103.377 Y120.348 E71.32904
G0 F6000 X103.378 Y120.633
G1 F1200 X106.077 Y117.934 E71.50677
G0 F6000 X106.078 Y116.26
G1 F1200 X103.377 Y113.559 E71.68463
G0 F6000 X103.378 Y113.844
G1 F1200 X106.077 Y111.145 E71.86237
G0 F6000 X106.078 Y109.472
G1 F1200 X103.377 Y106.771 E72.04023
G0 F6000 X103.378 Y107.056
G1 F1200 X106.078 Y104.356 E72.21803
G0 F6000 X106.078 Y102.684
G1 F1200 X103.377 Y99.983 E72.3959
G0 F6000 X103.378 Y100.268
G1 F1200 X106.078 Y97.568 E72.5737
G1 F1500 E66.0737
G0 F6000 X107.144 Y97.568
G0 X107.304 Y94.347
G0 X112.691 Y94.347
G0 X112.858 Y96.951
G0 X113.921 Y96.951
G1 F1500 E72.5737
G1 F1200 X116.617 Y99.646 E72.7512
G0 F6000 X116.617 Y100.605
G1 F1200 X113.922 Y103.3 E72.92867
G0 F6000 X113.921 Y103.739
G1 F1200 X116.617 Y106.435 E73.10621
G0 F6000 X116.617 Y107.393
G1 F1200 X113.923 Y110.088 E73.28365
G0 F6000 X113.922 Y110.528
G1 F1200 X116.617 Y113.223 E73.46112
G0 F6000 X116.617 Y114.182
G1 F1200 X113.923 Y116.876 E73.63852
G0 F6000 X113.922 Y117.316
G1 F1200 X116.617 Y120.011 E73.81599
G0 F6000 X116.617 Y120.97
G1 F1200 X113.923 Y123.664 E73.9934
G0 F6000 X113.922 Y124.105
G1 F1200 X114.416 Y124.599 E74.02593
G0 F6000 X116.382 Y124.599
G1 F1200 X116.617 Y124.364 E74.0414
G0 F6000 X116.617 Y123.405
G1 F1200 X113.922 Y120.71 E74.21887
G0 F6000 X113.923 Y120.27
G1 F1200 X116.617 Y117.576 E74.39628
G0 F6000 X116.617 Y116.617
G1 F1200 X113.922 Y113.922 E74.57375
G0 F6000 X113.923 Y113.482
G1 F1200 X116.617 Y110.788 E74.75115
G0 F6000 X116.617 Y109.829
G1 F1200 X113.921 Y107.133 E74.92869
G0 F6000 X113.922 Y106.694
G1 F1200 X116.617 Y103.999 E75.10616
G0 F6000 X116.617 Y103.041
G1 F1200 X113.921 Y100.345 E75.28369
G0 F6000 X113.922 Y99.906
G1 F1200 X116.617 Y97.211 E75.46116
G0 F6000 X116.617 Y96.252
G1 F1200 X115.764 Y95.4 E75.5173
G0 F6000 X115.034 Y95.4
G1 F1200 X113.922 Y96.512 E75.59053
G1 F1500 E69.09053
;MESH:cylinder-0.001mm.stl
G0 F6000 X111.618 Y96.512
G0 X108.556 Y124.4
;TYPE:WALL-INNER
G1 F1500 E75.59053
G1 F1200 X111.438 Y124.4 E75.72473
G1 X111.438 Y95.6 E77.06578
G1 X108.557 Y95.6 E77.19993
G1 X108.556 Y124.4 E78.54098
G0 F6000 X108.156 Y124.8
;TYPE:WALL-OUTER
G1 F1200 X111.838 Y124.8 E78.71243
G1 X111.838 Y95.2 E80.09073
G1 X108.157 Y95.2 E80.26213
G1 X108.156 Y124.8 E81.64043
G0 F6000 X108.426 Y124.53
G0 X108.657 Y124.039
G0 X108.916 Y124.04
;TYPE:SKIN
G1 F1200 X111.078 Y124.04 E81.7411
G1 X111.078 Y97.041 E82.99829
G1 X111.078 Y95.96 E83.04862
G1 X108.917 Y95.96 E83.14925
G1 X108.916 Y124.04 E84.45677
G0 F6000 X109.697 Y123.839
G1 F1200 X109.115 Y123.257 E84.4951
G0 F6000 X109.115 Y122.692
G1 F1200 X110.262 Y123.839 E84.57063
G0 F6000 X110.828 Y123.839
G1 F1200 X109.115 Y122.126 E84.68343
G0 F6000 X109.115 Y121.56
G1 F1200 X110.877 Y123.322 E84.79946
G0 F6000 X110.877 Y122.757
G1 F1200 X109.115 Y120.995 E84.91549
G0 F6000 X109.115 Y120.429
G1 F1200 X110.877 Y122.191 E85.03152
G0 F6000 X110.877 Y121.625
G1 F1200 X109.115 Y119.863 E85.14755
G0 F6000 X109.115 Y119.298
G1 F1200 X110.877 Y121.06 E85.26359
G0 F6000 X110.877 Y120.494
G1 F1200 X109.115 Y118.732 E85.37962
G0 F6000 X109.115 Y118.166
G1 F1200 X110.877 Y119.928 E85.49565
G0 F6000 X110.877 Y119.363
G1 F1200 X109.115 Y117.601 E85.61168
G0 F6000 X109.115 Y117.035
G1 F1200 X110.877 Y118.797 E85.72771
G0 F6000 X110.877 Y118.231
G1 F1200 X109.115 Y116.469 E85.84374
G0 F6000 X109.115 Y115.903
G1 F1200 X110.877 Y117.666 E85.9598
G0 F6000 X110.877 Y117.1
G1 F1200 X109.115 Y115.338 E86.07583
G0 F6000 X109.115 Y114.772
G1 F1200 X110.877 Y116.534 E86.19186
G0 F6000 X110.877 Y115.969
G1 F1200 X109.115 Y114.206 E86.30793
G0 F6000 X109.115 Y113.641
G1 F1200 X110.877 Y115.403 E86.42396
G0 F6000 X110.877 Y114.837
G1 F1200 X109.115 Y113.075 E86.53999
G0 F6000 X109.115 Y112.509
G1 F1200 X110.877 Y114.271 E86.65602
G0 F6000 X110.877 Y113.706
G1 F1200 X109.115 Y111.944 E86.77205
G0 F6000 X109.115 Y111.378
G1 F1200 X110.877 Y113.14 E86.88808
G0 F6000 X110.877 Y112.574
G1 F1200 X109.115 Y110.812 E87.00411
G0 F6000 X109.115 Y110.247
G1 F1200 X110.877 Y112.009 E87.12014
G0 F6000 X110.877 Y111.443
G1 F1200 X109.115 Y109.681 E87.23617
G0 F6000 X109.115 Y109.115
G1 F1200 X110.877 Y110.877 E87.3522
G0 F6000 X110.877 Y110.312
G1 F1200 X109.115 Y108.55 E87.46823
G0 F6000 X109.115 Y107.984
G1 F1200 X110.877 Y109.746 E87.58427
G0 F6000 X110.877 Y109.18
G1 F1200 X109.115 Y107.418 E87.7003
G0 F6000 X109.115 Y106.853
G1 F1200 X110.877 Y108.615 E87.81633
G0 F6000 X110.877 Y108.049
