;FLAVOR:Marlin
;TIME:1277
;Filament used: 0.805165m
;Layer height: 0.2
;MINX:93.587
;MINY:95.204
;MINZ:0.2
;MAXX:126.611
;MAXY:124.796
;MAXZ:10.6
;Generated with Cura_SteamEngine 5.2.0
M82 ;absolute extrusion mode
; Ender 3 Custom Start G-code
G92 E0 ; Reset Extruder
G28 ; Home all axes
M104 S175 ; Start heating up the nozzle most of the way
M190 S60 ; Start heating the bed, wait until target temperature reached
M109 S200 ; Finish heating the nozzle
G1 Z2.0 F3000 ; Move Z Axis up little to prevent scratching of Heat Bed
G1 X0.1 Y20 Z0.3 F5000.0 ; Move to start position
G1 X0.1 Y200.0 Z0.3 F1500.0 E15 ; Draw the first line
G1 X0.4 Y200.0 Z0.3 F5000.0 ; Move to side a little
G1 X0.4 Y20 Z0.3 F1500.0 E30 ; Draw the second line
G92 E0 ; Reset Extruder
G1 Z2.0 F3000 ; Move Z Axis up little to prevent scratching of Heat Bed
G1 X5 Y20 Z0.3 F5000.0 ; Move over to prevent blob squish
G92 E0
G92 E0
G1 F1500 E-6.5
;LAYER_COUNT:53
;LAYER:0
M107
G0 F6000 X99.458 Y98.065 Z0.2
;TYPE:SKIRT
G1 F1500 E0
G1 F1200 X100.026 Y97.516 E0.02627
G1 X100.646 Y97.027 E0.05254
G1 X101.313 Y96.604 E0.07881
G1 X102.019 Y96.25 E0.10507
G1 X102.757 Y95.969 E0.13134
G1 X103.519 Y95.764 E0.15759
G1 X104.299 Y95.637 E0.18387
G1 X105.158 Y95.59 E0.21248
G1 X108.493 Y95.59 E0.32341
G1 X109.282 Y95.63 E0.34968
G1 X110.053 Y95.748 E0.37562
G1 X110.73 Y95.638 E0.39844
G1 X111.59 Y95.59 E0.42708
G1 X114.926 Y95.59 E0.53804
G1 X115.715 Y95.63 E0.56432
G1 X116.495 Y95.749 E0.59056
G1 X117.26 Y95.947 E0.61684
G1 X118 Y96.221 E0.64309
G1 X118.709 Y96.569 E0.66936
G1 X119.38 Y96.987 E0.69565
G1 X120.004 Y97.47 E0.7219
G1 X120.577 Y98.013 E0.74815
G1 X121.092 Y98.612 E0.77443
G1 X121.543 Y99.26 E0.80068
G1 X121.927 Y99.951 E0.82698
G1 X122.239 Y100.676 E0.85323
G1 X122.469 Y101.405 E0.87865
G1 X123.982 Y107.154 E1.07638
G1 X124.47 Y107.619 E1.0988
G1 X124.984 Y108.218 E1.12505
G1 X125.434 Y108.867 E1.15132
G1 X125.817 Y109.558 E1.17759
G1 X126.128 Y110.284 E1.20386
G1 X126.363 Y111.037 E1.2301
G1 X126.522 Y111.811 E1.25638
G1 X126.611 Y112.987 E1.29561
G1 X126.611 Y115.09 E1.36555
G1 X126.571 Y115.879 E1.39183
G1 X126.452 Y116.659 E1.41807
G1 X126.254 Y117.424 E1.44435
G1 X125.98 Y118.164 E1.4706
G1 X125.632 Y118.873 E1.49687
G1 X125.214 Y119.544 E1.52316
G1 X124.731 Y120.168 E1.54941
G1 X124.188 Y120.741 E1.57566
G1 X123.589 Y121.256 E1.60194
G1 X122.941 Y121.707 E1.62819
G1 X122.25 Y122.091 E1.65449
G1 X121.525 Y122.403 E1.68074
G1 X120.772 Y122.64 E1.707
G1 X119.998 Y122.799 E1.73328
G1 X118.847 Y122.89 E1.77168
G1 X116.406 Y122.901 E1.85287
G1 X114.133 Y122.888 E1.92847
G1 X113.345 Y122.843 E1.95472
G1 X113.103 Y122.805 E1.96287
G1 X112.815 Y122.852 E1.97257
G1 X111.944 Y122.901 E2.00159
G1 X109.796 Y122.901 E2.07303
G1 X109.007 Y122.861 E2.09931
G1 X108.659 Y122.808 E2.11102
G1 X107.615 Y122.89 E2.14585
G1 X104.396 Y122.902 E2.25291
G1 X101.351 Y122.888 E2.35419
G1 X100.563 Y122.844 E2.38044
G1 X99.783 Y122.721 E2.4067
G1 X99.019 Y122.52 E2.43298
G1 X98.28 Y122.242 E2.45924
G1 X97.572 Y121.892 E2.48551
G1 X96.904 Y121.471 E2.51177
G1 X96.281 Y120.985 E2.53805
G1 X95.711 Y120.438 E2.56433
G1 X95.199 Y119.837 E2.59059
G1 X94.751 Y119.187 E2.61684
G1 X94.371 Y118.495 E2.6431
G1 X94.062 Y117.768 E2.66937
G1 X93.829 Y117.014 E2.69562
G1 X93.673 Y116.24 E2.72188
G1 X93.587 Y115.088 E2.76031
G1 X93.587 Y112.985 E2.83025
G1 X93.627 Y112.196 E2.85653
G1 X93.746 Y111.416 E2.88277
G1 X93.944 Y110.651 E2.90905
G1 X94.218 Y109.911 E2.9353
G1 X94.566 Y109.202 E2.96157
G1 X94.984 Y108.531 E2.98786
G1 X95.467 Y107.907 E3.01411
G1 X96.01 Y107.334 E3.04036
G1 X96.165 Y107.201 E3.04716
G1 X97.591 Y101.498 E3.24268
G1 X97.821 Y100.743 E3.26893
G1 X98.126 Y100.014 E3.29521
G1 X98.504 Y99.321 E3.32147
G1 X98.949 Y98.669 E3.34772
G1 X99.458 Y98.065 E3.37399
G0 F6000 X99.819 Y98.266
G1 F1200 X100.38 Y97.739 E3.39959
G1 X100.993 Y97.274 E3.42518
G1 X101.65 Y96.874 E3.45077
G1 X102.345 Y96.545 E3.47634
G1 X103.071 Y96.29 E3.50194
G1 X103.819 Y96.112 E3.52751
G1 X104.582 Y96.012 E3.5531
G1 X105.158 Y95.99 E3.57228
G1 X108.493 Y95.99 E3.6832
G1 X109.261 Y96.03 E3.70878
G1 X110.056 Y96.158 E3.73556
G1 X110.25 Y96.112 E3.74219
G1 X111.013 Y96.013 E3.76778
G1 X111.59 Y95.99 E3.78699
G1 X114.926 Y95.99 E3.89794
G1 X115.694 Y96.03 E3.92352
G1 X116.454 Y96.149 E3.94911
G1 X117.197 Y96.347 E3.97468
G1 X117.916 Y96.621 E4.00027
G1 X118.602 Y96.968 E4.02584
G1 X119.249 Y97.384 E4.05143
G1 X119.849 Y97.865 E4.077
G1 X120.396 Y98.406 E4.10259
G1 X120.884 Y99.001 E4.12819
G1 X121.307 Y99.643 E4.15376
G1 X121.662 Y100.326 E4.17936
G1 X121.943 Y101.041 E4.20491
G1 X122.082 Y101.507 E4.22108
G1 X123.627 Y107.377 E4.42297
G1 X123.742 Y107.47 E4.42789
G1 X124.288 Y108.011 E4.45345
G1 X124.775 Y108.607 E4.47905
G1 X125.198 Y109.25 E4.50465
G1 X125.551 Y109.933 E4.53022
G1 X125.832 Y110.649 E4.55581
G1 X126.037 Y111.39 E4.58138
G1 X126.163 Y112.149 E4.60697
G1 X126.211 Y112.987 E4.63489
G1 X126.211 Y115.09 E4.70483
G1 X126.171 Y115.858 E4.73041
G1 X126.052 Y116.618 E4.756
G1 X125.854 Y117.361 E4.78157
G1 X125.58 Y118.08 E4.80716
G1 X125.233 Y118.766 E4.83273
G1 X124.817 Y119.413 E4.85832
G1 X124.336 Y120.013 E4.88389
G1 X123.795 Y120.56 E4.90948
G1 X123.2 Y121.048 E4.93508
G1 X122.558 Y121.471 E4.96065
G1 X121.875 Y121.826 E4.98625
G1 X121.16 Y122.107 E5.0118
G1 X120.418 Y122.313 E5.03741
G1 X119.66 Y122.441 E5.06298
G1 X118.845 Y122.49 E5.09014
G1 X116.409 Y122.501 E5.17116
G1 X114.136 Y122.488 E5.24676
G1 X113.368 Y122.444 E5.27235
G1 X113.108 Y122.402 E5.28111
G1 X112.531 Y122.478 E5.30046
G1 X111.944 Y122.501 E5.32
G1 X109.796 Y122.501 E5.39144
G1 X109.028 Y122.461 E5.41702
G1 X108.658 Y122.403 E5.42948
G1 X108.434 Y122.441 E5.43704
G1 X107.613 Y122.49 E5.46439
G1 X104.398 Y122.502 E5.57132
G1 X101.353 Y122.488 E5.6726
G1 X100.585 Y122.444 E5.69819
G1 X99.826 Y122.321 E5.72376
G1 X99.083 Y122.12 E5.74936
G1 X98.366 Y121.843 E5.77493
G1 X97.681 Y121.493 E5.80051
G1 X97.036 Y121.074 E5.82609
G1 X96.438 Y120.59 E5.85168
G1 X95.894 Y120.047 E5.87725
G1 X95.409 Y119.45 E5.90283
G1 X94.989 Y118.805 E5.92843
G1 X94.637 Y118.121 E5.95401
G1 X94.359 Y117.404 E5.97959
G1 X94.156 Y116.662 E6.00518
G1 X94.032 Y115.903 E6.03076
G1 X93.987 Y115.088 E6.05791
G1 X93.987 Y112.985 E6.12785
G1 X94.027 Y112.217 E6.15343
G1 X94.146 Y111.457 E6.17902
G1 X94.344 Y110.714 E6.20459
G1 X94.618 Y109.995 E6.23018
G1 X94.965 Y109.309 E6.25575
G1 X95.381 Y108.662 E6.28134
G1 X95.862 Y108.062 E6.30691
G1 X96.403 Y107.515 E6.3325
G1 X96.524 Y107.416 E6.3377
G1 X97.979 Y101.595 E6.53726
G1 X98.204 Y100.86 E6.56283
G1 X98.504 Y100.151 E6.58844
G1 X98.876 Y99.478 E6.61401
G1 X99.316 Y98.847 E6.6396
G1 X99.819 Y98.266 E6.66516
G0 F6000 X100.18 Y98.469
G1 F1200 X100.733 Y97.966 E6.69002
G1 X101.337 Y97.525 E6.71489
G1 X101.985 Y97.15 E6.7398
G1 X102.669 Y96.847 E6.76468
G1 X103.381 Y96.619 E6.78954
G1 X104.114 Y96.468 E6.81444
G1 X105.158 Y96.39 E6.84926
G1 X108.493 Y96.39 E6.96018
G1 X109.24 Y96.43 E6.98506
G1 X110.077 Y96.565 E7.01326
G1 X110.545 Y96.468 E7.02915
G1 X111.59 Y96.39 E7.06401
G1 X114.926 Y96.39 E7.17496
G1 X115.673 Y96.43 E7.19984
G1 X116.411 Y96.549 E7.22471
G1 X117.133 Y96.747 E7.24961
G1 X117.829 Y97.02 E7.27447
G1 X118.492 Y97.367 E7.29936
G1 X119.115 Y97.782 E7.32426
G1 X119.689 Y98.261 E7.34913
G1 X120.21 Y98.798 E7.37401
G1 X120.669 Y99.388 E7.39887
G1 X121.064 Y100.024 E7.42378
G1 X121.388 Y100.698 E7.44865
G1 X121.696 Y101.609 E7.48063
G1 X123.275 Y107.608 E7.68696
G1 X123.582 Y107.865 E7.70027
G1 X124.101 Y108.403 E7.72514
G1 X124.56 Y108.994 E7.75003
G1 X124.954 Y109.63 E7.77491
G1 X125.277 Y110.305 E7.7998
G1 X125.526 Y111.01 E7.82467
G1 X125.699 Y111.738 E7.84955
G1 X125.793 Y112.48 E7.87443
G1 X125.811 Y112.987 E7.8913
G1 X125.811 Y115.09 E7.96125
G1 X125.771 Y115.837 E7.98613
G1 X125.652 Y116.575 E8.01099
G1 X125.454 Y117.297 E8.03589
G1 X125.181 Y117.993 E8.06076
G1 X124.834 Y118.656 E8.08565
G1 X124.419 Y119.279 E8.11055
G1 X123.94 Y119.853 E8.13541
G1 X123.403 Y120.374 E8.1603
G1 X122.813 Y120.833 E8.18516
G1 X122.177 Y121.228 E8.21006
G1 X121.503 Y121.552 E8.23493
G1 X120.798 Y121.802 E8.25981
G1 X120.07 Y121.976 E8.28471
G1 X119.328 Y122.071 E8.30959
G1 X118.844 Y122.09 E8.3257
G1 X116.411 Y122.101 E8.40662
G1 X114.138 Y122.088 E8.48222
G1 X113.391 Y122.044 E8.50711
G1 X113.113 Y121.997 E8.51649
G1 X112.998 Y122.021 E8.5204
G1 X111.944 Y122.101 E8.55555
G1 X109.796 Y122.101 E8.627
G1 X109.049 Y122.061 E8.65188
G1 X108.664 Y121.999 E8.66485
G1 X108.102 Y122.071 E8.68369
G1 X107.612 Y122.09 E8.7
G1 X104.4 Y122.102 E8.80683
G1 X101.355 Y122.088 E8.90811
G1 X100.608 Y122.045 E8.933
G1 X99.87 Y121.922 E8.95788
G1 X99.15 Y121.721 E8.98275
G1 X98.454 Y121.444 E9.00766
G1 X97.793 Y121.095 E9.03252
G1 X97.172 Y120.677 E9.05742
G1 X96.6 Y120.195 E9.0823
G1 X96.082 Y119.655 E9.10719
G1 X95.625 Y119.063 E9.13206
G1 X95.234 Y118.426 E9.15692
G1 X94.913 Y117.75 E9.18181
G1 X94.666 Y117.044 E9.20669
G1 X94.495 Y116.316 E9.23156
G1 X94.404 Y115.573 E9.25646
G1 X94.387 Y115.088 E9.2726
G1 X94.387 Y112.985 E9.34254
G1 X94.427 Y112.238 E9.36743
G1 X94.546 Y111.5 E9.39229
G1 X94.744 Y110.778 E9.41719
G1 X95.017 Y110.082 E9.44205
G1 X95.364 Y109.419 E9.46694
G1 X95.779 Y108.796 E9.49184
G1 X96.258 Y108.222 E9.51671
G1 X96.886 Y107.612 E9.54583
G1 X98.367 Y101.692 E9.74879
G1 X98.587 Y100.977 E9.77368
G1 X98.882 Y100.29 E9.79854
G1 X99.249 Y99.638 E9.82343
G1 X99.683 Y99.028 E9.84833
G1 X100.18 Y98.469 E9.87321
G0 F6000 X100.539 Y98.676
G1 F1200 X101.085 Y98.197 E9.89736
G1 X101.68 Y97.781 E9.92151
G1 X102.318 Y97.433 E9.94568
G1 X102.989 Y97.156 E9.96983
G1 X103.687 Y96.956 E9.99398
G1 X104.403 Y96.833 E10.01814
G1 X105.158 Y96.79 E10.04329
G1 X108.493 Y96.79 E10.15421
G1 X109.218 Y96.83 E10.17836
G1 X109.935 Y96.949 E10.20254
G1 X110.019 Y96.973 E10.20544
G1 X110.835 Y96.833 E10.23298
G1 X111.59 Y96.79 E10.25813
G1 X114.926 Y96.79 E10.36909
G1 X115.651 Y96.83 E10.39324
G1 X116.368 Y96.949 E10.41741
G1 X117.067 Y97.147 E10.44158
G1 X117.74 Y97.42 E10.46573
G1 X118.379 Y97.765 E10.48988
G1 X118.976 Y98.179 E10.51405
G1 X119.524 Y98.655 E10.53819
G1 X120.017 Y99.189 E10.56236
G1 X120.447 Y99.774 E10.58651
G1 X120.811 Y100.403 E10.61068
G1 X121.104 Y101.068 E10.63485
G1 X121.309 Y101.71 E10.65727
G1 X122.918 Y107.825 E10.86758
G1 X123.416 Y108.259 E10.88955
G1 X123.908 Y108.794 E10.91372
G1 X124.338 Y109.379 E10.93787
G1 X124.701 Y110.008 E10.96202
G1 X124.992 Y110.674 E10.9862
G1 X125.209 Y111.367 E11.01035
G1 X125.348 Y112.08 E11.03451
G1 X125.411 Y112.987 E11.06475
G1 X125.411 Y115.09 E11.1347
G1 X125.371 Y115.815 E11.15885
G1 X125.252 Y116.532 E11.18302
G1 X125.054 Y117.231 E11.20718
G1 X124.781 Y117.904 E11.23134
G1 X124.436 Y118.543 E11.25549
G1 X124.022 Y119.14 E11.27966
G1 X123.546 Y119.688 E11.3038
G1 X123.012 Y120.181 E11.32797
G1 X122.427 Y120.611 E11.35212
G1 X121.798 Y120.975 E11.37629
G1 X121.133 Y121.268 E11.40046
G1 X120.44 Y121.486 E11.42462
G1 X119.728 Y121.626 E11.44876
G1 X118.842 Y121.69 E11.4783
G1 X116.413 Y121.701 E11.55909
G1 X114.14 Y121.688 E11.63469
G1 X113.415 Y121.644 E11.65885
G1 X113.099 Y121.589 E11.66952
G1 X112.708 Y121.657 E11.68272
G1 X111.944 Y121.701 E11.70817
G1 X109.796 Y121.701 E11.77962
G1 X109.071 Y121.661 E11.80377
G1 X108.666 Y121.594 E11.81742
G1 X108.502 Y121.626 E11.82298
G1 X107.61 Y121.69 E11.85272
G1 X104.402 Y121.702 E11.95942
G1 X101.357 Y121.688 E12.0607
G1 X100.632 Y121.645 E12.08485
G1 X99.916 Y121.522 E12.10902
G1 X99.218 Y121.321 E12.13318
G1 X98.546 Y121.045 E12.15734
G1 X97.908 Y120.697 E12.18151
G1 X97.313 Y120.281 E12.20566
G1 X96.767 Y119.801 E12.22984
G1 X96.277 Y119.265 E12.25399
G1 X95.849 Y118.678 E12.27815
G1 X95.488 Y118.048 E12.3023
G1 X95.199 Y117.382 E12.32645
G1 X94.984 Y116.688 E12.35062
G1 X94.847 Y115.975 E12.37476
G1 X94.787 Y115.088 E12.40433
G1 X94.787 Y112.985 E12.47428
G1 X94.827 Y112.26 E12.49843
G1 X94.946 Y111.543 E12.5226
G1 X95.144 Y110.844 E12.54677
G1 X95.417 Y110.171 E12.57092
G1 X95.762 Y109.532 E12.59508
G1 X96.176 Y108.935 E12.61924
G1 X96.652 Y108.387 E12.64338
G1 X97.241 Y107.843 E12.67005
G1 X98.755 Y101.789 E12.87761
G1 X98.97 Y101.095 E12.90177
G1 X99.259 Y100.429 E12.92592
G1 X99.621 Y99.799 E12.95009
G1 X100.049 Y99.212 E12.97425
G1 X100.539 Y98.676 E12.9984
G0 F6000 X100.897 Y98.886
G1 F1200 X101.435 Y98.432 E13.02182
G1 X102.021 Y98.042 E13.04523
G1 X102.647 Y97.721 E13.06863
G1 X103.306 Y97.473 E13.09205
G1 X103.989 Y97.301 E13.11547
G1 X104.687 Y97.208 E13.13889
G1 X105.158 Y97.19 E13.15457
G1 X108.493 Y97.19 E13.26549
G1 X109.196 Y97.23 E13.28891
G1 X109.89 Y97.349 E13.31233
G1 X110.047 Y97.395 E13.31777
G1 X110.42 Y97.301 E13.33057
G1 X111.118 Y97.208 E13.35399
G1 X111.59 Y97.19 E13.3697
G1 X114.926 Y97.19 E13.48065
G1 X115.629 Y97.23 E13.50407
G1 X116.323 Y97.349 E13.52749
G1 X116.998 Y97.547 E13.55089
G1 X117.647 Y97.819 E13.57429
G1 X118.261 Y98.164 E13.59772
G1 X118.832 Y98.575 E13.62112
G1 X119.353 Y99.049 E13.64454
G1 X119.817 Y99.579 E13.66797
G1 X120.217 Y100.158 E13.69138
G1 X120.549 Y100.779 E13.7148
G1 X120.809 Y101.433 E13.73821
G1 X120.922 Y101.812 E13.75136
G1 X122.567 Y108.064 E13.96638
G1 X122.725 Y108.178 E13.97286
G1 X123.244 Y108.653 E13.99626
G1 X123.707 Y109.183 E14.01967
G1 X124.107 Y109.763 E14.0431
G1 X124.438 Y110.384 E14.06651
G1 X124.697 Y111.039 E14.08994
G1 X124.88 Y111.719 E14.11336
G1 X124.985 Y112.415 E14.13677
G1 X125.011 Y112.987 E14.15581
G1 X125.011 Y115.09 E14.22576
G1 X124.971 Y115.793 E14.24918
G1 X124.852 Y116.487 E14.2726
G1 X124.654 Y117.162 E14.29599
G1 X124.382 Y117.811 E14.3194
G1 X124.037 Y118.425 E14.34282
G1 X123.626 Y118.996 E14.36622
G1 X123.152 Y119.517 E14.38965
G1 X122.622 Y119.981 E14.41308
G1 X122.043 Y120.381 E14.43649
G1 X121.422 Y120.713 E14.45991
G1 X120.768 Y120.973 E14.48332
G1 X120.088 Y121.157 E14.50675
G1 X119.392 Y121.263 E14.53016
G1 X118.84 Y121.29 E14.54854
G1 X116.416 Y121.301 E14.62917
G1 X114.143 Y121.288 E14.70477
G1 X113.44 Y121.244 E14.7282
G1 X113.122 Y121.188 E14.73893
G1 X112.425 Y121.282 E14.76233
G1 X111.944 Y121.301 E14.77834
G1 X109.796 Y121.301 E14.84978
G1 X109.093 Y121.261 E14.8732
G1 X108.663 Y121.187 E14.88771
G1 X108.166 Y121.263 E14.90443
G1 X107.609 Y121.29 E14.92298
G1 X104.403 Y121.302 E15.02962
G1 X101.358 Y121.288 E15.13089
G1 X100.656 Y121.245 E15.15429
G1 X99.963 Y121.122 E15.1777
G1 X99.288 Y120.922 E15.20111
G1 X98.64 Y120.646 E15.22454
G1 X98.028 Y120.299 E15.24794
G1 X97.458 Y119.885 E15.27137
G1 X96.94 Y119.408 E15.29479
G1 X96.479 Y118.876 E15.3182
G1 X96.081 Y118.295 E15.34162
G1 X95.752 Y117.673 E15.36503
G1 X95.495 Y117.018 E15.38843
G1 X95.314 Y116.337 E15.41187
G1 X95.212 Y115.641 E15.43526
G1 X95.187 Y115.088 E15.45368
G1 X95.187 Y112.985 E15.52362
G1 X95.227 Y112.282 E15.54704
G1 X95.346 Y111.588 E15.57046
G1 X95.544 Y110.913 E15.59386
G1 X95.816 Y110.264 E15.61726
G1 X96.161 Y109.65 E15.64069
G1 X96.572 Y109.079 E15.66409
G1 X97.046 Y108.558 E15.68751
G1 X97.594 Y108.082 E15.71166
G1 X99.143 Y101.886 E15.92408
G1 X99.352 Y101.214 E15.94748
G1 X99.637 Y100.57 E15.97091
G1 X99.992 Y99.962 E15.99432
G1 X100.414 Y99.399 E16.01773
G1 X100.897 Y98.886 E16.04116
G0 F6000 X101.254 Y99.101
G1 F1200 X101.783 Y98.673 E16.06379
G1 X102.359 Y98.31 E16.08644
G1 X102.974 Y98.017 E16.1091
G1 X103.619 Y97.798 E16.13175
G1 X104.284 Y97.656 E16.15437
G1 X105.158 Y97.59 E16.18352
G1 X108.493 Y97.59 E16.29444
G1 X109.173 Y97.63 E16.3171
G1 X109.843 Y97.749 E16.33973
G1 X110.029 Y97.805 E16.34619
G1 X110.716 Y97.656 E16.36957
G1 X111.59 Y97.59 E16.39873
G1 X114.926 Y97.59 E16.50968
G1 X115.606 Y97.63 E16.53234
G1 X116.276 Y97.749 E16.55497
G1 X116.928 Y97.946 E16.57762
G1 X117.552 Y98.218 E16.60027
G1 X118.14 Y98.562 E16.62292
G1 X118.684 Y98.972 E16.64558
G1 X119.175 Y99.443 E16.66821
G1 X119.609 Y99.968 E16.69087
G1 X119.978 Y100.54 E16.71351
G1 X120.277 Y101.152 E16.73616
G1 X120.535 Y101.914 E16.76292
G1 X122.216 Y108.303 E16.98265
G1 X122.575 Y108.574 E16.99761
G1 X123.066 Y109.046 E17.02026
G1 X123.499 Y109.572 E17.04292
G1 X123.867 Y110.145 E17.06557
G1 X124.165 Y110.757 E17.08821
