;FLAVOR:Marlin
;TIME:1345
;Filament used: 1.02278m
;Layer height: 0.28
;MINX:87.205
;MINY:87.203
;MINZ:0.28
;MAXX:132.79
;MAXY:132.797
;MAXZ:29.96
;Generated with Cura_SteamEngine 5.2.0
M82 ;absolute extrusion mode
; Ender 3 Custom Start G-code
G92 E0 ; Reset Extruder
G28 ; Home all axes
M104 S175 ; Start heating up the nozzle most of the way
M190 S60 ; Start heating the bed, wait until target temperature reached
M109 S200 ; Finish heating the nozzle
G1 Z2.0 F3000 ; Move Z Axis up little to prevent scratching of Heat Bed
G1 X0.1 Y20 Z0.3 F5000.0 ; Move to start position
G1 X0.1 Y200.0 Z0.3 F1500.0 E15 ; Draw the first line
G1 X0.4 Y200.0 Z0.3 F5000.0 ; Move to side a little
G1 X0.4 Y20 Z0.3 F1500.0 E30 ; Draw the second line
G92 E0 ; Reset Extruder
G1 Z2.0 F3000 ; Move Z Axis up little to prevent scratching of Heat Bed
G1 X5 Y20 Z0.3 F5000.0 ; Move over to prevent blob squish
G92 E0
G92 E0
G1 F1500 E-6.5
;LAYER_COUNT:107
;LAYER:0
M107
G0 F6000 X93.649 Y94.109 Z0.28
;TYPE:SKIRT
G1 F1500 E0
G1 F1200 X94.424 Y93.35 E0.05051
G1 X94.827 Y92.983 E0.07589
G1 X95.652 Y92.281 E0.12633
G1 X96.108 Y91.921 E0.15339
G1 X96.982 Y91.283 E0.20377
G1 X97.442 Y90.971 E0.22965
G1 X98.359 Y90.397 E0.28003
G1 X98.838 Y90.121 E0.30577
G1 X99.796 Y89.612 E0.35628
G1 X100.31 Y89.362 E0.3829
G1 X101.297 Y88.927 E0.43312
G1 X101.822 Y88.718 E0.45944
G1 X102.848 Y88.352 E0.51016
G1 X103.391 Y88.181 E0.53667
G1 X104.433 Y87.893 E0.58701
G1 X104.979 Y87.763 E0.61314
G1 X106.042 Y87.55 E0.66362
G1 X106.588 Y87.461 E0.68938
G1 X107.663 Y87.324 E0.73984
G1 X108.224 Y87.273 E0.76607
G1 X109.305 Y87.214 E0.81648
G1 X109.874 Y87.203 E0.84298
G1 X110.955 Y87.223 E0.89333
G1 X111.523 Y87.255 E0.91982
G1 X112.603 Y87.354 E0.97032
G1 X113.143 Y87.422 E0.99566
G1 X114.213 Y87.596 E1.04614
G1 X114.786 Y87.712 E1.07336
G1 X115.837 Y87.965 E1.1237
G1 X116.375 Y88.114 E1.1497
G1 X117.407 Y88.442 E1.20012
G1 X117.933 Y88.631 E1.22614
G1 X118.941 Y89.033 E1.27668
G1 X119.451 Y89.257 E1.30261
G1 X120.424 Y89.728 E1.35295
G1 X120.933 Y89.999 E1.3798
G1 X121.871 Y90.542 E1.43027
G1 X122.339 Y90.835 E1.45598
G1 X123.236 Y91.443 E1.50644
G1 X123.696 Y91.78 E1.53299
G1 X124.545 Y92.451 E1.58338
G1 X124.97 Y92.813 E1.60937
G1 X125.769 Y93.543 E1.65977
G1 X126.176 Y93.942 E1.68631
G1 X126.921 Y94.73 E1.7368
G1 X127.282 Y95.14 E1.76224
G1 X127.97 Y95.978 E1.81273
G1 X128.324 Y96.443 E1.83994
G1 X128.945 Y97.327 E1.89025
G1 X129.243 Y97.786 E1.91573
G1 X129.802 Y98.714 E1.96617
G1 X130.08 Y99.216 E1.99289
G1 X130.57 Y100.184 E2.04341
G1 X130.802 Y100.684 E2.06908
G1 X131.219 Y101.676 E2.11919
G1 X131.421 Y102.213 E2.1459
G1 X131.768 Y103.245 E2.1966
G1 X131.929 Y103.787 E2.22293
G1 X132.199 Y104.836 E2.27337
G1 X132.319 Y105.382 E2.2994
G1 X132.513 Y106.447 E2.3498
G1 X132.593 Y107.003 E2.37596
G1 X132.71 Y108.081 E2.42645
G1 X132.751 Y108.642 E2.45264
G1 X132.79 Y109.723 E2.50301
G1 X132.79 Y110.285 E2.52918
G1 X132.751 Y111.367 E2.5796
G1 X132.71 Y111.936 E2.60616
G1 X132.592 Y113.013 E2.65661
G1 X132.512 Y113.558 E2.68226
G1 X132.318 Y114.625 E2.73276
G1 X132.196 Y115.183 E2.75935
G1 X131.925 Y116.231 E2.80976
G1 X131.763 Y116.773 E2.8361
G1 X131.417 Y117.798 E2.88647
G1 X131.216 Y118.329 E2.91291
G1 X130.796 Y119.327 E2.96333
G1 X130.568 Y119.821 E2.98866
G1 X130.079 Y120.788 E3.03912
G1 X129.794 Y121.301 E3.06645
G1 X129.234 Y122.228 E3.11688
G1 X128.939 Y122.682 E3.14209
G1 X128.316 Y123.568 E3.19252
G1 X127.961 Y124.034 E3.2198
G1 X127.273 Y124.871 E3.27025
G1 X126.912 Y125.28 E3.29565
G1 X126.167 Y126.067 E3.34612
G1 X125.759 Y126.467 E3.37272
G1 X124.96 Y127.196 E3.42308
G1 X124.536 Y127.556 E3.44898
G1 X123.686 Y128.227 E3.49941
G1 X123.226 Y128.564 E3.52596
G1 X122.328 Y129.172 E3.57646
G1 X121.857 Y129.467 E3.60234
G1 X120.919 Y130.009 E3.65278
G1 X120.416 Y130.276 E3.6793
G1 X119.443 Y130.747 E3.72964
G1 X118.925 Y130.975 E3.75599
G1 X117.916 Y131.376 E3.80655
G1 X117.389 Y131.563 E3.83259
G1 X116.356 Y131.89 E3.88304
G1 X115.821 Y132.039 E3.9089
G1 X114.77 Y132.291 E3.95923
G1 X114.203 Y132.405 E3.98616
G1 X113.133 Y132.579 E4.03663
G1 X112.586 Y132.648 E4.06231
G1 X111.506 Y132.746 E4.1128
G1 X110.945 Y132.777 E4.13896
G1 X109.864 Y132.797 E4.18931
G1 X109.295 Y132.786 E4.21581
G1 X108.214 Y132.727 E4.26622
G1 X107.646 Y132.676 E4.29277
G1 X106.571 Y132.538 E4.34324
G1 X106.032 Y132.449 E4.36868
G1 X104.969 Y132.236 E4.41916
G1 X104.41 Y132.102 E4.44593
G1 X103.368 Y131.812 E4.49629
G1 X102.831 Y131.642 E4.52252
G1 X101.811 Y131.277 E4.57296
G1 X101.292 Y131.07 E4.59898
G1 X100.301 Y130.633 E4.64942
G1 X99.788 Y130.384 E4.67597
G1 X98.83 Y129.875 E4.72648
G1 X98.346 Y129.595 E4.75252
G1 X97.429 Y129.02 E4.80292
G1 X96.969 Y128.709 E4.82877
G1 X96.095 Y128.07 E4.87919
G1 X95.644 Y127.713 E4.90597
G1 X94.819 Y127.011 E4.95641
G1 X94.406 Y126.633 E4.98248
G1 X93.633 Y125.873 E5.03296
G1 X93.247 Y125.466 E5.05908
G1 X92.532 Y124.654 E5.10946
G1 X92.176 Y124.218 E5.13567
G1 X91.521 Y123.356 E5.18608
G1 X91.192 Y122.889 E5.21268
G1 X90.601 Y121.98 E5.26317
G1 X90.318 Y121.51 E5.28871
G1 X89.793 Y120.563 E5.33913
G1 X89.534 Y120.051 E5.36585
G1 X89.081 Y119.07 E5.41616
G1 X88.863 Y118.551 E5.44238
G1 X88.48 Y117.535 E5.49293
G1 X88.3 Y116.998 E5.51931
G1 X87.993 Y115.961 E5.56967
G1 X87.856 Y115.432 E5.59511
G1 X87.623 Y114.379 E5.64533
G1 X87.519 Y113.811 E5.67222
G1 X87.363 Y112.733 E5.72294
G1 X87.304 Y112.182 E5.74874
G1 X87.226 Y111.109 E5.79883
G1 X87.205 Y110.543 E5.82521
G1 X87.205 Y109.453 E5.87596
G1 X87.225 Y108.891 E5.90215
G1 X87.303 Y107.812 E5.95252
G1 X87.365 Y107.245 E5.97908
G1 X87.522 Y106.172 E6.02958
G1 X87.624 Y105.617 E6.05585
G1 X87.858 Y104.559 E6.10631
G1 X87.997 Y104.02 E6.13223
G1 X88.305 Y102.984 E6.18255
G1 X88.487 Y102.447 E6.20896
G1 X88.871 Y101.432 E6.25949
G1 X89.085 Y100.922 E6.28524
G1 X89.538 Y99.941 E6.33556
G1 X89.8 Y99.424 E6.36255
G1 X90.326 Y98.477 E6.41299
G1 X90.609 Y98.007 E6.43853
G1 X91.201 Y97.098 E6.48905
G1 X91.527 Y96.636 E6.51537
G1 X92.182 Y95.774 E6.56579
G1 X92.541 Y95.335 E6.59219
G1 X93.256 Y94.524 E6.64254
G1 X93.649 Y94.109 E6.66915
G0 F6000 X93.929 Y94.395
G1 F1200 X94.704 Y93.636 E6.71966
G1 X95.086 Y93.287 E6.74375
G1 X95.911 Y92.585 E6.7942
G1 X96.344 Y92.244 E6.81986
G1 X97.218 Y91.606 E6.87025
G1 X97.655 Y91.311 E6.8948
G1 X98.572 Y90.737 E6.94517
G1 X99.026 Y90.474 E6.9696
G1 X99.984 Y89.965 E7.02012
G1 X100.472 Y89.728 E7.04538
G1 X101.459 Y89.293 E7.0956
G1 X101.957 Y89.095 E7.12056
G1 X102.983 Y88.729 E7.17128
G1 X103.498 Y88.566 E7.19643
G1 X104.54 Y88.278 E7.24677
G1 X105.057 Y88.155 E7.27152
G1 X106.12 Y87.942 E7.322
G1 X106.638 Y87.857 E7.34644
G1 X107.713 Y87.72 E7.3969
G1 X108.246 Y87.672 E7.42182
G1 X109.327 Y87.613 E7.47223
G1 X109.867 Y87.603 E7.49738
G1 X110.948 Y87.623 E7.54773
G1 X111.487 Y87.653 E7.57286
G1 X112.567 Y87.752 E7.62337
G1 X113.079 Y87.817 E7.6474
G1 X114.149 Y87.991 E7.69788
G1 X114.693 Y88.101 E7.72372
G1 X115.744 Y88.354 E7.77406
G1 X116.253 Y88.496 E7.79866
G1 X117.285 Y88.824 E7.84909
G1 X117.785 Y89.002 E7.8738
G1 X118.793 Y89.404 E7.92433
G1 X119.276 Y89.617 E7.94891
G1 X120.249 Y90.088 E7.99925
G1 X120.732 Y90.345 E8.02472
G1 X121.67 Y90.888 E8.07519
G1 X122.115 Y91.167 E8.09965
G1 X123.012 Y91.775 E8.15011
G1 X123.448 Y92.094 E8.17526
G1 X124.297 Y92.765 E8.22565
G1 X124.7 Y93.108 E8.25029
G1 X125.499 Y93.838 E8.30069
G1 X125.885 Y94.217 E8.32588
G1 X126.63 Y95.005 E8.37637
G1 X126.972 Y95.393 E8.40046
G1 X127.66 Y96.231 E8.45094
G1 X127.996 Y96.673 E8.4768
G1 X128.617 Y97.557 E8.5271
G1 X128.901 Y97.993 E8.55133
G1 X129.46 Y98.921 E8.60178
G1 X129.723 Y99.397 E8.6271
G1 X130.213 Y100.365 E8.67762
G1 X130.433 Y100.839 E8.70195
G1 X130.85 Y101.831 E8.75206
G1 X131.042 Y102.341 E8.77743
G1 X131.389 Y103.373 E8.82813
G1 X131.541 Y103.886 E8.85304
G1 X131.811 Y104.935 E8.90348
G1 X131.925 Y105.454 E8.92823
G1 X132.119 Y106.519 E8.97863
G1 X132.196 Y107.047 E9.00348
G1 X132.313 Y108.125 E9.05397
G1 X132.351 Y108.656 E9.07876
G1 X132.39 Y109.737 E9.12913
G1 X132.39 Y110.271 E9.15399
G1 X132.351 Y111.353 E9.20441
G1 X132.312 Y111.892 E9.22957
G1 X132.194 Y112.969 E9.28002
G1 X132.119 Y113.487 E9.30439
G1 X131.925 Y114.554 E9.35489
G1 X131.808 Y115.083 E9.38012
G1 X131.537 Y116.131 E9.43052
G1 X131.384 Y116.645 E9.45549
G1 X131.038 Y117.67 E9.50587
G1 X130.848 Y118.173 E9.53091
G1 X130.428 Y119.171 E9.58132
G1 X130.211 Y119.64 E9.60539
G1 X129.722 Y120.607 E9.65585
G1 X129.452 Y121.094 E9.68177
G1 X128.892 Y122.021 E9.7322
G1 X128.611 Y122.451 E9.75612
G1 X127.988 Y123.337 E9.80656
G1 X127.652 Y123.78 E9.83245
G1 X126.964 Y124.617 E9.8829
G1 X126.621 Y125.005 E9.90701
G1 X125.876 Y125.792 E9.95747
G1 X125.49 Y126.172 E9.9827
G1 X124.691 Y126.901 E10.03306
G1 X124.288 Y127.242 E10.05764
G1 X123.438 Y127.913 E10.10807
G1 X123.002 Y128.233 E10.13325
G1 X122.104 Y128.841 E10.18375
G1 X121.657 Y129.12 E10.20828
G1 X120.719 Y129.662 E10.25873
G1 X120.241 Y129.916 E10.28393
G1 X119.268 Y130.387 E10.33427
G1 X118.777 Y130.603 E10.35925
G1 X117.768 Y131.004 E10.4098
G1 X117.268 Y131.182 E10.43452
G1 X116.235 Y131.509 E10.48497
G1 X115.727 Y131.65 E10.50952
G1 X114.676 Y131.902 E10.55985
G1 X114.139 Y132.01 E10.58535
G1 X113.069 Y132.184 E10.63583
G1 X112.55 Y132.25 E10.66019
G1 X111.47 Y132.348 E10.71069
G1 X110.938 Y132.377 E10.7355
G1 X109.857 Y132.397 E10.78584
G1 X109.317 Y132.387 E10.81099
G1 X108.236 Y132.328 E10.8614
G1 X107.697 Y132.279 E10.8866
G1 X106.622 Y132.141 E10.93707
G1 X106.11 Y132.057 E10.96123
G1 X105.047 Y131.844 E11.01171
G1 X104.517 Y131.717 E11.03709
G1 X103.475 Y131.427 E11.08745
G1 X102.966 Y131.265 E11.11232
G1 X101.946 Y130.9 E11.16277
G1 X101.453 Y130.704 E11.18747
G1 X100.462 Y130.267 E11.23791
G1 X99.976 Y130.031 E11.26306
G1 X99.018 Y129.522 E11.31358
G1 X98.559 Y129.256 E11.33828
G1 X97.642 Y128.681 E11.38868
G1 X97.206 Y128.386 E11.41319
G1 X96.332 Y127.747 E11.4636
G1 X95.903 Y127.409 E11.48904
G1 X95.078 Y126.707 E11.53948
G1 X94.686 Y126.348 E11.56423
G1 X93.913 Y125.588 E11.61471
G1 X93.547 Y125.201 E11.63951
G1 X92.832 Y124.389 E11.68989
G1 X92.494 Y123.976 E11.71474
G1 X91.839 Y123.114 E11.76515
G1 X91.527 Y122.671 E11.79038
G1 X90.936 Y121.762 E11.84087
G1 X90.668 Y121.316 E11.86509
G1 X90.143 Y120.369 E11.91551
G1 X89.897 Y119.883 E11.94088
G1 X89.444 Y118.902 E11.99119
G1 X89.238 Y118.41 E12.01603
G1 X88.855 Y117.394 E12.06659
G1 X88.683 Y116.885 E12.09161
G1 X88.376 Y115.848 E12.14196
G1 X88.247 Y115.346 E12.1661
G1 X88.014 Y114.293 E12.21632
G1 X87.915 Y113.754 E12.24184
G1 X87.759 Y112.676 E12.29255
G1 X87.702 Y112.153 E12.31705
G1 X87.624 Y111.08 E12.36715
G1 X87.605 Y110.543 E12.39217
G1 X87.605 Y109.453 E12.44292
G1 X87.624 Y108.919 E12.4678
G1 X87.702 Y107.84 E12.51818
G1 X87.761 Y107.303 E12.54333
G1 X87.918 Y106.23 E12.59383
G1 X88.015 Y105.703 E12.61878
G1 X88.249 Y104.645 E12.66923
G1 X88.381 Y104.134 E12.69381
G1 X88.689 Y103.098 E12.74414
G1 X88.861 Y102.589 E12.76916
G1 X89.245 Y101.574 E12.81969
G1 X89.448 Y101.09 E12.84413
G1 X89.901 Y100.109 E12.89444
G1 X90.15 Y99.618 E12.92008
G1 X90.676 Y98.671 E12.97052
G1 X90.944 Y98.226 E12.99471
G1 X91.536 Y97.317 E13.04522
G1 X91.845 Y96.878 E13.07022
G1 X92.5 Y96.016 E13.12063
G1 X92.841 Y95.599 E13.14571
G1 X93.556 Y94.788 E13.19605
G1 X93.929 Y94.395 E13.22128
G0 F6000 X94.209 Y94.681
G1 F1200 X94.984 Y93.922 E13.2718
G1 X95.346 Y93.592 E13.2946
G1 X96.171 Y92.89 E13.34504
G1 X96.58 Y92.567 E13.36931
G1 X97.454 Y91.929 E13.4197
G1 X97.867 Y91.65 E13.44291
G1 X98.784 Y91.076 E13.49328
G1 X99.214 Y90.827 E13.51642
G1 X100.172 Y90.318 E13.56693
G1 X100.633 Y90.095 E13.59078
G1 X101.62 Y89.66 E13.641
G1 X102.091 Y89.472 E13.66462
G1 X103.117 Y89.106 E13.71534
G1 X103.604 Y88.952 E13.73912
G1 X104.646 Y88.664 E13.78946
G1 X105.136 Y88.547 E13.81292
G1 X106.199 Y88.334 E13.8634
G1 X106.689 Y88.254 E13.88652
G1 X107.764 Y88.117 E13.93698
G1 X108.268 Y88.071 E13.96055
G1 X109.349 Y88.012 E14.01096
G1 X109.859 Y88.003 E14.03471
G1 X110.94 Y88.023 E14.08506
G1 X111.45 Y88.051 E14.10884
G1 X112.53 Y88.15 E14.15934
G1 X113.015 Y88.212 E14.18211
G1 X114.085 Y88.386 E14.23258
G1 X114.599 Y88.489 E14.25699
G1 X115.65 Y88.742 E14.30733
G1 X116.132 Y88.877 E14.33064
G1 X117.164 Y89.205 E14.38106
G1 X117.637 Y89.374 E14.40445
G1 X118.645 Y89.776 E14.45498
G1 X119.102 Y89.977 E14.47823
G1 X120.075 Y90.448 E14.52857
G1 X120.532 Y90.691 E14.55267
G1 X121.47 Y91.234 E14.60313
G1 X121.891 Y91.498 E14.62627
G1 X122.788 Y92.106 E14.67673
G1 X123.2 Y92.408 E14.70052
G1 X124.049 Y93.079 E14.75091
G1 X124.431 Y93.403 E14.77423
G1 X125.23 Y94.133 E14.82463
G1 X125.595 Y94.492 E14.84847
G1 X126.34 Y95.28 E14.89896
G1 X126.663 Y95.647 E14.92173
G1 X127.351 Y96.485 E14.97221
G1 X127.669 Y96.903 E14.99667
G1 X128.29 Y97.787 E15.04697
G1 X128.558 Y98.199 E15.06986
G1 X129.117 Y99.127 E15.12031
G1 X129.366 Y99.578 E15.14429
G1 X129.856 Y100.546 E15.19481
G1 X130.064 Y100.994 E15.21781
G1 X130.481 Y101.986 E15.26792
G1 X130.663 Y102.468 E15.29191
G1 X131.01 Y103.5 E15.34261
G1 X131.154 Y103.986 E15.36621
G1 X131.424 Y105.035 E15.41665
G1 X131.532 Y105.526 E15.44006
G1 X131.726 Y106.591 E15.49047
G1 X131.798 Y107.09 E15.51394
G1 X131.915 Y108.168 E15.56443
G1 X131.951 Y108.671 E15.58791
G1 X131.99 Y109.752 E15.63828
G1 X131.99 Y110.256 E15.66175
G1 X131.951 Y111.338 E15.71217
G1 X131.914 Y111.848 E15.73598
G1 X131.796 Y112.925 E15.78643
G1 X131.725 Y113.415 E15.80948
G1 X131.531 Y114.482 E15.85998
G1 X131.421 Y114.982 E15.88382
G1 X131.15 Y116.03 E15.93422
G1 X131.005 Y116.517 E15.95788
G1 X130.659 Y117.542 E16.00826
G1 X130.479 Y118.018 E16.03195
G1 X130.059 Y119.016 E16.08237
G1 X129.854 Y119.46 E16.10514
G1 X129.365 Y120.427 E16.1556
G1 X129.11 Y120.888 E16.18013
G1 X128.55 Y121.815 E16.23056
G1 X128.284 Y122.221 E16.25316
G1 X127.661 Y123.107 E16.3036
G1 X127.343 Y123.526 E16.32809
G1 X126.655 Y124.363 E16.37854
G1 X126.331 Y124.73 E16.40134
G1 X125.586 Y125.517 E16.4518
G1 X125.22 Y125.876 E16.47567
G1 X124.421 Y126.605 E16.52604
G1 X124.04 Y126.928 E16.54929
G1 X123.19 Y127.599 E16.59972
G1 X122.778 Y127.901 E16.62351
G1 X121.88 Y128.509 E16.674
G1 X121.457 Y128.774 E16.69725
G1 X120.519 Y129.316 E16.74769
G1 X120.067 Y129.556 E16.77152
G1 X119.094 Y130.027 E16.82186
G1 X118.629 Y130.231 E16.8455
G1 X117.62 Y130.632 E16.89606
G1 X117.148 Y130.801 E16.9194
G1 X116.115 Y131.128 E16.96986
G1 X115.634 Y131.261 E16.99309
G1 X114.583 Y131.513 E17.04342
G1 X114.075 Y131.615 E17.06755
G1 X113.005 Y131.789 E17.11803
G1 X112.514 Y131.851 E17.14107
G1 X111.434 Y131.949 E17.19157
G1 X110.93 Y131.977 E17.21507
G1 X109.849 Y131.997 E17.26542
G1 X109.339 Y131.988 E17.28917
G1 X108.258 Y131.929 E17.33958
G1 X107.748 Y131.882 E17.36343
G1 X106.673 Y131.744 E17.41389
G1 X106.189 Y131.665 E17.43673
G1 X105.126 Y131.452 E17.48721
G1 X104.624 Y131.332 E17.51124
G1 X103.582 Y131.042 E17.56161
G1 X103.101 Y130.889 E17.58511
G1 X102.081 Y130.524 E17.63556
G1 X101.615 Y130.338 E17.65892
G1 X100.624 Y129.901 E17.70935
G1 X100.164 Y129.678 E17.73316
G1 X99.206 Y129.169 E17.78367
G1 X98.771 Y128.918 E17.80706
G1 X97.854 Y128.343 E17.85745
G1 X97.442 Y128.063 E17.88065
G1 X96.568 Y127.424 E17.93106
G1 X96.163 Y127.104 E17.9551
G1 X95.338 Y126.402 E18.00554
G1 X94.966 Y126.063 E18.02898
G1 X94.193 Y125.303 E18.07945
G1 X93.847 Y124.937 E18.1029
G1 X93.132 Y124.125 E18.15328
G1 X92.812 Y123.734 E18.17681
G1 X92.157 Y122.872 E18.22722
G1 X91.862 Y122.453 E18.25108
G1 X91.271 Y121.544 E18.30157
G1 X91.018 Y121.122 E18.32448
G1 X90.493 Y120.175 E18.3749
G1 X90.26 Y119.716 E18.39887
G1 X89.807 Y118.735 E18.44918
G1 X89.612 Y118.269 E18.47271
G1 X89.229 Y117.253 E18.52326
G1 X89.067 Y116.771 E18.54694
G1 X88.76 Y115.734 E18.5973
G1 X88.637 Y115.259 E18.62015
G1 X88.404 Y114.206 E18.67037
G1 X88.311 Y113.697 E18.69446
G1 X88.155 Y112.619 E18.74518
G1 X88.101 Y112.124 E18.76836
G1 X88.023 Y111.051 E18.81846
G1 X88.005 Y110.543 E18.84213
G1 X88.005 Y109.453 E18.89288
G1 X88.023 Y108.948 E18.91641
G1 X88.101 Y107.869 E18.96679
G1 X88.157 Y107.361 E18.99059
G1 X88.314 Y106.288 E19.04108
G1 X88.405 Y105.789 E19.0647
