;FLAVOR:Marlin
;TIME:8393
;Filament used: 7.4246m
;Layer height: 0.28
;MINX:67.659
;MINY:57.745
;MINZ:0.28
;MAXX:152.341
;MAXY:162.255
;MAXZ:8.4
;Generated with Cura_SteamEngine 5.2.0
M82 ;absolute extrusion mode
; Ender 3 Custom Start G-code
G92 E0 ; Reset Extruder
G28 ; Home all axes
M104 S175 ; Start heating up the nozzle most of the way
M190 S60 ; Start heating the bed, wait until target temperature reached
M109 S200 ; Finish heating the nozzle
G1 Z2.0 F3000 ; Move Z Axis up little to prevent scratching of Heat Bed
G1 X0.1 Y20 Z0.3 F5000.0 ; Move to start position
G1 X0.1 Y200.0 Z0.3 F1500.0 E15 ; Draw the first line
G1 X0.4 Y200.0 Z0.3 F5000.0 ; Move to side a little
G1 X0.4 Y20 Z0.3 F1500.0 E30 ; Draw the second line
G92 E0 ; Reset Extruder
G1 Z2.0 F3000 ; Move Z Axis up little to prevent scratching of Heat Bed
G1 X5 Y20 Z0.3 F5000.0 ; Move over to prevent blob squish
G92 E0
G92 E0
G1 F1500 E-6.5
;LAYER_COUNT:30
;LAYER:0
M107
G0 F6000 X70.225 Y61.703 Z0.28
;TYPE:SKIRT
G1 F1500 E0
G1 F1200 X70.857 Y61.009 E0.04371
G1 X71.545 Y60.372 E0.08737
G1 X72.285 Y59.796 E0.13103
G1 X73.071 Y59.284 E0.17471
G1 X73.898 Y58.842 E0.21838
G1 X74.76 Y58.472 E0.26205
G1 X75.65 Y58.176 E0.30573
G1 X76.562 Y57.958 E0.34939
G1 X77.489 Y57.817 E0.39305
G1 X78.36 Y57.758 E0.4337
G1 X78.989 Y57.745 E0.463
G1 X140.792 Y57.746 E3.34081
G1 X141.49 Y57.756 E3.37331
G1 X142.426 Y57.81 E3.41697
G1 X143.354 Y57.942 E3.46061
G1 X144.268 Y58.154 E3.5043
G1 X145.16 Y58.443 E3.54796
G1 X146.025 Y58.806 E3.59164
G1 X146.855 Y59.242 E3.6353
G1 X147.646 Y59.747 E3.679
G1 X148.39 Y60.318 E3.72267
G1 X149.083 Y60.95 E3.76634
G1 X149.72 Y61.638 E3.81
G1 X150.295 Y62.379 E3.85368
G1 X150.806 Y63.165 E3.89733
G1 X151.248 Y63.993 E3.94103
G1 X151.617 Y64.855 E3.9847
G1 X151.912 Y65.745 E4.02836
G1 X152.13 Y66.657 E4.07202
G1 X152.27 Y67.585 E4.11572
G1 X152.328 Y68.446 E4.1559
G1 X152.341 Y69.075 E4.1852
G1 X152.34 Y150.655 E7.9839
G1 X152.331 Y151.382 E8.01776
G1 X152.28 Y152.319 E8.06145
G1 X152.148 Y153.247 E8.1051
G1 X151.939 Y154.161 E8.14876
G1 X151.652 Y155.054 E8.19243
G1 X151.29 Y155.92 E8.23614
G1 X150.856 Y156.751 E8.27979
G1 X150.352 Y157.542 E8.32347
G1 X149.783 Y158.287 E8.36712
G1 X149.152 Y158.982 E8.41083
G1 X148.465 Y159.62 E8.45449
G1 X147.726 Y160.197 E8.49814
G1 X146.94 Y160.709 E8.54182
G1 X146.114 Y161.152 E8.58547
G1 X145.252 Y161.524 E8.62918
G1 X144.363 Y161.82 E8.67281
G1 X143.451 Y162.04 E8.7165
G1 X142.524 Y162.181 E8.76016
G1 X141.64 Y162.242 E8.80142
G1 X141.011 Y162.255 E8.83072
G1 X79.224 Y162.254 E11.70778
G1 X78.526 Y162.245 E11.74028
G1 X77.59 Y162.193 E11.78393
G1 X76.661 Y162.061 E11.82763
G1 X75.747 Y161.851 E11.87129
G1 X74.854 Y161.564 E11.91497
G1 X73.989 Y161.201 E11.95865
G1 X73.158 Y160.767 E12.00231
G1 X72.367 Y160.263 E12.04598
G1 X71.622 Y159.693 E12.08966
G1 X70.928 Y159.062 E12.13333
G1 X70.291 Y158.375 E12.17696
G1 X69.714 Y157.635 E12.22065
G1 X69.202 Y156.849 E12.26433
G1 X68.759 Y156.022 E12.30802
G1 X68.388 Y155.161 E12.35167
G1 X68.092 Y154.271 E12.39535
G1 X67.873 Y153.359 E12.43902
G1 X67.732 Y152.432 E12.48268
G1 X67.672 Y151.543 E12.52417
G1 X67.659 Y150.913 E12.55352
G1 X67.66 Y69.27 E16.35516
G1 X67.669 Y68.605 E16.38612
G1 X67.722 Y67.669 E16.42978
G1 X67.854 Y66.74 E16.47347
G1 X68.065 Y65.826 E16.51715
G1 X68.353 Y64.934 E16.5608
G1 X68.716 Y64.069 E16.60448
G1 X69.151 Y63.238 E16.64815
G1 X69.655 Y62.448 E16.69179
G1 X70.225 Y61.703 E16.73547
G0 F6000 X70.62 Y61.856
G1 F1200 X71.248 Y61.184 E16.77829
G1 X71.933 Y60.568 E16.82119
G1 X72.669 Y60.015 E16.86406
G1 X73.45 Y59.527 E16.90694
G1 X74.27 Y59.109 E16.9498
G1 X75.124 Y58.764 E16.99269
G1 X76.004 Y58.494 E17.03555
G1 X76.904 Y58.302 E17.0784
G1 X77.818 Y58.188 E17.12129
G1 X78.371 Y58.158 E17.14708
G1 X78.989 Y58.145 E17.17586
G1 X140.786 Y58.146 E20.05339
G1 X141.484 Y58.156 E20.08589
G1 X142.403 Y58.209 E20.12875
G1 X143.314 Y58.342 E20.17162
G1 X144.21 Y58.553 E20.21449
G1 X145.084 Y58.841 E20.25734
G1 X145.931 Y59.204 E20.30025
G1 X146.742 Y59.639 E20.3431
G1 X147.512 Y60.143 E20.38595
G1 X148.236 Y60.712 E20.42883
G1 X148.908 Y61.342 E20.47172
G1 X149.523 Y62.027 E20.51459
G1 X150.076 Y62.763 E20.55745
G1 X150.563 Y63.544 E20.60031
G1 X150.98 Y64.365 E20.64319
G1 X151.325 Y65.219 E20.68608
G1 X151.594 Y66.099 E20.72892
G1 X151.786 Y67 E20.77182
G1 X151.899 Y67.913 E20.81466
G1 X151.928 Y68.457 E20.84003
G1 X151.941 Y69.075 E20.86881
G1 X151.94 Y150.65 E24.66728
G1 X151.931 Y151.377 E24.70114
G1 X151.88 Y152.296 E24.74399
G1 X151.749 Y153.208 E24.7869
G1 X151.539 Y154.104 E24.82975
G1 X151.253 Y154.979 E24.87261
G1 X150.892 Y155.826 E24.91549
G1 X150.458 Y156.638 E24.95836
G1 X149.956 Y157.41 E25.00124
G1 X149.388 Y158.135 E25.04412
G1 X148.76 Y158.808 E25.08699
G1 X148.076 Y159.424 E25.12985
G1 X147.341 Y159.978 E25.17271
G1 X146.561 Y160.467 E25.21557
G1 X145.741 Y160.886 E25.25845
G1 X144.888 Y161.232 E25.30131
G1 X144.008 Y161.503 E25.34419
G1 X143.108 Y161.696 E25.38705
G1 X142.194 Y161.811 E25.42995
G1 X141.629 Y161.842 E25.45629
G1 X141.011 Y161.855 E25.48508
G1 X79.229 Y161.854 E28.36191
G1 X78.531 Y161.845 E28.39441
G1 X77.612 Y161.793 E28.43727
G1 X76.701 Y161.662 E28.48013
G1 X75.805 Y161.452 E28.52298
G1 X74.93 Y161.165 E28.56586
G1 X74.083 Y160.803 E28.60875
G1 X73.271 Y160.369 E28.65162
G1 X72.5 Y159.867 E28.69446
G1 X71.775 Y159.299 E28.73735
G1 X71.102 Y158.67 E28.78024
G1 X70.487 Y157.986 E28.82307
G1 X69.933 Y157.251 E28.86593
G1 X69.445 Y156.47 E28.90881
G1 X69.026 Y155.65 E28.95169
G1 X68.68 Y154.797 E28.99455
G1 X68.41 Y153.917 E29.03742
G1 X68.217 Y153.016 E29.08032
G1 X68.103 Y152.103 E29.12316
G1 X68.072 Y151.532 E29.14979
G1 X68.059 Y150.913 E29.17862
G1 X68.06 Y69.276 E32.97998
G1 X68.069 Y68.611 E33.01095
G1 X68.121 Y67.691 E33.05386
G1 X68.253 Y66.78 E33.09672
G1 X68.464 Y65.884 E33.13958
G1 X68.751 Y65.009 E33.18246
G1 X69.114 Y64.163 E33.22533
G1 X69.548 Y63.351 E33.2682
G1 X70.051 Y62.58 E33.31107
G1 X70.62 Y61.856 E33.35395
G0 F6000 X71.014 Y62.012
G1 F1200 X71.64 Y61.362 E33.39597
G1 X72.321 Y60.769 E33.43801
G1 X73.053 Y60.239 E33.48009
G1 X73.828 Y59.776 E33.52213
G1 X74.641 Y59.383 E33.56418
G1 X75.486 Y59.063 E33.60625
G1 X76.355 Y58.82 E33.64827
G1 X77.243 Y58.654 E33.69033
G1 X78.382 Y58.558 E33.74356
G1 X78.989 Y58.545 E33.77183
G1 X140.78 Y58.546 E36.64908
G1 X141.478 Y58.556 E36.68158
G1 X142.38 Y58.609 E36.72366
G1 X143.273 Y58.741 E36.76569
G1 X144.151 Y58.952 E36.80774
G1 X145.007 Y59.24 E36.84979
G1 X145.834 Y59.602 E36.89183
G1 X146.626 Y60.037 E36.9339
G1 X147.377 Y60.539 E36.97597
G1 X148.08 Y61.106 E37.01802
G1 X148.73 Y61.733 E37.06007
G1 X149.322 Y62.415 E37.10213
G1 X149.852 Y63.146 E37.14417
G1 X150.314 Y63.922 E37.18622
G1 X150.707 Y64.735 E37.22827
G1 X151.025 Y65.58 E37.27031
G1 X151.268 Y66.45 E37.31237
G1 X151.433 Y67.338 E37.35443
G1 X151.528 Y68.468 E37.40723
G1 X151.541 Y69.075 E37.4355
G1 X151.54 Y150.645 E41.23374
G1 X151.531 Y151.372 E41.2676
G1 X151.48 Y152.274 E41.30967
G1 X151.349 Y153.168 E41.35174
G1 X151.14 Y154.046 E41.39377
G1 X150.854 Y154.903 E41.43584
G1 X150.493 Y155.731 E41.4779
G1 X150.061 Y156.523 E41.5199
G1 X149.56 Y157.275 E41.56198
G1 X148.994 Y157.979 E41.60404
G1 X148.369 Y158.63 E41.64606
G1 X147.688 Y159.224 E41.68814
G1 X146.957 Y159.755 E41.73021
G1 X146.183 Y160.219 E41.77223
G1 X145.37 Y160.613 E41.8143
G1 X144.526 Y160.933 E41.85633
G1 X143.656 Y161.178 E41.89842
G1 X142.769 Y161.344 E41.94044
G1 X141.618 Y161.442 E41.99423
G1 X141.011 Y161.455 E42.0225
G1 X79.234 Y161.454 E44.89909
G1 X78.536 Y161.445 E44.9316
G1 X77.635 Y161.394 E44.97362
G1 X76.741 Y161.262 E45.0157
G1 X75.863 Y161.053 E45.05772
G1 X75.006 Y160.766 E45.09981
G1 X74.179 Y160.405 E45.14183
G1 X73.386 Y159.972 E45.1839
G1 X72.635 Y159.471 E45.22593
G1 X71.931 Y158.905 E45.268
G1 X71.28 Y158.279 E45.31005
G1 X70.687 Y157.598 E45.3521
G1 X70.157 Y156.867 E45.39414
G1 X69.693 Y156.092 E45.4362
G1 X69.299 Y155.279 E45.47827
G1 X68.979 Y154.435 E45.5203
G1 X68.735 Y153.565 E45.56237
G1 X68.569 Y152.677 E45.60444
G1 X68.472 Y151.522 E45.65841
G1 X68.459 Y150.913 E45.68677
G1 X68.46 Y69.281 E49.4879
G1 X68.469 Y68.616 E49.51887
G1 X68.521 Y67.714 E49.56094
G1 X68.653 Y66.821 E49.60298
G1 X68.863 Y65.943 E49.64501
G1 X69.15 Y65.086 E49.6871
G1 X69.512 Y64.259 E49.72913
G1 X69.945 Y63.467 E49.77116
G1 X70.447 Y62.716 E49.81322
G1 X71.014 Y62.012 E49.85532
G1 F1500 E43.35532
;MESH:mold-of-mold.stl
G0 F6000 X77.994 Y69.165
G0 X79.259 Y150.655
;TYPE:WALL-INNER
G1 F1500 E49.85532
G1 F1200 X140.741 Y150.655 E52.71818
G1 X140.741 Y100.086 E55.07288
G1 X140.741 Y69.345 E56.50431
G1 X79.259 Y69.345 E59.36717
G1 X79.259 Y150.655 E63.1533
G0 F6000 X78.859 Y151.055
;TYPE:WALL-OUTER
G1 F1200 X141.141 Y151.055 E66.05341
G1 X141.141 Y100.086 E68.42674
G1 X141.141 Y68.945 E69.8768
G1 X78.859 Y68.945 E72.77691
G1 X78.859 Y151.055 E76.6003
G0 F6000 X79.129 Y150.785
G0 X79.359 Y150.295
G0 X79.619 Y150.295
;TYPE:SKIN
G1 F1200 X140.381 Y150.295 E79.42963
G1 X140.381 Y100.086 E81.76757
G1 X140.381 Y69.705 E83.18224
G1 X79.619 Y69.705 E86.01157
G1 X79.619 Y150.295 E89.76418
G0 F6000 X79.949 Y150.094
G1 F1200 X79.818 Y149.963 E89.77281
G0 F6000 X79.818 Y149.397
G1 F1200 X80.514 Y150.094 E89.81867
G0 F6000 X81.08 Y150.094
G1 F1200 X79.818 Y148.831 E89.90181
G0 F6000 X79.818 Y148.266
G1 F1200 X81.646 Y150.094 E90.02219
G0 F6000 X82.211 Y150.094
G1 F1200 X79.818 Y147.7 E90.1798
G0 F6000 X79.818 Y147.134
G1 F1200 X82.777 Y150.094 E90.37469
G0 F6000 X83.343 Y150.094
G1 F1200 X79.818 Y146.569 E90.60682
G0 F6000 X79.818 Y146.003
G1 F1200 X83.908 Y150.094 E90.87618
G0 F6000 X84.474 Y150.094
G1 F1200 X79.818 Y145.437 E91.18282
G0 F6000 X79.818 Y144.872
G1 F1200 X85.04 Y150.094 E91.5267
G0 F6000 X85.605 Y150.094
G1 F1200 X79.818 Y144.306 E91.90782
G0 F6000 X79.818 Y143.74
G1 F1200 X86.171 Y150.094 E92.32621
G0 F6000 X86.737 Y150.094
G1 F1200 X79.818 Y143.174 E92.78187
G0 F6000 X79.818 Y142.609
G1 F1200 X87.302 Y150.094 E93.27473
G0 F6000 X87.868 Y150.094
G1 F1200 X79.818 Y142.043 E93.80487
G0 F6000 X79.818 Y141.477
G1 F1200 X88.434 Y150.094 E94.37228
G0 F6000 X88.999 Y150.094
G1 F1200 X79.818 Y140.912 E94.9769
G0 F6000 X79.818 Y140.346
G1 F1200 X89.565 Y150.094 E95.61879
G0 F6000 X90.131 Y150.094
G1 F1200 X79.818 Y139.78 E96.29795
G0 F6000 X79.818 Y139.215
G1 F1200 X90.697 Y150.094 E97.01435
G0 F6000 X91.262 Y150.094
G1 F1200 X79.818 Y138.649 E97.76799
G0 F6000 X79.818 Y138.083
G1 F1200 X91.828 Y150.094 E98.5589
G0 F6000 X92.394 Y150.094
G1 F1200 X79.818 Y137.518 E99.38706
G0 F6000 X79.818 Y136.952
G1 F1200 X92.959 Y150.094 E100.25245
G0 F6000 X93.525 Y150.094
G1 F1200 X79.818 Y136.386 E101.15511
G0 F6000 X79.818 Y135.821
G1 F1200 X94.091 Y150.094 E102.09501
G0 F6000 X94.656 Y150.094
G1 F1200 X79.818 Y135.255 E103.07215
G0 F6000 X79.818 Y134.689
G1 F1200 X95.222 Y150.094 E104.08656
G0 F6000 X95.788 Y150.094
G1 F1200 X79.818 Y134.124 E105.13821
G0 F6000 X79.818 Y133.558
G1 F1200 X96.353 Y150.094 E106.22711
G0 F6000 X96.919 Y150.094
G1 F1200 X79.818 Y132.992 E107.35327
G0 F6000 X79.818 Y132.426
G1 F1200 X97.485 Y150.094 E108.5167
G0 F6000 X98.05 Y150.094
G1 F1200 X79.818 Y131.861 E109.71735
G0 F6000 X79.818 Y131.295
G1 F1200 X98.616 Y150.094 E110.95526
G0 F6000 X99.182 Y150.094
G1 F1200 X79.818 Y130.729 E112.23044
G0 F6000 X79.818 Y130.164
G1 F1200 X99.748 Y150.094 E113.54287
G0 F6000 X100.313 Y150.094
G1 F1200 X79.818 Y129.598 E114.89253
G0 F6000 X79.818 Y129.032
G1 F1200 X100.879 Y150.094 E116.27947
G0 F6000 X101.445 Y150.094
G1 F1200 X79.818 Y128.467 E117.70364
G0 F6000 X79.818 Y127.901
G1 F1200 X102.01 Y150.094 E119.16506
G0 F6000 X102.576 Y150.094
G1 F1200 X79.818 Y127.335 E120.66374
G0 F6000 X79.818 Y126.77
G1 F1200 X103.142 Y150.094 E122.19967
G0 F6000 X103.707 Y150.094
G1 F1200 X79.818 Y126.204 E123.77283
G0 F6000 X79.818 Y125.638
G1 F1200 X104.273 Y150.094 E125.38327
G0 F6000 X104.839 Y150.094
G1 F1200 X79.818 Y125.073 E127.03094
G0 F6000 X79.818 Y124.507
G1 F1200 X105.404 Y150.094 E128.71586
G0 F6000 X105.97 Y150.094
G1 F1200 X79.818 Y123.941 E130.43805
G0 F6000 X79.818 Y123.375
G1 F1200 X106.536 Y150.094 E132.1975
G0 F6000 X107.101 Y150.094
G1 F1200 X79.818 Y122.81 E133.99417
G0 F6000 X79.818 Y122.244
G1 F1200 X107.667 Y150.094 E135.82811
G0 F6000 X108.233 Y150.094
G1 F1200 X79.818 Y121.678 E137.69932
G0 F6000 X79.818 Y121.113
G1 F1200 X108.798 Y150.094 E139.60773
G0 F6000 X109.364 Y150.094
G1 F1200 X79.818 Y120.547 E141.55342
G0 F6000 X79.818 Y119.981
G1 F1200 X109.93 Y150.094 E143.53638
G0 F6000 X110.496 Y150.094
G1 F1200 X79.818 Y119.416 E145.55658
G0 F6000 X79.818 Y118.85
G1 F1200 X111.061 Y150.094 E147.61402
G0 F6000 X111.627 Y150.094
G1 F1200 X79.818 Y118.284 E149.70872
G0 F6000 X79.818 Y117.719
G1 F1200 X112.193 Y150.094 E151.84067
G0 F6000 X112.758 Y150.094
G1 F1200 X79.818 Y117.153 E154.00986
G0 F6000 X79.818 Y116.587
G1 F1200 X113.324 Y150.094 E156.21632
G0 F6000 X113.89 Y150.094
G1 F1200 X79.818 Y116.022 E158.46002
G0 F6000 X79.818 Y115.456
G1 F1200 X114.455 Y150.094 E160.74096
G0 F6000 X115.021 Y150.094
G1 F1200 X79.818 Y114.89 E163.05917
G0 F6000 X79.818 Y114.325
G1 F1200 X115.587 Y150.094 E165.41462
G0 F6000 X116.152 Y150.094
G1 F1200 X79.818 Y113.759 E167.80731
G0 F6000 X79.818 Y113.193
G1 F1200 X116.718 Y150.094 E170.23727
G0 F6000 X117.284 Y150.094
G1 F1200 X79.818 Y112.627 E172.7045
G0 F6000 X79.818 Y112.062
G1 F1200 X117.849 Y150.094 E175.20894
G0 F6000 X118.415 Y150.094
G1 F1200 X79.818 Y111.496 E177.75065
G0 F6000 X79.818 Y110.93
G1 F1200 X118.981 Y150.094 E180.32964
G0 F6000 X119.547 Y150.094
G1 F1200 X79.818 Y110.365 E182.94586
G0 F6000 X79.818 Y109.799
G1 F1200 X120.112 Y150.094 E185.59932
G0 F6000 X120.678 Y150.094
G1 F1200 X79.818 Y109.233 E188.29006
G0 F6000 X79.818 Y108.668
G1 F1200 X121.244 Y150.094 E191.01803
G0 F6000 X121.809 Y150.094
G1 F1200 X79.818 Y108.102 E193.78324
G0 F6000 X79.818 Y107.536
G1 F1200 X122.375 Y150.094 E196.58572
G0 F6000 X122.941 Y150.094
G1 F1200 X79.818 Y106.971 E199.42545
G0 F6000 X79.818 Y106.405
G1 F1200 X123.506 Y150.094 E202.30241
G0 F6000 X124.072 Y150.094
G1 F1200 X79.818 Y105.839 E205.21664
G0 F6000 X79.818 Y105.274
G1 F1200 X124.638 Y150.094 E208.16812
G0 F6000 X125.203 Y150.094
G1 F1200 X79.818 Y104.708 E211.15683
G0 F6000 X79.818 Y104.142
G1 F1200 X125.769 Y150.094 E214.18281
G0 F6000 X126.335 Y150.094
G1 F1200 X79.818 Y103.577 E217.24604
G0 F6000 X79.818 Y103.011
G1 F1200 X126.9 Y150.094 E220.3465
G0 F6000 X127.466 Y150.094
G1 F1200 X79.818 Y102.445 E223.48424
G0 F6000 X79.818 Y101.879
G1 F1200 X128.032 Y150.094 E226.65924
G0 F6000 X128.597 Y150.094
G1 F1200 X79.818 Y101.314 E229.87146
G0 F6000 X79.818 Y100.748
G1 F1200 X129.163 Y150.094 E233.12094
G0 F6000 X129.729 Y150.094
G1 F1200 X79.818 Y100.182 E236.4077
G0 F6000 X79.818 Y99.617
G1 F1200 X130.295 Y150.094 E239.7317
G0 F6000 X130.86 Y150.094
G1 F1200 X79.818 Y99.051 E243.09293
G0 F6000 X79.818 Y98.485
G1 F1200 X131.426 Y150.094 E246.49144
G0 F6000 X131.992 Y150.094
G1 F1200 X79.818 Y97.92 E249.92719
G0 F6000 X79.818 Y97.354
G1 F1200 X132.557 Y150.094 E253.40017
G0 F6000 X133.123 Y150.094
G1 F1200 X79.818 Y96.788 E256.91043
G0 F6000 X79.818 Y96.223
G1 F1200 X133.689 Y150.094 E260.45793
G0 F6000 X134.254 Y150.094
G1 F1200 X79.818 Y95.657 E264.04267
G0 F6000 X79.818 Y95.091
G1 F1200 X134.82 Y150.094 E267.66467
G0 F6000 X135.386 Y150.094
G1 F1200 X79.818 Y94.526 E271.32392
G0 F6000 X79.818 Y93.96
G1 F1200 X135.951 Y150.094 E275.02041
G0 F6000 X136.517 Y150.094
G1 F1200 X79.818 Y93.394 E278.75417
G0 F6000 X79.818 Y92.828
G1 F1200 X137.083 Y150.094 E282.5252
G0 F6000 X137.648 Y150.094
G1 F1200 X79.818 Y92.263 E286.33344
G0 F6000 X79.818 Y91.697
G1 F1200 X138.214 Y150.094 E290.17895
G0 F6000 X138.78 Y150.094
G1 F1200 X79.818 Y91.131 E294.06173
G0 F6000 X79.818 Y90.566
G1 F1200 X139.345 Y150.094 E297.98171
G0 F6000 X139.911 Y150.094
G1 F1200 X79.818 Y90 E301.93897
G0 F6000 X79.818 Y89.434
G1 F1200 X140.181 Y149.797 E305.91398
G0 F6000 X140.181 Y149.232
G1 F1200 X79.818 Y88.869 E309.88899
G0 F6000 X79.818 Y88.303
G1 F1200 X140.181 Y148.666 E313.86399
