;FLAVOR:Marlin
;TIME:2280
;Filament used: 0.739598m
;Layer height: 0.16
;MINX:91.636
;MINY:91.636
;MINZ:0.2
;MAXX:128.364
;MAXY:128.364
;MAXZ:26.96
;Generated with Cura_SteamEngine 5.2.0
M82 ;absolute extrusion mode
; Ender 3 Custom Start G-code
G92 E0 ; Reset Extruder
G28 ; Home all axes
M104 S175 ; Start heating up the nozzle most of the way
M190 S60 ; Start heating the bed, wait until target temperature reached
M109 S200 ; Finish heating the nozzle
G1 Z2.0 F3000 ; Move Z Axis up little to prevent scratching of Heat Bed
G1 X0.1 Y20 Z0.3 F5000.0 ; Move to start position
G1 X0.1 Y200.0 Z0.3 F1500.0 E15 ; Draw the first line
G1 X0.4 Y200.0 Z0.3 F5000.0 ; Move to side a little
G1 X0.4 Y20 Z0.3 F1500.0 E30 ; Draw the second line
G92 E0 ; Reset Extruder
G1 Z2.0 F3000 ; Move Z Axis up little to prevent scratching of Heat Bed
G1 X5 Y20 Z0.3 F5000.0 ; Move over to prevent blob squish
G92 E0
G92 E0
G1 F1500 E-6.5
;LAYER_COUNT:155
;LAYER:0
M107
G0 F6000 X97.05 Y96.974 Z0.2
;TYPE:SKIRT
G1 F1500 E0
G1 F1200 X97.811 Y96.259 E0.03473
G1 X98.335 Y95.812 E0.05764
G1 X99.13 Y95.194 E0.09113
G1 X99.691 Y94.798 E0.11397
G1 X100.548 Y94.252 E0.14777
G1 X101.13 Y93.917 E0.1701
G1 X102.022 Y93.456 E0.2035
G1 X102.644 Y93.17 E0.22627
G1 X103.601 Y92.783 E0.2606
G1 X104.223 Y92.565 E0.28252
G1 X105.19 Y92.275 E0.3161
G1 X105.889 Y92.1 E0.34007
G1 X106.907 Y91.896 E0.3746
G1 X107.578 Y91.794 E0.39717
G1 X108.57 Y91.689 E0.43035
G1 X109.218 Y91.65 E0.45194
G1 X110.233 Y91.636 E0.48571
G1 X110.948 Y91.659 E0.5095
G1 X111.956 Y91.738 E0.54313
G1 X112.605 Y91.819 E0.56488
G1 X113.633 Y91.997 E0.59958
G1 X114.325 Y92.151 E0.62316
G1 X115.271 Y92.406 E0.65575
G1 X115.912 Y92.61 E0.67812
G1 X116.891 Y92.974 E0.71286
G1 X117.496 Y93.232 E0.73474
G1 X118.4 Y93.667 E0.7681
G1 X119.016 Y93.999 E0.79138
G1 X119.891 Y94.525 E0.82533
G1 X120.465 Y94.907 E0.84827
G1 X121.281 Y95.505 E0.88191
G1 X121.8 Y95.924 E0.9041
G1 X122.544 Y96.583 E0.93716
G1 X123.026 Y97.05 E0.95948
G1 X123.741 Y97.811 E0.99421
G1 X124.188 Y98.335 E1.01712
G1 X124.799 Y99.122 E1.05025
G1 X125.193 Y99.679 E1.07295
G1 X125.745 Y100.542 E1.10702
G1 X126.079 Y101.122 E1.12928
G1 X126.54 Y102.012 E1.16262
G1 X126.829 Y102.64 E1.18561
G1 X127.217 Y103.601 E1.22008
G1 X127.435 Y104.223 E1.242
G1 X127.725 Y105.19 E1.27558
G1 X127.9 Y105.889 E1.29955
G1 X128.103 Y106.902 E1.33391
G1 X128.205 Y107.571 E1.35642
G1 X128.311 Y108.569 E1.3898
G1 X128.35 Y109.218 E1.41142
G1 X128.364 Y110.231 E1.44512
G1 X128.341 Y110.947 E1.46894
G1 X128.262 Y111.956 E1.50261
G1 X128.181 Y112.605 E1.52436
G1 X128.005 Y113.624 E1.55875
G1 X127.852 Y114.314 E1.58226
G1 X127.595 Y115.269 E1.61515
G1 X127.391 Y115.91 E1.63753
G1 X127.026 Y116.891 E1.67234
G1 X126.767 Y117.498 E1.69429
G1 X126.335 Y118.397 E1.72746
G1 X126.007 Y119.006 E1.75047
G1 X125.484 Y119.877 E1.78426
G1 X125.098 Y120.458 E1.80746
G1 X124.495 Y121.281 E1.8414
G1 X124.076 Y121.8 E1.86358
G1 X123.418 Y122.543 E1.89659
G1 X122.954 Y123.022 E1.91877
G1 X122.196 Y123.734 E1.95336
G1 X121.669 Y124.184 E1.97641
G1 X120.87 Y124.806 E2.01009
G1 X120.309 Y125.202 E2.03293
G1 X119.452 Y125.748 E2.06672
G1 X118.87 Y126.083 E2.08906
G1 X117.978 Y126.544 E2.12246
G1 X117.356 Y126.83 E2.14523
G1 X116.399 Y127.217 E2.17956
G1 X115.777 Y127.435 E2.20148
G1 X114.81 Y127.725 E2.23506
G1 X114.111 Y127.9 E2.25903
G1 X113.093 Y128.104 E2.29356
G1 X112.422 Y128.206 E2.31613
G1 X111.43 Y128.311 E2.34931
G1 X110.782 Y128.35 E2.3709
G1 X109.767 Y128.364 E2.40466
G1 X109.052 Y128.341 E2.42846
G1 X108.044 Y128.262 E2.46209
G1 X107.395 Y128.181 E2.48384
G1 X106.367 Y128.003 E2.51854
G1 X105.675 Y127.849 E2.54212
G1 X104.729 Y127.594 E2.57471
G1 X104.088 Y127.39 E2.59708
G1 X103.109 Y127.026 E2.63182
G1 X102.504 Y126.768 E2.65369
G1 X101.601 Y126.334 E2.68702
G1 X100.983 Y126.001 E2.71037
G1 X100.099 Y125.47 E2.74466
G1 X99.526 Y125.088 E2.76757
G1 X98.716 Y124.492 E2.80102
G1 X98.196 Y124.072 E2.82325
G1 X97.454 Y123.415 E2.85621
G1 X96.973 Y122.949 E2.87849
G1 X96.255 Y122.184 E2.91338
G1 X95.805 Y121.656 E2.93646
G1 X95.188 Y120.861 E2.96993
G1 X94.793 Y120.301 E2.99272
G1 X94.242 Y119.438 E3.02678
G1 X93.909 Y118.858 E3.04902
G1 X93.454 Y117.975 E3.08206
G1 X93.169 Y117.355 E3.10475
G1 X92.783 Y116.399 E3.13904
G1 X92.565 Y115.777 E3.16097
G1 X92.276 Y114.814 E3.19441
G1 X92.1 Y114.112 E3.21848
G1 X91.894 Y113.081 E3.25345
G1 X91.793 Y112.413 E3.27592
G1 X91.689 Y111.431 E3.30876
G1 X91.65 Y110.784 E3.33032
G1 X91.636 Y109.769 E3.36408
G1 X91.659 Y109.053 E3.38791
G1 X91.738 Y108.044 E3.42157
G1 X91.819 Y107.395 E3.44332
G1 X91.995 Y106.376 E3.47772
G1 X92.148 Y105.686 E3.50122
G1 X92.405 Y104.731 E3.53412
G1 X92.609 Y104.09 E3.55649
G1 X92.974 Y103.109 E3.59131
G1 X93.233 Y102.502 E3.61325
G1 X93.667 Y101.6 E3.64655
G1 X93.999 Y100.984 E3.66982
G1 X94.525 Y100.109 E3.70378
G1 X94.907 Y99.535 E3.72671
G1 X95.505 Y98.719 E3.76036
G1 X95.924 Y98.2 E3.78254
G1 X96.583 Y97.456 E3.8156
G1 X97.05 Y96.974 E3.83792
G0 F6000 X97.337 Y97.252
G1 F1200 X98.071 Y96.564 E3.87138
G1 X98.595 Y96.117 E3.89429
G1 X99.361 Y95.521 E3.92657
G1 X99.922 Y95.125 E3.94941
G1 X100.747 Y94.598 E3.98197
G1 X101.329 Y94.263 E4.00431
G1 X102.189 Y93.819 E4.0365
G1 X102.811 Y93.533 E4.05927
G1 X103.733 Y93.161 E4.09234
G1 X104.355 Y92.943 E4.11426
G1 X105.287 Y92.663 E4.14662
G1 X105.986 Y92.488 E4.17059
G1 X106.967 Y92.291 E4.20387
G1 X107.638 Y92.189 E4.22644
G1 X108.594 Y92.088 E4.25842
G1 X109.242 Y92.049 E4.28001
G1 X110.22 Y92.035 E4.31254
G1 X110.935 Y92.058 E4.33633
G1 X111.907 Y92.135 E4.36877
G1 X112.556 Y92.216 E4.39052
G1 X113.546 Y92.387 E4.42393
G1 X114.238 Y92.541 E4.44751
G1 X115.15 Y92.787 E4.47893
G1 X115.791 Y92.991 E4.5013
G1 X116.734 Y93.342 E4.53477
G1 X117.339 Y93.6 E4.55665
G1 X118.21 Y94.019 E4.58879
G1 X118.826 Y94.351 E4.61207
G1 X119.67 Y94.858 E4.64481
G1 X120.244 Y95.24 E4.66775
G1 X121.03 Y95.816 E4.70016
G1 X121.549 Y96.235 E4.72234
G1 X122.266 Y96.87 E4.7542
G1 X122.748 Y97.337 E4.77652
G1 X123.436 Y98.071 E4.80998
G1 X123.883 Y98.595 E4.83289
G1 X124.473 Y99.353 E4.86484
G1 X124.867 Y99.91 E4.88753
G1 X125.399 Y100.741 E4.92035
G1 X125.733 Y101.321 E4.94261
G1 X126.176 Y102.18 E4.97475
G1 X126.465 Y102.808 E4.99775
G1 X126.839 Y103.733 E5.03093
G1 X127.057 Y104.355 E5.05285
G1 X127.337 Y105.287 E5.08522
G1 X127.512 Y105.986 E5.10919
G1 X127.708 Y106.962 E5.1423
G1 X127.81 Y107.631 E5.16481
G1 X127.912 Y108.593 E5.19698
G1 X127.951 Y109.242 E5.21861
G1 X127.965 Y110.218 E5.25107
G1 X127.942 Y110.934 E5.2749
G1 X127.865 Y111.907 E5.30736
G1 X127.784 Y112.556 E5.32911
G1 X127.615 Y113.538 E5.36226
G1 X127.462 Y114.228 E5.38576
G1 X127.214 Y115.148 E5.41745
G1 X127.01 Y115.789 E5.43983
G1 X126.659 Y116.734 E5.47336
G1 X126.4 Y117.341 E5.49531
G1 X125.983 Y118.207 E5.52728
G1 X125.655 Y118.816 E5.55028
G1 X125.151 Y119.656 E5.58286
G1 X124.765 Y120.237 E5.60606
G1 X124.184 Y121.03 E5.63876
G1 X123.765 Y121.549 E5.66095
G1 X123.131 Y122.265 E5.69275
G1 X122.667 Y122.744 E5.71493
G1 X121.936 Y123.43 E5.74828
G1 X121.409 Y123.88 E5.77133
G1 X120.639 Y124.479 E5.80377
G1 X120.078 Y124.875 E5.82661
G1 X119.253 Y125.402 E5.85917
G1 X118.671 Y125.737 E5.88151
G1 X117.811 Y126.181 E5.9137
G1 X117.189 Y126.467 E5.93647
G1 X116.267 Y126.839 E5.96954
G1 X115.645 Y127.057 E5.99146
G1 X114.713 Y127.337 E6.02382
G1 X114.014 Y127.512 E6.04779
G1 X113.033 Y127.709 E6.08107
G1 X112.362 Y127.811 E6.10364
G1 X111.406 Y127.912 E6.13562
G1 X110.758 Y127.951 E6.15721
G1 X109.78 Y127.965 E6.18974
G1 X109.065 Y127.942 E6.21354
G1 X108.093 Y127.865 E6.24597
G1 X107.444 Y127.784 E6.26772
G1 X106.454 Y127.613 E6.30113
G1 X105.762 Y127.459 E6.32471
G1 X104.85 Y127.213 E6.35613
G1 X104.209 Y127.009 E6.3785
G1 X103.266 Y126.658 E6.41197
G1 X102.661 Y126.4 E6.43385
G1 X101.791 Y125.982 E6.46595
G1 X101.173 Y125.649 E6.4893
G1 X100.321 Y125.137 E6.52236
G1 X99.748 Y124.755 E6.54526
G1 X98.968 Y124.181 E6.57747
G1 X98.448 Y123.761 E6.59971
G1 X97.732 Y123.128 E6.63149
G1 X97.251 Y122.662 E6.65377
G1 X96.559 Y121.925 E6.68739
G1 X96.109 Y121.397 E6.71047
G1 X95.515 Y120.631 E6.74271
G1 X95.12 Y120.071 E6.7655
G1 X94.589 Y119.239 E6.79833
G1 X94.256 Y118.659 E6.82057
G1 X93.818 Y117.808 E6.8524
G1 X93.533 Y117.188 E6.8751
G1 X93.161 Y116.267 E6.90814
G1 X92.943 Y115.645 E6.93006
G1 X92.664 Y114.717 E6.96229
G1 X92.488 Y114.015 E6.98636
G1 X92.289 Y113.022 E7.02004
G1 X92.188 Y112.354 E7.04251
G1 X92.088 Y111.407 E7.07419
G1 X92.049 Y110.76 E7.09574
G1 X92.035 Y109.782 E7.12828
G1 X92.058 Y109.066 E7.1521
G1 X92.135 Y108.093 E7.18457
G1 X92.216 Y107.444 E7.20632
G1 X92.385 Y106.462 E7.23946
G1 X92.538 Y105.772 E7.26297
G1 X92.786 Y104.852 E7.29466
G1 X92.99 Y104.211 E7.31703
G1 X93.341 Y103.266 E7.35056
G1 X93.6 Y102.659 E7.37251
G1 X94.019 Y101.79 E7.4046
G1 X94.351 Y101.174 E7.42787
G1 X94.858 Y100.33 E7.46062
G1 X95.24 Y99.756 E7.48355
G1 X95.816 Y98.97 E7.51596
G1 X96.235 Y98.451 E7.53815
G1 X96.87 Y97.734 E7.57
G1 X97.337 Y97.252 E7.59233
G0 F6000 X97.624 Y97.53
G1 F1200 X98.33 Y96.868 E7.62452
G1 X98.854 Y96.421 E7.64742
G1 X99.592 Y95.848 E7.6785
G1 X100.153 Y95.452 E7.70134
G1 X100.947 Y94.945 E7.73267
G1 X101.529 Y94.61 E7.75501
G1 X102.356 Y94.183 E7.78596
G1 X102.978 Y93.897 E7.80873
G1 X103.865 Y93.538 E7.84056
G1 X104.487 Y93.32 E7.86248
G1 X105.384 Y93.051 E7.89363
G1 X106.083 Y92.876 E7.9176
G1 X107.027 Y92.687 E7.94962
G1 X107.698 Y92.585 E7.97219
G1 X108.618 Y92.487 E8.00296
G1 X109.266 Y92.448 E8.02455
G1 X110.207 Y92.435 E8.05586
G1 X110.922 Y92.458 E8.07965
G1 X111.857 Y92.532 E8.11084
G1 X112.506 Y92.613 E8.1326
G1 X113.459 Y92.778 E8.16477
G1 X114.151 Y92.932 E8.18834
G1 X115.028 Y93.168 E8.21855
G1 X115.669 Y93.372 E8.24092
G1 X116.577 Y93.71 E8.27315
G1 X117.182 Y93.968 E8.29503
G1 X118.02 Y94.371 E8.32595
G1 X118.636 Y94.703 E8.34923
G1 X119.448 Y95.191 E8.38074
G1 X120.022 Y95.573 E8.40367
G1 X120.778 Y96.128 E8.43486
G1 X121.297 Y96.547 E8.45705
G1 X121.988 Y97.157 E8.4877
G1 X122.47 Y97.624 E8.51003
G1 X123.132 Y98.33 E8.54222
G1 X123.579 Y98.854 E8.56512
G1 X124.146 Y99.584 E8.59587
G1 X124.54 Y100.141 E8.61856
G1 X125.052 Y100.941 E8.65015
G1 X125.386 Y101.521 E8.67241
G1 X125.813 Y102.347 E8.70334
G1 X126.102 Y102.975 E8.72633
G1 X126.462 Y103.865 E8.75826
G1 X126.68 Y104.487 E8.78018
G1 X126.949 Y105.384 E8.81133
G1 X127.124 Y106.083 E8.8353
G1 X127.312 Y107.023 E8.86718
G1 X127.414 Y107.692 E8.88969
G1 X127.513 Y108.617 E8.92063
G1 X127.552 Y109.266 E8.94226
G1 X127.565 Y110.205 E8.97349
G1 X127.542 Y110.921 E8.99732
G1 X127.468 Y111.857 E9.02855
G1 X127.387 Y112.506 E9.0503
G1 X127.224 Y113.451 E9.08219
G1 X127.071 Y114.141 E9.1057
G1 X126.833 Y115.026 E9.13618
G1 X126.629 Y115.667 E9.15855
G1 X126.291 Y116.577 E9.19084
G1 X126.032 Y117.184 E9.21279
G1 X125.63 Y118.018 E9.24358
G1 X125.302 Y118.627 E9.26659
G1 X124.818 Y119.434 E9.29789
G1 X124.432 Y120.015 E9.32109
G1 X123.872 Y120.778 E9.35257
G1 X123.453 Y121.297 E9.37475
G1 X122.843 Y121.987 E9.40539
G1 X122.379 Y122.466 E9.42757
G1 X121.677 Y123.126 E9.45961
G1 X121.15 Y123.576 E9.48266
G1 X120.408 Y124.152 E9.51391
G1 X119.847 Y124.548 E9.53674
G1 X119.053 Y125.055 E9.56808
G1 X118.471 Y125.39 E9.59041
G1 X117.644 Y125.817 E9.62137
G1 X117.022 Y126.103 E9.64414
G1 X116.135 Y126.462 E9.67597
G1 X115.513 Y126.68 E9.69789
G1 X114.616 Y126.949 E9.72903
G1 X113.917 Y127.124 E9.753
G1 X112.973 Y127.313 E9.78502
G1 X112.302 Y127.415 E9.80759
G1 X111.382 Y127.513 E9.83837
G1 X110.734 Y127.552 E9.85996
G1 X109.793 Y127.565 E9.89126
G1 X109.078 Y127.542 E9.91505
G1 X108.143 Y127.468 E9.94625
G1 X107.494 Y127.387 E9.968
G1 X106.541 Y127.222 E10.00017
G1 X105.849 Y127.068 E10.02375
G1 X104.972 Y126.832 E10.05396
G1 X104.331 Y126.628 E10.07633
G1 X103.423 Y126.29 E10.10855
G1 X102.818 Y126.032 E10.13043
G1 X101.981 Y125.629 E10.16133
G1 X101.363 Y125.296 E10.18468
G1 X100.543 Y124.804 E10.21648
G1 X99.97 Y124.422 E10.23939
G1 X99.219 Y123.87 E10.27039
G1 X98.699 Y123.45 E10.29262
G1 X98.011 Y122.841 E10.32318
G1 X97.53 Y122.375 E10.34545
G1 X96.864 Y121.665 E10.37783
G1 X96.414 Y121.137 E10.40091
G1 X95.842 Y120.4 E10.43194
G1 X95.447 Y119.84 E10.45473
G1 X94.936 Y119.04 E10.4863
G1 X94.603 Y118.46 E10.50855
G1 X94.181 Y117.641 E10.53919
G1 X93.896 Y117.021 E10.56188
G1 X93.538 Y116.135 E10.59367
G1 X93.32 Y115.513 E10.61559
G1 X93.052 Y114.619 E10.64663
G1 X92.876 Y113.917 E10.6707
G1 X92.685 Y112.962 E10.70309
G1 X92.584 Y112.294 E10.72557
G1 X92.487 Y111.383 E10.75604
G1 X92.448 Y110.736 E10.77759
G1 X92.435 Y109.795 E10.8089
G1 X92.458 Y109.079 E10.83272
G1 X92.532 Y108.143 E10.86395
G1 X92.613 Y107.494 E10.8857
G1 X92.776 Y106.549 E10.9176
G1 X92.929 Y105.859 E10.94111
G1 X93.167 Y104.974 E10.97159
G1 X93.371 Y104.333 E10.99396
G1 X93.709 Y103.423 E11.02625
G1 X93.968 Y102.816 E11.0482
G1 X94.371 Y101.98 E11.07906
G1 X94.703 Y101.364 E11.10234
G1 X95.191 Y100.552 E11.13385
G1 X95.573 Y99.978 E11.15678
G1 X96.128 Y99.222 E11.18797
G1 X96.547 Y98.703 E11.21016
G1 X97.157 Y98.012 E11.24082
G1 X97.624 Y97.53 E11.26314
G1 F1500 E4.76314
;MESH:rook.stl
G0 F6000 X105.483 Y107.729
G0 X105.313 Y109.843
G0 X105.505 Y111.181
G0 X106.067 Y112.41
G0 X106.952 Y113.432
G0 X107.872 Y114.023
G0 X109.352 Y114.704
;TYPE:WALL-INNER
G1 F1500 E11.26314
G1 F1200 X108.028 Y114.314 E11.30905
G1 X106.852 Y113.558 E11.35554
G1 X105.931 Y112.5 E11.4022
G1 X105.355 Y111.242 E11.44822
G1 X105.153 Y109.855 E11.49484
G1 X105.33 Y108.587 E11.53742
G1 X105.432 Y108.275 E11.54834
G1 X105.931 Y107.187 E11.58815
G1 X106.843 Y106.136 E11.63443
G1 X108.022 Y105.375 E11.6811
G1 X109.359 Y104.983 E11.72744
G1 X110.762 Y104.981 E11.77411
G1 X112.119 Y105.387 E11.82122
G1 X113.291 Y106.149 E11.86771
G1 X114.202 Y107.208 E11.91418
G1 X114.775 Y108.475 E11.96043
G1 X114.969 Y109.855 E12.00678
G1 X114.77 Y111.239 E12.05328
G1 X114.194 Y112.488 E12.09903
G1 X113.29 Y113.538 E12.14511
G1 X112.102 Y114.311 E12.19225
G1 X110.759 Y114.705 E12.2388
G1 X109.352 Y114.704 E12.2856
G0 F6000 X109.393 Y114.299
G1 F1200 X108.19 Y113.944 E12.32732
G1 X107.114 Y113.251 E12.36989
G1 X106.272 Y112.283 E12.41256
G1 X105.736 Y111.105 E12.4556
G1 X105.556 Y109.849 E12.4978
G1 X105.735 Y108.586 E12.54023
G1 X105.796 Y108.442 E12.54543
G1 X106.266 Y107.417 E12.58294
G1 X107.097 Y106.453 E12.62527
G1 X108.171 Y105.754 E12.66789
G1 X109.399 Y105.388 E12.71051
G1 X110.705 Y105.382 E12.75395
G1 X111.944 Y105.75 E12.79694
G1 X113.022 Y106.449 E12.83967
G1 X113.856 Y107.417 E12.88217
G1 X114.388 Y108.586 E12.92488
G1 X114.566 Y109.849 E12.96731
G1 X114.384 Y111.12 E13.01001
G1 X113.849 Y112.284 E13.05262
G1 X113.008 Y113.251 E13.09524
G1 X111.934 Y113.943 E13.13774
G1 X110.7 Y114.305 E13.18051
G1 X109.393 Y114.299 E13.22398
G0 F6000 X109.477 Y113.903
;TYPE:WALL-OUTER
G1 F1200 X108.358 Y113.577 E13.26275
G1 X107.369 Y112.935 E13.30196
G1 X106.606 Y112.05 E13.34083
G1 X106.129 Y111.008 E13.37895
G1 X105.961 Y109.833 E13.41842
G1 X106.128 Y108.68 E13.45717
G1 X106.16 Y108.609 E13.45976
G1 X106.615 Y107.621 E13.49594
G1 X107.373 Y106.745 E13.53447
G1 X108.36 Y106.112 E13.57347
G1 X109.477 Y105.784 E13.61219
G1 X110.645 Y105.784 E13.65104
G1 X111.762 Y106.111 E13.68975
G1 X112.744 Y106.743 E13.72859
G1 X113.507 Y107.621 E13.76728
G1 X113.994 Y108.68 E13.80605
G1 X114.164 Y109.843 E13.84514
G1 X113.999 Y110.99 E13.88368
G1 X113.517 Y112.05 E13.92241
G1 X112.757 Y112.931 E13.96111
G1 X111.778 Y113.568 E13.99996
G1 X110.662 Y113.9 E14.03868
G1 X109.477 Y113.903 E14.0781
G1 F1500 E7.5781
G0 F6000 X109.279 Y114.574
G0 X109.494 Y114.885
G0 X109.325 Y116.16
G0 X109.413 Y116.355
;TYPE:WALL-INNER
G1 F1500 E14.0781
G1 F1200 X110 Y116.382 E14.09764
G1 X110.587 Y116.355 E14.11718
G1 X111.17 Y116.273 E14.13677
G1 X111.734 Y116.14 E14.15604
G1 X112.308 Y115.951 E14.17614
G1 X112.845 Y115.713 E14.19567
G1 X113.362 Y115.425 E14.21536
G1 X113.847 Y115.094 E14.23489
G1 X114.299 Y114.717 E14.25446
G1 X114.717 Y114.299 E14.27413
G1 X115.095 Y113.844 E14.2938
G1 X115.426 Y113.361 E14.31328
G1 X115.713 Y112.845 E14.33291
G1 X115.951 Y112.307 E14.35248
G1 X116.14 Y111.734 E14.37255
